!!!!SEGMENT: pl-wtm--r-1723--003_stefani-jozef--noc-i-poranek-w-obozie-allegretto.krn
!!!cenid: 18xx:2329
!!!COM: Stefani, Józef
!!!COM-rismID: pe30024097
!!!CDT: 1800/04/16-1876/03/19
!!!CNT: Polish
!!!OPR: Noc i poranek w obozie
!!!OTL: Allegretto
!!!OMV: 003
!!!PDT:
!!!AGN: Secular
!!!SMS-siglum: PL-Wtm
!!!SMS-shelfmark: R 1723
!!!SMS-shelfwork: 001-003 M
!!!SMS-variant:
!!!SMS-altvar:
!!!NIFC-rismSourceID: 1001128950
!!!NIFC-islandoraID: pl-wtm:28378
!!!URL-pdf-islandora: https://repozytorium.nifc.pl/islandora/object/pl-wtm%3A28378/datastream/PDF/view
!!!URL-scan: https://polish.musicsources.pl/pl/lokalizacje/galeria/rekopisy/6460 @EN{Scan on Polish Music Sources Website} @PL{Skany w portalu Dziedzictwo Muzyki Polskiej w otwartym dostępie}
!!!ONB-nifc: UWAGA: skany 0009-0016 (nast. cz. Adagio)
!!!OMD: Allegretto.
!!!AIN: 1 bdrum 1 cbass 1 cello 1 clars 1 cor 1 drumP 4 empty 1 fagot 1 flt 1 oboe 1 picco 1 timpa 1 trngl 2 tromp 1 viola
!!!key:
**kern	**kern	**dynam	**kern	**dynam	**kern	**dynam	**kern	**dynam	**kern	**dynam	**kern	**dynam	**kern	**dynam	**kern	**dynam	**kern	**dynam	**kern	**dynam	**kern	**dynam	**kern	**dynam	**kern	**dynam	**kern	**dynam	**kern	**dynam	**kern	**dynam	**kern	**dynam	**kern	**dynam
*	*	*	*	*	*	*	*group2	*	*group2	*	*	*	*	*	*	*	*group1	*	*group1	*	*	*	*	*	*	*	*	*	*	*	*	*	*	*	*	*
*	*	*	*	*	*	*	*I""[Violini]	*	*I""[Violini]	*	*	*	*	*	*	*	*I""[Tromboni]	*	*I""[Tromboni]	*	*	*	*	*	*	*	*	*	*	*	*	*	*	*	*	*
*part19	*part18	*part18	*part17	*part17	*part16	*part16	*part15	*part15	*part14	*part14	*part13	*part13	*part12	*part12	*part11	*part11	*part10	*part10	*part9	*part9	*part8	*part8	*part7	*part7	*part6	*part6	*part5	*part5	*part4	*part4	*part3	*part3	*part2	*part2	*part1	*part1
*staff19	*staff18	*	*staff17	*	*staff16	*	*staff15	*	*staff14	*	*staff13	*	*staff12	*	*staff11	*	*staff10	*	*staff9	*	*staff8	*	*staff7	*	*staff6	*	*staff5	*	*staff4	*	*staff3	*	*staff2	*	*staff1	*
*IdrumP	*Icbass	*	*Icello	*	*Iviola	*	*Iempty	*	*Iempty	*	*Ibdrum	*	*Itrngl	*	*Itimpa	*	*Iempty	*	*Iempty	*	*Itromp	*	*Itromp	*	*Ifagot	*	*Icor	*	*Iclars	*	*Ioboe	*	*Ipicco	*	*Iflt	*
*I"[P. Tambour]	*I"[C: Baſsi]	*	*I"[Violoncelli]	*	*I"[Viole]	*	*	*	*	*	*I"[G. Caſsa]	*	*I"[Triangolo]	*	*I"[in C.G. Timpani]	*	*	*	*	*	*I"[in C Trombe tutti]	*	*I"[solo Tromba in]	*	*I"[Fagoto]	*	*I"[in C Corni]	*	*I"[in C Clarinetti]	*	*I"[Oboe]	*	*I"[F. Picolo]	*	*I"[Flauto]	*
*stria1	*	*	*	*	*	*	*	*	*	*	*	*	*	*	*	*	*	*	*	*	*	*	*	*	*	*	*	*	*	*	*	*	*	*	*	*
*clefF4	*clefF4	*	*clefF4	*	*clefC3	*	*clefG2	*	*clefG2	*	*clefF4	*	*clefG2	*	*clefF4	*	*clefC4	*	*clefC4	*	*clefG2	*	*clefG2	*	*clefF4	*	*clefG2	*	*clefG2	*	*clefG2	*	*clefG2	*	*clefG2	*
*	*Trd0c0	*	*	*	*	*	*	*	*	*	*	*	*	*	*	*	*	*	*	*	*	*	*	*	*	*	*	*	*	*	*	*	*Trd0c0	*	*	*
*k[]	*k[]	*	*k[]	*	*k[]	*	*k[]	*	*k[]	*	*k[]	*	*k[]	*	*k[]	*	*k[]	*	*k[]	*	*k[]	*	*k[]	*	*k[]	*	*k[]	*	*k[]	*	*k[]	*	*k[]	*	*k[]	*
*C:	*C:	*	*C:	*	*C:	*	*C:	*	*C:	*	*C:	*	*C:	*	*C:	*	*C:	*	*C:	*	*C:	*	*C:	*	*C:	*	*C:	*	*C:	*	*C:	*	*C:	*	*C:	*
*M3/8	*M3/8	*	*M3/8	*	*M3/8	*	*M3/8	*	*M3/8	*	*M3/8	*	*M3/8	*	*M3/8	*	*M3/8	*	*M3/8	*	*M3/8	*	*M3/8	*	*M3/8	*	*M3/8	*	*M3/8	*	*M3/8	*	*M3/8	*	*M3/8	*
*all\right	*all\right	*	*all\right	*	*all\right	*	*all\right	*	*all\right	*	*all\right	*	*all\right	*	*all\right	*	*all\right	*	*all\right	*	*all\right	*	*all\right	*	*all\right	*	*all\right	*	*all\right	*	*all\right	*	*all\right	*	*all\right	*
=1	=1	=1	=1	=1	=1	=1	=1	=1	=1	=1	=1	=1	=1	=1	=1	=1	=1	=1	=1	=1	=1	=1	=1	=1	=1	=1	=1	=1	=1	=1	=1	=1	=1	=1	=1	=1
*	*	*	*	*	*	*	*	*	*	*	*	*	*	*	*	*	*	*	*	*	*^	*	*	*	*	*	*	*	*	*	*	*	*	*	*	*
*	*	*	*	*	*tremolo	*	*tremolo	*	*tremolo	*	*	*	*	*	*	*	*	*	*	*	*	*	*	*	*	*	*	*	*	*	*	*	*	*	*	*	*
!	!LO:TX:t=P:problem=mixed beam	!	!LO:TX:t=P:problem=mixed beam	!	!	!	!	!	!	!	!	!	!	!	!	!	!	!	!	!	!	!	!	!	!	!	!	!	!	!	!	!	!	!	!	!	!
!	!	!LO:DY:rj	!	!LO:DY:rj	!	!LO:DY:rj	!	!	!	!LO:DY:rj	!	!	!	!	!	!	!	!	!	!	!	!	!	!	!	!	!	!	!	!	!	!	!	!	!	!	!
4.ryy	8GG/L	fp	8GG/Lyy	fpyy	8G/L	fp	8B/L 8d	.	8g/L	fp	4.r	.	4.r	.	4.r	.	4.r	.	4.r	.	16rc	4.re	.	8g/	.	4.r	.	4.r	.	4.r	.	4.r	.	4.r	.	4.r	.
!	!	!	!	!	!	!	!	!	!	!	!	!	!	!	!	!	!	!	!	!	!	!	!LO:DY:rj	!	!	!	!	!	!	!	!	!	!	!	!	!	!
.	.	.	.	.	.	.	.	.	.	.	.	.	.	.	.	.	.	.	.	.	16g/KL	.	p	.	.	.	.	.	.	.	.	.	.	.	.	.	.
.	8G\	.	8G\yy	.	8G/	.	8B/ 8d	.	8g/	.	.	.	.	.	.	.	.	.	.	.	8g/	.	.	8r	.	.	.	.	.	.	.	.	.	.	.	.	.
.	8G\J	.	8G\Jyy	.	8G/J	.	8B/J 8d	.	8g/J	.	.	.	.	.	.	.	.	.	.	.	8g/J	.	.	8r	.	.	.	.	.	.	.	.	.	.	.	.	.
=2	=2	=2	=2	=2	=2	=2	=2	=2	=2	=2	=2	=2	=2	=2	=2	=2	=2	=2	=2	=2	=2	=2	=2	=2	=2	=2	=2	=2	=2	=2	=2	=2	=2	=2	=2	=2	=2
!	!LO:TX:t=P:problem=mixed beam	!	!LO:TX:t=P:problem=mixed beam	!	!	!	!	!	!	!	!	!	!	!	!	!	!	!	!	!	!	!	!	!	!	!	!	!	!	!	!	!	!	!	!	!	!
!	!	!LO:DY:rj	!	!LO:DY:rj	!	!	!	!	!	!LO:DY:rj	!	!	!	!	!	!	!	!	!	!	!	!	!	!	!	!	!	!	!	!	!	!	!	!	!	!	!
4.ryy	8GG/L	fp	8GG/Lyy	fpyy	8G/L	.	8d/L	.	8f/L	fp	4.r	.	4.r	.	4.r	.	4.r	.	4.r	.	16rc	4.re	.	4.r	.	4.r	.	4.r	.	4.r	.	4.r	.	4.r	.	4.r	.
.	.	.	.	.	.	.	.	.	.	.	.	.	.	.	.	.	.	.	.	.	16g/KL	.	.	.	.	.	.	.	.	.	.	.	.	.	.	.	.
.	8G\	.	8G\yy	.	8G/	.	8d/	.	8f/	.	.	.	.	.	.	.	.	.	.	.	8g/	.	.	.	.	.	.	.	.	.	.	.	.	.	.	.	.
.	8G\J	.	8G\Jyy	.	8G/J	.	8d/J	.	8f/J	.	.	.	.	.	.	.	.	.	.	.	8g/J	.	.	.	.	.	.	.	.	.	.	.	.	.	.	.	.
*	*	*	*	*	*	*	*	*	*	*	*	*	*	*	*	*	*	*	*	*	*v	*v	*	*	*	*	*	*	*	*	*	*	*	*	*	*	*
!!LO:PB:g=original
=3	=3	=3	=3	=3	=3	=3	=3	=3	=3	=3	=3	=3	=3	=3	=3	=3	=3	=3	=3	=3	=3	=3	=3	=3	=3	=3	=3	=3	=3	=3	=3	=3	=3	=3	=3	=3
!	!LO:TX:t=P:problem=mixed beam	!	!LO:TX:t=P:problem=mixed beam	!	!	!	!	!	!	!	!	!	!	!	!	!	!	!	!	!	!	!	!	!	!	!	!	!	!	!	!	!	!	!	!	!
!	!	!LO:DY:rj	!LO:TX:t=//	!LO:DY:rj	!	!LO:DY:rj	!	!	!	!LO:DY:rj	!	!	!	!	!	!	!	!	!	!	!	!	!	!	!	!	!	!	!	!	!	!	!	!	!	!
4.ryy	8GG/L	fp	8GG/Lyy	fpyy	8G/L	fp	8c/L	.	8e/L	fp	4.r	.	4.r	.	4.r	.	4.r	.	4.r	.	16rff	.	4.r	.	4.ryy	.	4.ryy	.	4.ryy	.	4.ryy	.	4.ryy	.	4.ryy	.
.	.	.	.	.	.	.	.	.	.	.	.	.	.	.	.	.	.	.	.	.	16g/KL	.	.	.	.	.	.	.	.	.	.	.	.	.	.	.
.	8G\	.	8G\yy	.	8G/	.	8c/	.	8e/	.	.	.	.	.	.	.	.	.	.	.	8g/	.	.	.	.	.	.	.	.	.	.	.	.	.	.	.
.	8G\J	.	8G\Jyy	.	8G/J	.	8c/J	.	8e/J	.	.	.	.	.	.	.	.	.	.	.	8g/J	.	.	.	.	.	.	.	.	.	.	.	.	.	.	.
=4	=4	=4	=4	=4	=4	=4	=4	=4	=4	=4	=4	=4	=4	=4	=4	=4	=4	=4	=4	=4	=4	=4	=4	=4	=4	=4	=4	=4	=4	=4	=4	=4	=4	=4	=4	=4
!	!LO:TX:t=P:problem=mixed beam	!	!LO:TX:t=P:problem=mixed beam	!	!	!	!	!	!	!	!	!	!	!	!	!	!	!	!	!	!	!	!	!	!	!	!	!	!	!	!	!	!	!	!	!
!	!	!LO:DY:rj	!	!LO:DY:rj	!	!LO:DY:rj	!	!	!	!LO:DY:rj	!	!	!	!	!	!	!	!	!	!	!	!	!	!	!	!	!	!	!	!	!	!	!	!	!	!
4.ryy	8GG/L	fp	8GG/Lyy	fpyy	8G/L	fp	8B/L	.	8d/L	fp	4.ryy	.	4.ryy	.	4.ryy	.	4.ryy	.	4.ryy	.	16r	.	8r	.	4.ryy	.	4.ryy	.	4.ryy	.	4.ryy	.	4.ryy	.	4.ryy	.
.	.	.	.	.	.	.	.	.	.	.	.	.	.	.	.	.	.	.	.	.	16g/KL	.	.	.	.	.	.	.	.	.	.	.	.	.	.	.
.	8G\	.	8G\yy	.	8G/	.	8B/	.	8d/	.	.	.	.	.	.	.	.	.	.	.	8g/J	.	8g/L	.	.	.	.	.	.	.	.	.	.	.	.	.
.	8G\J	.	8G\Jyy	.	8G/J	.	8B/J	.	8d/J	.	.	.	.	.	.	.	.	.	.	.	8r	.	(<32a/LL	.	.	.	.	.	.	.	.	.	.	.	.	.
.	.	.	.	.	.	.	.	.	.	.	.	.	.	.	.	.	.	.	.	.	.	.	32b/	.	.	.	.	.	.	.	.	.	.	.	.	.
.	.	.	.	.	.	.	.	.	.	.	.	.	.	.	.	.	.	.	.	.	.	.	32cc/	.	.	.	.	.	.	.	.	.	.	.	.	.
.	.	.	.	.	.	.	.	.	.	.	.	.	.	.	.	.	.	.	.	.	.	.	32dd/JJJ	.	.	.	.	.	.	.	.	.	.	.	.	.
*	*	*	*	*	*Xtremolo	*	*Xtremolo	*	*Xtremolo	*	*	*	*	*	*	*	*	*	*	*	*	*	*	*	*	*	*	*	*	*	*	*	*	*	*	*
=5	=5	=5	=5	=5	=5	=5	=5	=5	=5	=5	=5	=5	=5	=5	=5	=5	=5	=5	=5	=5	=5	=5	=5	=5	=5	=5	=5	=5	=5	=5	=5	=5	=5	=5	=5	=5
4.ryy	8C/	.	8C/yy	.	8r	.	8r	.	8c/	.	4.ryy	.	4.ryy	.	4.ryy	.	4.ryy	.	4.ryy	.	4.r	.	16.ee\LL)	.	4.ryy	.	4.ryy	.	4.ryy	.	4.ryy	.	4.ryy	.	4.ryy	.
.	.	.	.	.	.	.	.	.	.	.	.	.	.	.	.	.	.	.	.	.	.	.	32b\JJk	.	.	.	.	.	.	.	.	.	.	.	.	.
.	8r	.	8ryy	.	8c\L	.	8G/L 8e	.	8r	.	.	.	.	.	.	.	.	.	.	.	.	.	8cc/L	.	.	.	.	.	.	.	.	.	.	.	.	.
.	8r	.	8ryy	.	8c\J	.	8G/J 8e	.	8r	.	.	.	.	.	.	.	.	.	.	.	.	.	8g/J	.	.	.	.	.	.	.	.	.	.	.	.	.
=6	=6	=6	=6	=6	=6	=6	=6	=6	=6	=6	=6	=6	=6	=6	=6	=6	=6	=6	=6	=6	=6	=6	=6	=6	=6	=6	=6	=6	=6	=6	=6	=6	=6	=6	=6	=6
4.ryy	8C/	.	8C/yy	.	8r	.	8r	.	4.r	.	4.ryy	.	4.ryy	.	4.ryy	.	4.ryy	.	4.ryy	.	4.r	.	(24a/LL	.	4.ryy	.	4.ryy	.	4.ryy	.	4.ryy	.	4.ryy	.	4.ryy	.
.	.	.	.	.	.	.	.	.	.	.	.	.	.	.	.	.	.	.	.	.	.	.	24g/)	.	.	.	.	.	.	.	.	.	.	.	.	.
.	.	.	.	.	.	.	.	.	.	.	.	.	.	.	.	.	.	.	.	.	.	.	24f#X'/JJ	.	.	.	.	.	.	.	.	.	.	.	.	.
.	8r	.	8ryy	.	8c\L	.	8G/L 8e	.	.	.	.	.	.	.	.	.	.	.	.	.	.	.	8g'/L	.	.	.	.	.	.	.	.	.	.	.	.	.
.	8r	.	8ryy	.	8c\J	.	8G/J 8e	.	.	.	.	.	.	.	.	.	.	.	.	.	.	.	8e'/J	.	.	.	.	.	.	.	.	.	.	.	.	.
=7	=7	=7	=7	=7	=7	=7	=7	=7	=7	=7	=7	=7	=7	=7	=7	=7	=7	=7	=7	=7	=7	=7	=7	=7	=7	=7	=7	=7	=7	=7	=7	=7	=7	=7	=7	=7
*	*	*	*	*	*	*	*	*	*	*	*	*	*	*	*	*	*	*	*	*	*	*	*Xtuplet	*	*	*	*	*	*	*	*	*	*	*	*	*
4.ryy	8GG/	.	8GG/yy	.	8r	.	8r	.	4.r	.	4.ryy	.	4.ryy	.	4.ryy	.	4.ryy	.	4.ryy	.	4.r	.	(24fn/LL	.	4.ryy	.	4.ryy	.	4.ryy	.	4.ryy	.	4.ryy	.	4.ryy	.
.	.	.	.	.	.	.	.	.	.	.	.	.	.	.	.	.	.	.	.	.	.	.	24g/	.	.	.	.	.	.	.	.	.	.	.	.	.
.	.	.	.	.	.	.	.	.	.	.	.	.	.	.	.	.	.	.	.	.	.	.	24f/JJ	.	.	.	.	.	.	.	.	.	.	.	.	.
.	8r	.	8ryy	.	8d\L	.	8G/L 8f	.	.	.	.	.	.	.	.	.	.	.	.	.	.	.	8d/L)	.	.	.	.	.	.	.	.	.	.	.	.	.
.	8r	.	8ryy	.	8d\J	.	8G/J 8f	.	.	.	.	.	.	.	.	.	.	.	.	.	.	.	8b'/J	.	.	.	.	.	.	.	.	.	.	.	.	.
=8	=8	=8	=8	=8	=8	=8	=8	=8	=8	=8	=8	=8	=8	=8	=8	=8	=8	=8	=8	=8	=8	=8	=8	=8	=8	=8	=8	=8	=8	=8	=8	=8	=8	=8	=8	=8
4.ryy	8C/	.	8C/yy	.	8r	.	8r	.	8r	.	4.ryy	.	4.ryy	.	4.ryy	.	4.ryy	.	4.ryy	.	4.r	.	16.cc\LL	.	4.r	.	4.r	.	8r	.	8r	.	8r	.	8r	.
.	.	.	.	.	.	.	.	.	.	.	.	.	.	.	.	.	.	.	.	.	.	.	32dd\JK	.	.	.	.	.	.	.	.	.	.	.	.	.
.	8r	.	8ryy	.	8c\L	.	8G/L 8e	.	8r	.	.	.	.	.	.	.	.	.	.	.	.	.	8ee\J	.	.	.	.	.	8r	.	8r	.	8r	.	8r	.
!	!	!	!	!	!	!	!	!	!	!LO:DY:rj	!	!	!	!	!	!	!	!	!	!	!	!	!	!	!	!	!	!	!	!	!	!	!	!	!	!
.	8r	.	8ryy	.	8c\J	.	8G/J 8e	.	8gg\	f	.	.	.	.	.	.	.	.	.	.	.	.	8r	.	.	.	.	.	8g/	.	8g/	.	8gg\	.	8gg\	.
!!LO:PB:g=original
=9	=9	=9	=9	=9	=9	=9	=9	=9	=9	=9	=9	=9	=9	=9	=9	=9	=9	=9	=9	=9	=9	=9	=9	=9	=9	=9	=9	=9	=9	=9	=9	=9	=9	=9	=9	=9
*	*tremolo	*	*tremolo	*	*tremolo	*	*tremolo	*	*	*	*	*	*	*	*	*	*	*	*	*	*	*	*	*	*	*	*	*	*	*	*	*	*	*	*	*
!	!	!LO:DY:rj	!	!LO:DY:rj	!	!LO:DY:rj	!	!	!	!	!	!	!	!LO:DY:rj	!	!	!	!	!	!LO:DY:rj	!	!	!	!	!	!	!	!LO:DY:rj	!	!	!	!	!LO:TX:t=col Fl. //	!	!	!
4.ryy	8C/L	f	8C/Lyy	fy	8c\L	f	8G/L 8e	.	16.eee\LL	f	4Ra/	.	8r	f	8r	.	8r	.	8r	f	8r	.	4.r	.	4.C/	.	4.g\ 4.ee	f	16.ee\LL	.	16.ee\LL	.	16.eee\LLyy	.	16.eee\LL	.
.	.	.	.	.	.	.	.	.	32bb\JJk	.	.	.	.	.	.	.	.	.	.	.	.	.	.	.	.	.	.	.	32b\JJk	.	32b\JJk	.	32bb\JJkyy	.	32bb\JJk	.
*	*	*	*	*	*	*	*	*	*	*	*	*	*tremolo	*	*tremolo	*	*	*	*	*	*	*	*	*	*	*	*	*	*	*	*	*	*	*	*	*
!	!	!	!	!	!	!	!	!	!	!	!	!	!	!	!	!	!	!	!	!	!	!LO:DY:rj	!	!	!	!	!	!	!	!	!	!	!	!	!	!
.	8C/	.	8C/yy	.	8c\	.	8G/ 8e	.	8ccc\L	.	.	.	32Ree\LLL	.	32C/LLL	.	8G\L 8d	.	8c\L 8e	.	8e/L 8cc	f	.	.	.	.	.	.	8cc/L	.	8cc\L	.	8ccc\Lyy	.	8ccc\L	.
.	.	.	.	.	.	.	.	.	.	.	.	.	32Ree\	.	32C/	.	.	.	.	.	.	.	.	.	.	.	.	.	.	.	.	.	.	.	.	.
.	.	.	.	.	.	.	.	.	.	.	.	.	32Ree\	.	32C/	.	.	.	.	.	.	.	.	.	.	.	.	.	.	.	.	.	.	.	.	.
.	.	.	.	.	.	.	.	.	.	.	.	.	32Ree\JJ	.	32C/JJ	.	.	.	.	.	.	.	.	.	.	.	.	.	.	.	.	.	.	.	.	.
*	*	*	*	*	*	*	*	*	*	*	*	*	*Xtremolo	*	*Xtremolo	*	*	*	*	*	*	*	*	*	*	*	*	*	*	*	*	*	*	*	*	*
.	8C/J	.	8C/Jyy	.	8c\J	.	8G/J 8e	.	8gg\J	.	8r	.	8Ree\J	.	8C/J	.	8G\J 8d	.	8c\J 8e	.	8e/J 8g	.	.	.	.	.	.	.	8e/J 8g	.	8ee\J	.	8gg\Jyy	.	8gg\J	.
=10	=10	=10	=10	=10	=10	=10	=10	=10	=10	=10	=10	=10	=10	=10	=10	=10	=10	=10	=10	=10	=10	=10	=10	=10	=10	=10	=10	=10	=10	=10	=10	=10	=10	=10	=10	=10
*	*	*	*	*	*rep	*	*rep	*	*Xtuplet	*	*	*	*rep	*	*rep	*	*rep	*	*rep	*	*	*	*	*	*	*	*	*	*Xtuplet	*	*Xtuplet	*	*Xtuplet	*	*Xtuplet	*
4.ryy	8C/L	.	8C/Lyy	.	8c\L	.	8G/L 8e	.	(24aa\LL	.	4Ra/	.	8r	.	8r	.	8r	.	8r	.	8r	.	4.r	.	4.C/	.	4.g\ 4.ee	.	(<24f/LL 24a	.	(>24ff\LL	.	(>24aa\LLyy	.	(>24aa\LL	.
.	.	.	.	.	.	.	.	.	24gg\)	.	.	.	.	.	.	.	.	.	.	.	.	.	.	.	.	.	.	.	24e/) 24g	.	24ee\)	.	24gg\)yy	.	24gg\)	.
.	.	.	.	.	.	.	.	.	24ff#X'\JJ	.	.	.	.	.	.	.	.	.	.	.	.	.	.	.	.	.	.	.	24d#X'/JJ 24f#X	.	24dd#X'\JJ	.	24ff#X'\JJyy	.	24ff#X'\JJ	.
*	*	*	*	*	*	*	*	*	*	*	*	*	*tremolo	*	*tremolo	*	*	*	*	*	*	*	*	*	*	*	*	*	*	*	*	*	*	*	*	*
.	8C/	.	8C/yy	.	8c\	.	8G/ 8e	.	8gg'\L	.	.	.	32Ree\LLL	.	32C/LLL	.	8G\L 8d	.	8c\L 8e	.	8e/L 8g	.	.	.	.	.	.	.	8e'/L 8g	.	8ee'\L	.	8gg'\Lyy	.	8gg'\L	.
.	.	.	.	.	.	.	.	.	.	.	.	.	32Ree\	.	32C/	.	.	.	.	.	.	.	.	.	.	.	.	.	.	.	.	.	.	.	.	.
.	.	.	.	.	.	.	.	.	.	.	.	.	32Ree\	.	32C/	.	.	.	.	.	.	.	.	.	.	.	.	.	.	.	.	.	.	.	.	.
.	.	.	.	.	.	.	.	.	.	.	.	.	32Ree\JJ	.	32C/JJ	.	.	.	.	.	.	.	.	.	.	.	.	.	.	.	.	.	.	.	.	.
*	*	*	*	*	*	*	*	*	*	*	*	*	*Xtremolo	*	*Xtremolo	*	*	*	*	*	*	*	*	*	*	*	*	*	*	*	*	*	*	*	*	*
.	8C/J	.	8C/Jyy	.	8c\J	.	8G/J 8e	.	8ee'\J	.	8r	.	8Ree\J	.	8C/J	.	8G\J 8d	.	8c\J 8e	.	8c/J 8e	.	.	.	.	.	.	.	8c'/J 8e	.	8cc'\J	.	8ee'\Jyy	.	8ee'\J	.
*	*Xtremolo	*	*Xtremolo	*	*Xrep	*	*Xrep	*	*	*	*	*	*Xrep	*	*Xrep	*	*Xrep	*	*Xrep	*	*	*	*	*	*	*	*	*	*	*	*	*	*	*	*	*
=11	=11	=11	=11	=11	=11	=11	=11	=11	=11	=11	=11	=11	=11	=11	=11	=11	=11	=11	=11	=11	=11	=11	=11	=11	=11	=11	=11	=11	=11	=11	=11	=11	=11	=11	=11	=11
*	*	*	*	*	*	*	*	*	*tuplet	*	*	*	*rep	*	*	*	*	*	*	*	*	*	*	*	*	*	*	*	*	*	*tuplet	*	*	*	*	*
!	!LO:TX:t=P:problem=mixed beam	!	!LO:TX:t=P:problem=mixed beam	!	!	!	!	!	!	!	!	!	!	!	!	!	!	!	!	!	!	!	!	!	!	!	!	!	!	!	!	!	!	!	!	!
!	!	!	!	!	!	!	!	!	!LO:TUP:a:problem=przecinek zamiast numeru	!	!	!	!	!	!	!	!	!	!	!	!	!	!	!	!	!	!	!	!	!	!LO:TUP:a:problem=przecinek zamiast numeru	!	!	!	!	!
4.ryy	8GG/L	.	8GG/Lyy	.	8d\L	.	8G/L 8f	.	(>24ffn\LL	.	4Ra/	.	8r	.	8r	.	8r	.	8r	.	8r	.	4.r	.	4.GG/	.	4.g\ 4.dd	.	24dn/LL 24fn	.	(>24dd\LL	.	(>24ffn\LLyy	.	(>24ffn\LL	.
.	.	.	.	.	.	.	.	.	24gg\	.	.	.	.	.	.	.	.	.	.	.	.	.	.	.	.	.	.	.	24e/ 24g	.	24ee\	.	24gg\yy	.	24gg\	.
.	.	.	.	.	.	.	.	.	24ff\JJ	.	.	.	.	.	.	.	.	.	.	.	.	.	.	.	.	.	.	.	24d/JJ 24f	.	24dd\JJ	.	24ff\JJyy	.	24ff\JJ	.
*	*	*	*	*	*	*	*	*	*	*	*	*	*tremolo	*	*tremolo	*	*	*	*	*	*	*	*	*	*	*	*	*	*	*	*	*	*	*	*	*
.	8G\	.	8G\yy	.	8d\	.	8G/ 8f	.	8dd\L)	.	.	.	32Ree\LLL	.	32GG/LLL	.	8D\L 8d	.	8d\L 8f	.	8d/L 8b	.	.	.	.	.	.	.	8B/L 8d	.	8b\L)	.	8dd\L)yy	.	8dd\L)	.
.	.	.	.	.	.	.	.	.	.	.	.	.	32Ree\	.	32GG/	.	.	.	.	.	.	.	.	.	.	.	.	.	.	.	.	.	.	.	.	.
.	.	.	.	.	.	.	.	.	.	.	.	.	32Ree\	.	32GG/	.	.	.	.	.	.	.	.	.	.	.	.	.	.	.	.	.	.	.	.	.
.	.	.	.	.	.	.	.	.	.	.	.	.	32Ree\JJ	.	32GG/JJ	.	.	.	.	.	.	.	.	.	.	.	.	.	.	.	.	.	.	.	.	.
*	*	*	*	*	*	*	*	*	*	*	*	*	*Xtremolo	*	*Xtremolo	*	*	*	*	*	*	*	*	*	*	*	*	*	*	*	*	*	*	*	*	*
.	8GG/J	.	8GG/Jyy	.	8d\J	.	8G/J 8f	.	8bb'\J	.	8r	.	8Ree\J	.	8GG/J	.	8D\J 8d	.	8d\J 8f	.	8f/J 8dd	.	.	.	.	.	.	.	8b/J 8dd	.	8ff\J	.	8bb'\Jyy	.	8bb'\J	.
*	*	*	*	*	*	*	*	*	*	*	*	*	*Xrep	*	*	*	*	*	*	*	*	*	*	*	*	*	*	*	*	*	*	*	*	*	*	*
=12	=12	=12	=12	=12	=12	=12	=12	=12	=12	=12	=12	=12	=12	=12	=12	=12	=12	=12	=12	=12	=12	=12	=12	=12	=12	=12	=12	=12	=12	=12	=12	=12	=12	=12	=12	=12
*	*tremolo	*	*tremolo	*	*	*	*	*	*	*	*	*	*	*	*	*	*tremolo	*	*tremolo	*	*	*	*	*	*tremolo	*	*tremolo	*	*	*	*	*	*	*	*	*
4.ryy	8C/L	.	8C/Lyy	.	8c\L	.	8G/L 8e	.	8ccc\L	.	4Ra/	.	8r	.	8r	.	8G\L 8d	.	8c\L 8e	.	8e/L 8cc	.	4.r	.	8C/L	.	8e/L 8cc	.	8cc\L	.	8ee\L	.	8ccc\Lyy	.	8ccc\L	.
.	8C/	.	8C/yy	.	8c\	.	8G/ 8e	.	16gg\L	.	.	.	8Ree\L	.	8C/L	.	8G\ 8d	.	8c\ 8e	.	16g/L	.	.	.	8C/	.	8e/ 8cc	.	16g\L 16gg	.	16gg\L	.	16gg\Lyy	.	16gg\L	.
.	.	.	.	.	.	.	.	.	16ee\JJ	.	.	.	.	.	.	.	.	.	.	.	16e/JJ	.	.	.	.	.	.	.	16e\JJ 16ee	.	16ee\JJ	.	16eee\JJyy	.	16eee\JJ	.
.	8C/J	.	8C/Jyy	.	8c\J	.	8G/J 8e	.	8cc\	.	8r	.	8Ree\J	.	8C/J	.	8G\J 8d	.	8c\J 8e	.	8c/	.	.	.	8C/J	.	8e/J 8cc	.	8c/ 8cc	.	8cc\	.	8ccc\yy	.	8ccc\	.
*	*Xtremolo	*	*Xtremolo	*	*Xtremolo	*	*Xtremolo	*	*	*	*	*	*	*	*	*	*Xtremolo	*	*Xtremolo	*	*	*	*	*	*Xtremolo	*	*Xtremolo	*	*	*	*	*	*	*	*	*
!	!	!	!	!	!	!	!	!	!	!	!	!	!	!	!	!	!	!	!	!	!	!	!	!	!	!	!	!	!	!	!LO:TX:t=P:problem=zbędna pauza 8r	!	!	!	!LO:TX:t=P:problem=zbędna pauza 8r	!
8ryy	8ryy	.	8ryy	.	8ryy	.	8ryy	.	8ryy	.	8ryy	.	8ryy	.	8ryy	.	8ryy	.	8ryy	.	8ryy	.	8ryy	.	8ryy	.	8ryy	.	8ryy	.	8r	.	8ryy	.	8r	.
=13	=13	=13	=13	=13	=13	=13	=13	=13	=13	=13	=13	=13	=13	=13	=13	=13	=13	=13	=13	=13	=13	=13	=13	=13	=13	=13	=13	=13	=13	=13	=13	=13	=13	=13	=13	=13
!	!	!LO:DY:rj	!	!LO:DY:rj	!	!	!	!	!	!	!	!	!	!	!	!	!	!	!	!	!	!	!	!	!	!	!	!	!	!	!	!	!	!	!	!
4.ryy	(>4.F\	p	(>4.F\yy	py	8r	.	8r	p	4.r	.	4.r	.	4.r	.	4.r	.	4.r	.	4.r	.	4.r	.	16.a/LL	.	4.r	.	4.r	.	4.r	.	4.r	.	4.r	.	4.r	.
.	.	.	.	.	.	.	.	.	.	.	.	.	.	.	.	.	.	.	.	.	.	.	32b/JJk	.	.	.	.	.	.	.	.	.	.	.	.	.
.	.	.	.	.	8c\L	.	8A/L 8f	.	.	.	.	.	.	.	.	.	.	.	.	.	.	.	8cc/L	.	.	.	.	.	.	.	.	.	.	.	.	.
.	.	.	.	.	8c\J	.	8A/J 8f	.	.	.	.	.	.	.	.	.	.	.	.	.	.	.	8a/J	.	.	.	.	.	.	.	.	.	.	.	.	.
=14	=14	=14	=14	=14	=14	=14	=14	=14	=14	=14	=14	=14	=14	=14	=14	=14	=14	=14	=14	=14	=14	=14	=14	=14	=14	=14	=14	=14	=14	=14	=14	=14	=14	=14	=14	=14
4.ryy	4.E\)	.	4.E\)yy	.	8r	.	8r	.	4.r	.	4.r	.	4.r	.	4.r	.	4.r	.	4.r	.	4.r	.	16.g/LL	.	4.r	.	4.r	.	4.r	.	4.r	.	4.r	.	4.r	.
.	.	.	.	.	.	.	.	.	.	.	.	.	.	.	.	.	.	.	.	.	.	.	32b/JJk	.	.	.	.	.	.	.	.	.	.	.	.	.
.	.	.	.	.	8c\L	.	8G/L 8g	.	.	.	.	.	.	.	.	.	.	.	.	.	.	.	8cc/L	.	.	.	.	.	.	.	.	.	.	.	.	.
.	.	.	.	.	8c\J	.	8G/J 8g	.	.	.	.	.	.	.	.	.	.	.	.	.	.	.	8g/J	.	.	.	.	.	.	.	.	.	.	.	.	.
!!LO:PB:g=original
=15	=15	=15	=15	=15	=15	=15	=15	=15	=15	=15	=15	=15	=15	=15	=15	=15	=15	=15	=15	=15	=15	=15	=15	=15	=15	=15	=15	=15	=15	=15	=15	=15	=15	=15	=15	=15
4.ryy	4.D\	.	4.D\yy	.	8r	.	8r	.	4.r	.	4.r	.	4.r	.	4.r	.	4.r	.	4.r	.	4.r	.	16.f/LL	.	4.r	.	4.r	.	4.r	.	4.r	.	4.r	.	4.r	.
.	.	.	.	.	.	.	.	.	.	.	.	.	.	.	.	.	.	.	.	.	.	.	32dd/JJk	.	.	.	.	.	.	.	.	.	.	.	.	.
.	.	.	.	.	8d\L	.	8G/L 8f	.	.	.	.	.	.	.	.	.	.	.	.	.	.	.	8b/L	.	.	.	.	.	.	.	.	.	.	.	.	.
.	.	.	.	.	8d\J	.	8G/J 8f	.	.	.	.	.	.	.	.	.	.	.	.	.	.	.	8f/J	.	.	.	.	.	.	.	.	.	.	.	.	.
=16	=16	=16	=16	=16	=16	=16	=16	=16	=16	=16	=16	=16	=16	=16	=16	=16	=16	=16	=16	=16	=16	=16	=16	=16	=16	=16	=16	=16	=16	=16	=16	=16	=16	=16	=16	=16
4.ryy	4.C/	.	4.C/yy	.	8r	.	8r	.	4.r	.	4.r	.	4.r	.	4.r	.	4.r	.	4.r	.	4.r	.	16.e'/LL	.	4.r	.	4.r	.	4.r	.	4.r	.	4.r	.	4.r	.
.	.	.	.	.	.	.	.	.	.	.	.	.	.	.	.	.	.	.	.	.	.	.	32g'/JJk	.	.	.	.	.	.	.	.	.	.	.	.	.
.	.	.	.	.	8c\L	.	8G/L 8e	.	.	.	.	.	.	.	.	.	.	.	.	.	.	.	(>16b\LL	.	.	.	.	.	.	.	.	.	.	.	.	.
.	.	.	.	.	.	.	.	.	.	.	.	.	.	.	.	.	.	.	.	.	.	.	16cc\JJ)	.	.	.	.	.	.	.	.	.	.	.	.	.
.	.	.	.	.	8c\J	.	8G/J 8e	.	.	.	.	.	.	.	.	.	.	.	.	.	.	.	(>16dd#X\LL	.	.	.	.	.	.	.	.	.	.	.	.	.
.	.	.	.	.	.	.	.	.	.	.	.	.	.	.	.	.	.	.	.	.	.	.	16ee\JJ)	.	.	.	.	.	.	.	.	.	.	.	.	.
=17	=17	=17	=17	=17	=17	=17	=17	=17	=17	=17	=17	=17	=17	=17	=17	=17	=17	=17	=17	=17	=17	=17	=17	=17	=17	=17	=17	=17	=17	=17	=17	=17	=17	=17	=17	=17
*	*	*	*	*	*	*	*	*	*	*	*	*	*	*	*	*	*	*	*	*	*	*	*	*	*	*	*^	*	*	*	*	*	*	*	*	*
*	*tremolo	*	*tremolo	*	*tremolo	*	*	*	*	*	*	*	*	*	*	*	*	*	*	*	*	*	*	*	*	*	*	*	*	*	*	*	*	*	*	*	*
!	!	!LO:DY:rj	!	!LO:DY:rj	!	!	!	!LO:DY:rj	!	!LO:DY:rj	!	!	!	!LO:DY:rj	!	!	!	!	!	!LO:DY:rj	!	!	!	!	!LO:DY:rj	!	!	!	!LO:DY:rj	!	!	!	!LO:DY:rj	!LO:TX:b:t=col Fl. //	!	!	!
4.ryy	8F\L	f	8F\Lyy	fy	8c\L	.	4.A/ 4.f	f	16.aa\LL	f	4Ra/	.	8r	f	8r	.	8r	.	8r	f	8r	f	4.r	.	4.F\	f	[>4.cc/	4.cc\	f	16.b/LL	.	4.ff\	f	16.aa'\LLyy	.	16.aa'\LL	.
.	.	.	.	.	.	.	.	.	32bb\JJk	.	.	.	.	.	.	.	.	.	.	.	.	.	.	.	.	.	.	.	.	32cc/JJk	.	.	.	32bb'\JJkyy	.	32bb'\JJk	.
.	.	.	.	.	.	.	.	.	(<8qddd/	.	.	.	.	.	.	.	.	.	.	.	.	.	.	.	.	.	.	.	.	(<8qdd/	.	.	.	(<8qddd/yy	.	(<8qddd/	.
*	*	*	*	*	*	*	*	*	*	*	*	*	*tremolo	*	*tremolo	*	*	*	*	*	*	*	*	*	*	*	*	*	*	*	*	*	*	*	*	*	*
.	8F\	.	8F\yy	.	8c\	.	.	.	8ccc\L)	.	.	.	32Ree\LLL	.	32C/LLL	.	8c\L	.	8A\L 8f	.f	8a/L 8cc	.	.	.	.	.	.	.	.	8cc/L)	.	.	.	8ccc\L)yy	.	8ccc\L)	.
.	.	.	.	.	.	.	.	.	.	.	.	.	32Ree\	.	32C/	.	.	.	.	.	.	.	.	.	.	.	.	.	.	.	.	.	.	.	.	.	.
.	.	.	.	.	.	.	.	.	.	.	.	.	32Ree\	.	32C/	.	.	.	.	.	.	.	.	.	.	.	.	.	.	.	.	.	.	.	.	.	.
.	.	.	.	.	.	.	.	.	.	.	.	.	32Ree\JJ	.	32C/JJ	.	.	.	.	.	.	.	.	.	.	.	.	.	.	.	.	.	.	.	.	.	.
*	*	*	*	*	*	*	*	*	*	*	*	*	*Xtremolo	*	*Xtremolo	*	*	*	*	*	*	*	*	*	*	*	*	*	*	*	*	*	*	*	*	*	*
.	8F\J	.	8F\Jyy	.	8c\J	.	.	.	8aa'\J	.	8r	.	8Ree\J	.	8C/J	.	8c\J	.	8A\J 8f	.	8f/J 8a	.	.	.	.	.	.	.	.	8a'/J	.	.	.	8aa'\Jyy	.	8aa'\J	.
=18	=18	=18	=18	=18	=18	=18	=18	=18	=18	=18	=18	=18	=18	=18	=18	=18	=18	=18	=18	=18	=18	=18	=18	=18	=18	=18	=18	=18	=18	=18	=18	=18	=18	=18	=18	=18	=18
*	*	*	*	*	*	*	*tremolo	*	*	*	*	*	*	*	*rep	*	*	*	*	*	*	*	*	*	*	*	*	*	*	*	*	*	*	*	*	*	*
4.ryy	8E\L	.	8E\Lyy	.	8c\L	.	8G/L 8g	.	16.gg\LL	.	4Ra/	.	8r	.	8r	.	8r	.	8r	.	8r	.	4.r	.	4.E\	.	4.cc/]	4.cc\	.	16.g/LL	.	4.gg\	.	16.gg'\LLyy	.	16.gg'\LL	.
.	.	.	.	.	.	.	.	.	32bb\JJk	.	.	.	.	.	.	.	.	.	.	.	.	.	.	.	.	.	.	.	.	32b/JJk	.	.	.	32bb'\JJkyy	.	32bb'\JJk	.
.	.	.	.	.	.	.	.	.	(<8qddd/	.	.	.	.	.	.	.	.	.	.	.	.	.	.	.	.	.	.	.	.	(<8qdd/	.	.	.	(<8qddd/yy	.	(<8qddd/	.
*	*	*	*	*	*	*	*	*	*	*	*	*	*tremolo	*	*tremolo	*	*	*	*	*	*	*	*	*	*	*	*	*	*	*	*	*	*	*	*	*	*
.	8E\	.	8E\yy	.	8c\	.	8G/ 8g	.	8ccc\L)	.	.	.	32Ree\LLL	.	32C/LLL	.	8B\L	.	8G\L 8c	.	8e/L 8cc	.	.	.	.	.	.	.	.	8cc/L)	.	.	.	8ccc\L)yy	.	8ccc\L)	.
.	.	.	.	.	.	.	.	.	.	.	.	.	32Ree\	.	32C/	.	.	.	.	.	.	.	.	.	.	.	.	.	.	.	.	.	.	.	.	.	.
.	.	.	.	.	.	.	.	.	.	.	.	.	32Ree\	.	32C/	.	.	.	.	.	.	.	.	.	.	.	.	.	.	.	.	.	.	.	.	.	.
.	.	.	.	.	.	.	.	.	.	.	.	.	32Ree\JJ	.	32C/JJ	.	.	.	.	.	.	.	.	.	.	.	.	.	.	.	.	.	.	.	.	.	.
*	*	*	*	*	*	*	*	*	*	*	*	*	*Xtremolo	*	*Xtremolo	*	*	*	*	*	*	*	*	*	*	*	*	*	*	*	*	*	*	*	*	*	*
.	8E\J	.	8E\Jyy	.	8c\J	.	8G/J 8g	.	8gg'\J	.	8r	.	8Ree\J	.	8C/J	.	8B\J	.	8G\J 8c	.	8e/J 8cc	.	.	.	.	.	.	.	.	8g'/J	.	.	.	8gg'\Jyy	.	8gg'\J	.
*	*	*	*	*	*	*	*Xtremolo	*	*	*	*	*	*	*	*Xrep	*	*	*	*	*	*	*	*	*	*	*	*	*	*	*	*	*	*	*	*	*	*
=19	=19	=19	=19	=19	=19	=19	=19	=19	=19	=19	=19	=19	=19	=19	=19	=19	=19	=19	=19	=19	=19	=19	=19	=19	=19	=19	=19	=19	=19	=19	=19	=19	=19	=19	=19	=19	=19
*	*	*	*	*	*	*	*	*	*	*	*	*	*	*	*	*	*	*	*^	*	*	*	*	*	*	*	*	*	*	*^	*	*	*	*	*	*	*
*	*	*	*	*	*	*	*	*	*	*	*tremolo	*	*tremolo	*	*tremolo	*	*	*	*	*	*	*	*	*	*	*	*	*	*	*	*	*	*	*	*	*	*	*	*
4.ryy	8D\L	.	8D\Lyy	.	8A/L 8d	.	8c/L 8f#X	.	16.ff#X\LL	.	8Ra/L	.	16Ree\LL	.	8C/L	.	4.A\	.	4.c/	4.A\	.	4.f#X/ 4.a	.	4.r	.	4.D\	.	4.dd/	4.cc\	.	16.f#X/LL	4.f#\	.	8aa\L	.	16.ff#X\LLyy	.	16.ff#X\LL	.
.	.	.	.	.	.	.	.	.	.	.	.	.	16Ree\	.	.	.	.	.	.	.	.	.	.	.	.	.	.	.	.	.	.	.	.	.	.	.	.	.	.
.	.	.	.	.	.	.	.	.	32eee\JJk	.	.	.	.	.	.	.	.	.	.	.	.	.	.	.	.	.	.	.	.	.	32ee/JJk	.	.	.	.	32eee\JJkyy	.	32eee\JJk	.
.	8D\	.	8D\yy	.	8A/ 8d	.	8c/ 8f#	.	8ddd\L	.	8Ra/	.	16Ree\	.	8C/	.	.	.	.	.	.	.	.	.	.	.	.	.	.	.	8dd/L	.	.	8ff#X\	.	8ddd\Lyy	.	8ddd\L	.
.	.	.	.	.	.	.	.	.	.	.	.	.	16Ree\	.	.	.	.	.	.	.	.	.	.	.	.	.	.	.	.	.	.	.	.	.	.	.	.	.	.
.	8D\J	.	8D\Jyy	.	8A/J 8d	.	8c/J 8a	.	8ff#\J	.	8Ra/J	.	16Ree\	.	8C/J	.	.	.	.	.	.	.	.	.	.	.	.	.	.	.	8cc/J	.	.	8aa\J	.	8ff#\Jyy	.	8ff#\J	.
.	.	.	.	.	.	.	.	.	.	.	.	.	16Ree\JJ	.	.	.	.	.	.	.	.	.	.	.	.	.	.	.	.	.	.	.	.	.	.	.	.	.	.
*	*Xtremolo	*	*Xtremolo	*	*Xtremolo	*	*	*	*	*	*Xtremolo	*	*Xtremolo	*	*Xtremolo	*	*	*	*	*	*	*	*	*	*	*	*	*	*	*	*	*	*	*	*	*	*	*	*
*	*	*	*	*	*	*	*	*	*	*	*	*	*	*	*	*	*	*	*v	*v	*	*	*	*	*	*	*	*v	*v	*	*	*	*	*	*	*	*	*	*
=20	=20	=20	=20	=20	=20	=20	=20	=20	=20	=20	=20	=20	=20	=20	=20	=20	=20	=20	=20	=20	=20	=20	=20	=20	=20	=20	=20	=20	=20	=20	=20	=20	=20	=20	=20	=20	=20
4.ryy	8G\	.	8G\yy	.	8G/ 8d	.	8B/ 8e 8g	.	(>32aa\KLL	.	16Ra/	.	16Ree\	.	16GG/	.	16d\	.	16G\ 16B	.	16g/ 16b	.	8r	.	16G\	.	16g/ 16dd	.	16b/	16g\	.	(>32aa\KLL	.	(>32aa\KLLyy	.	(>32aa\KLL	.
.	.	.	.	.	.	.	.	.	16gg\JJ)	.	.	.	.	.	.	.	.	.	.	.	.	.	.	.	.	.	.	.	.	.	.	16gg\JJ)	.	16gg\JJ)yy	.	16gg\JJ)	.
.	.	.	.	.	.	.	.	.	.	.	16r	.	16r	.	16r	.	16r	.	16r	.	16r	.	.	.	16r	.	16r	.	16rdd	16rcyy	.	.	.	.	.	.	.
.	.	.	.	.	.	.	.	.	32r	.	.	.	.	.	.	.	.	.	.	.	.	.	.	.	.	.	.	.	.	.	.	32r	.	32ryy	.	32r	.
.	8G\	.	8G\yy	.	8G/ 8d	.	8B/ 8g	.	8d\ 8b 8gg	.	8Ra/	.	8Ree\	.	8GG/	.	8d\	.	8B\ 8d	.	8g/ 8b	.	8r	.	8GG/	.	8g/ 8dd	.	8b\ 8gg	8rcyy	.	8gg\	.	8eee\yy	.	8eee\	.
.	8r	.	8ryy	.	8r	.	8r	.	8r	.	8r	.	8r	.	8r	.	8r	.	8r	.	8r	.	8g/	.	8r	.	8r	.	8rdd	8rcyy	.	8r	.	8ryy	.	8r	.
*	*	*	*	*	*	*	*	*	*	*	*	*	*	*	*	*	*	*	*	*	*	*	*	*	*	*	*	*	*v	*v	*	*	*	*	*	*	*
!!LO:PB:g=original
=21	=21	=21	=21	=21	=21	=21	=21	=21	=21	=21	=21	=21	=21	=21	=21	=21	=21	=21	=21	=21	=21	=21	=21	=21	=21	=21	=21	=21	=21	=21	=21	=21	=21	=21	=21	=21
!	!	!LO:DY:rj	!	!LO:DY:rj	!	!	!	!	!	!	!	!	!	!	!	!	!	!	!	!	!	!	!	!	!	!	!	!	!	!	!	!	!	!	!	!
4.ryy	8C/	p	8C/yy	py	8r	.	8r	p	4.r	.	4.r	.	4.r	.	4.r	.	4.r	.	4.r	.	4.r	.	16.ee\LL	.	4.r	.	4.r	.	4.r	.	4.r	.	4.r	.	4.r	.
.	.	.	.	.	.	.	.	.	.	.	.	.	.	.	.	.	.	.	.	.	.	.	32b\JJk	.	.	.	.	.	.	.	.	.	.	.	.	.
.	8r	.	8ryy	.	8c\L	.	8G/L 8e	.	.	.	.	.	.	.	.	.	.	.	.	.	.	.	8cc/L	.	.	.	.	.	.	.	.	.	.	.	.	.
.	8r	.	8ryy	.	8c\J	.	8G/J 8e	.	.	.	.	.	.	.	.	.	.	.	.	.	.	.	8g/J	.	.	.	.	.	.	.	.	.	.	.	.	.
=22	=22	=22	=22	=22	=22	=22	=22	=22	=22	=22	=22	=22	=22	=22	=22	=22	=22	=22	=22	=22	=22	=22	=22	=22	=22	=22	=22	=22	=22	=22	=22	=22	=22	=22	=22	=22
*	*	*	*	*	*rep	*	*rep	*	*	*	*	*	*	*	*	*	*	*	*	*	*	*	*	*	*	*	*	*	*	*	*	*	*	*	*	*
4.ryy	8C/	.	8C/yy	.	8r	.	8r	.	4.r	.	4.r	.	4.r	.	4.r	.	4.r	.	4.r	.	4.r	.	(<24a/LL	.	4.r	.	4.r	.	4.r	.	4.r	.	4.r	.	4.r	.
.	.	.	.	.	.	.	.	.	.	.	.	.	.	.	.	.	.	.	.	.	.	.	24g/)	.	.	.	.	.	.	.	.	.	.	.	.	.
.	.	.	.	.	.	.	.	.	.	.	.	.	.	.	.	.	.	.	.	.	.	.	24f#X'/JJ	.	.	.	.	.	.	.	.	.	.	.	.	.
.	8r	.	8ryy	.	8c\L	.	8G/L 8e	.	.	.	.	.	.	.	.	.	.	.	.	.	.	.	8g'/L	.	.	.	.	.	.	.	.	.	.	.	.	.
.	8r	.	8ryy	.	8c\J	.	8G/J 8e	.	.	.	.	.	.	.	.	.	.	.	.	.	.	.	8e'/J	.	.	.	.	.	.	.	.	.	.	.	.	.
*	*	*	*	*	*Xrep	*	*Xrep	*	*	*	*	*	*	*	*	*	*	*	*	*	*	*	*	*	*	*	*	*	*	*	*	*	*	*	*	*
=23	=23	=23	=23	=23	=23	=23	=23	=23	=23	=23	=23	=23	=23	=23	=23	=23	=23	=23	=23	=23	=23	=23	=23	=23	=23	=23	=23	=23	=23	=23	=23	=23	=23	=23	=23	=23
*	*	*	*	*	*	*	*	*	*	*	*	*	*	*	*	*	*	*	*	*	*	*	*tuplet	*	*	*	*	*	*	*	*	*	*	*	*	*
!	!	!	!	!	!	!	!	!	!	!	!	!	!	!	!	!	!	!	!	!	!	!	!LO:TUP:b:problem=klamra łukowa, przecinek zamiast numeru	!	!	!	!	!	!	!	!	!	!	!	!	!
4.ryy	8GG/	.	8GG/yy	.	8r	.	8r	.	4.r	.	4.r	.	4.r	.	4.r	.	4.r	.	4.r	.	4.r	.	24fn/LL	.	4.r	.	4.r	.	4.r	.	4.r	.	4.r	.	4.r	.
.	.	.	.	.	.	.	.	.	.	.	.	.	.	.	.	.	.	.	.	.	.	.	24g/	.	.	.	.	.	.	.	.	.	.	.	.	.
.	.	.	.	.	.	.	.	.	.	.	.	.	.	.	.	.	.	.	.	.	.	.	24f/JJ	.	.	.	.	.	.	.	.	.	.	.	.	.
.	8r	.	8ryy	.	8d\L	.	8G/L 8f	.	.	.	.	.	.	.	.	.	.	.	.	.	.	.	8d/L	.	.	.	.	.	.	.	.	.	.	.	.	.
.	8r	.	8ryy	.	8d\J	.	8G/J 8f	.	.	.	.	.	.	.	.	.	.	.	.	.	.	.	8b'/J	.	.	.	.	.	.	.	.	.	.	.	.	.
=24	=24	=24	=24	=24	=24	=24	=24	=24	=24	=24	=24	=24	=24	=24	=24	=24	=24	=24	=24	=24	=24	=24	=24	=24	=24	=24	=24	=24	=24	=24	=24	=24	=24	=24	=24	=24
4.ryy	8C/	.	8C/yy	.	8r	.	8r	.	8r	.	4.r	.	4.r	.	4.r	.	4.r	.	4.r	.	4.r	.	16.cc\LL	.	4.r	.	4.r	.	8r	.	8r	.	8r	.	8r	.
.	.	.	.	.	.	.	.	.	.	.	.	.	.	.	.	.	.	.	.	.	.	.	32dd\JK	.	.	.	.	.	.	.	.	.	.	.	.	.
.	8r	.	8ryy	.	8c\L	.	8G/L 8e	.	8r	.	.	.	.	.	.	.	.	.	.	.	.	.	8ee\J	.	.	.	.	.	8r	.	8r	.	8r	.	8r	.
.	8r	.	8ryy	.	8c\J	f	8G/J 8e	.	8gg\	.	.	.	.	.	.	.	.	.	.	.	.	.	8r	.	.	.	.	.	8g/	.	8g/	.	8gg\	.	8gg\	.
=25	=25	=25	=25	=25	=25	=25	=25	=25	=25	=25	=25	=25	=25	=25	=25	=25	=25	=25	=25	=25	=25	=25	=25	=25	=25	=25	=25	=25	=25	=25	=25	=25	=25	=25	=25	=25
*	*tremolo	*	*tremolo	*	*tremolo	*	*tremolo	*	*	*	*	*	*	*	*	*	*	*	*	*	*	*	*	*	*	*	*	*	*	*	*	*	*	*	*	*
!	!	!LO:DY:rj	!	!LO:DY:rj	!	!	!	!	!	!LO:DY:rj	!	!LO:DY:rj	!	!	!	!LO:DY:rj	!	!	!	!LO:DY:rj	!	!LO:DY:rj	!	!	!	!	!	!LO:DY:rj	!	!	!	!	!LO:TX:b:t=col Fl. //	!	!	!
4.ryy	8C/L	f	8C/Lyy	fy	8c\L	.	8G/L 8e	.	16.eee\LL	f	4Ra/	f	8r	.	8r	f	4.G\ 4.d	.	4.c\ 4.e	f	8r	f	4.r	.	4.C/	.	4.g\ 4.ee	f	16.ee\LL	.	16.ee\LL	.	16.eee\LLyy	.	16.eee\LL	.
.	.	.	.	.	.	.	.	.	32bb\JJk	.	.	.	.	.	.	.	.	.	.	.	.	.	.	.	.	.	.	.	32b\JJk	.	32b\JJk	.	32bb\JJkyy	.	32bb\JJk	.
*	*	*	*	*	*	*	*	*	*	*	*	*	*tremolo	*	*tremolo	*	*	*	*	*	*	*	*	*	*	*	*	*	*	*	*	*	*	*	*	*
.	8C/	.	8C/yy	.	8c\	.	8G/ 8e	.	8ccc\L	.	.	.	32Ree\LLL	.	32C/LLL	.	.	.	.	.	8e/L 8cc	.	.	.	.	.	.	.	8cc/L	.	8cc\L	.	8ccc\Lyy	.	8ccc\L	.
.	.	.	.	.	.	.	.	.	.	.	.	.	32Ree\	.	32C/	.	.	.	.	.	.	.	.	.	.	.	.	.	.	.	.	.	.	.	.	.
.	.	.	.	.	.	.	.	.	.	.	.	.	32Ree\	.	32C/	.	.	.	.	.	.	.	.	.	.	.	.	.	.	.	.	.	.	.	.	.
.	.	.	.	.	.	.	.	.	.	.	.	.	32Ree\JJ	.	32C/JJ	.	.	.	.	.	.	.	.	.	.	.	.	.	.	.	.	.	.	.	.	.
*	*	*	*	*	*	*	*	*	*	*	*	*	*Xtremolo	*	*Xtremolo	*	*	*	*	*	*	*	*	*	*	*	*	*	*	*	*	*	*	*	*	*
.	8C/J	.	8C/Jyy	.	8c\J	.	8G/J 8e	.	8gg\J	.	8r	.	8Ree\J	.	8C/J	.	.	.	.	.	8e/J 8g	.	.	.	.	.	.	.	8e/J 8g	.	8ee\J	.	8gg\Jyy	.	8gg\J	.
=26	=26	=26	=26	=26	=26	=26	=26	=26	=26	=26	=26	=26	=26	=26	=26	=26	=26	=26	=26	=26	=26	=26	=26	=26	=26	=26	=26	=26	=26	=26	=26	=26	=26	=26	=26	=26
*	*	*	*	*	*rep	*	*rep	*	*Xtuplet	*	*	*	*rep	*	*rep	*	*	*	*	*	*	*	*	*	*	*	*	*	*	*	*Xtuplet	*	*tuplet	*	*tuplet	*
!	!	!	!	!	!	!	!	!	!	!	!	!	!	!	!	!	!	!	!	!	!	!	!	!	!	!	!	!	!	!	!	!	!LO:TUP:a	!	!LO:TUP:a	!
4.ryy	8C/L	.	8C/Lyy	.	8c\L	.	8G/L 8e	.	(>24aa\LL	.	4Ra/	.	8r	.	8r	.	4.G\ 4.d	.	4.c\ 4.e	.	8r	.	4.r	.	4.C/	.	4.g\ 4.ee	.	(24f/LL 24a	.	(24ff\LL	.	(24aa\LLyy	.	(>24aa\LL	.
.	.	.	.	.	.	.	.	.	24gg\)	.	.	.	.	.	.	.	.	.	.	.	.	.	.	.	.	.	.	.	24e/) 24g	.	24ee\)	.	24gg\)yy	.	24gg\)	.
.	.	.	.	.	.	.	.	.	24ff#X'\JJ	.	.	.	.	.	.	.	.	.	.	.	.	.	.	.	.	.	.	.	24d#X'/JJ 24f#X	.	24dd#X'\JJ	.	24ff#X'\JJyy	.	24ff#X'\JJ	.
*	*	*	*	*	*	*	*	*	*	*	*	*	*tremolo	*	*tremolo	*	*	*	*	*	*	*	*	*	*	*	*	*	*	*	*	*	*	*	*	*
.	8C/	.	8C/yy	.	8c\	.	8G/ 8e	.	8gg'\L	.	.	.	32Ree\LLL	.	32C/LLL	.	.	.	.	.	8e/L 8g	.	.	.	.	.	.	.	8e'/L 8g	.	8ee'\L	.	8gg'\Lyy	.	8gg'\L	.
.	.	.	.	.	.	.	.	.	.	.	.	.	32Ree\	.	32C/	.	.	.	.	.	.	.	.	.	.	.	.	.	.	.	.	.	.	.	.	.
.	.	.	.	.	.	.	.	.	.	.	.	.	32Ree\	.	32C/	.	.	.	.	.	.	.	.	.	.	.	.	.	.	.	.	.	.	.	.	.
.	.	.	.	.	.	.	.	.	.	.	.	.	32Ree\JJ	.	32C/JJ	.	.	.	.	.	.	.	.	.	.	.	.	.	.	.	.	.	.	.	.	.
*	*	*	*	*	*	*	*	*	*	*	*	*	*Xtremolo	*	*Xtremolo	*	*	*	*	*	*	*	*	*	*	*	*	*	*	*	*	*	*	*	*	*
.	8C/J	.	8C/Jyy	.	8c\J	.	8G/J 8e	.	8ee'\J	.	8r	.	8Ree\J	.	8C/J	.	.	.	.	.	8c/J 8e	.	.	.	.	.	.	.	8c'/J 8e	.	8cc'\J	.	8ee'\Jyy	.	8ee'\J	.
*	*Xtremolo	*	*Xtremolo	*	*Xrep	*	*Xrep	*	*	*	*	*	*Xrep	*	*Xrep	*	*	*	*	*	*	*	*	*	*	*	*	*	*	*	*	*	*	*	*	*
!!LO:PB:g=original
=27	=27	=27	=27	=27	=27	=27	=27	=27	=27	=27	=27	=27	=27	=27	=27	=27	=27	=27	=27	=27	=27	=27	=27	=27	=27	=27	=27	=27	=27	=27	=27	=27	=27	=27	=27	=27
*	*	*	*	*	*	*	*	*	*tuplet	*	*	*	*	*	*	*	*tremolo	*	*tremolo	*	*	*	*	*	*	*	*tremolo	*	*	*	*	*	*	*	*	*
!	!LO:TX:t=P:problem=mixed beam	!	!LO:TX:t=P:problem=mixed beam	!	!	!	!	!	!	!	!	!	!	!	!	!	!	!	!	!	!	!	!	!	!LO:TX:t=P:problem=mixed beam	!	!	!	!	!	!	!	!	!	!	!
!	!	!	!	!	!	!	!	!	!LO:TUP:a:problem=przecinek zamiast numeru	!	!	!	!	!	!	!	!	!	!	!	!	!	!	!	!	!	!	!	!	!	!	!	!LO:TUP:a	!	!LO:TUP:a	!
4.ryy	8GG/L	.	8GG/Lyy	.	8B\L 8d	.	8G/L 8f	.	(>24ff\LL	.	4Ra/	.	8r	.	8r	.	8D\L 8d	.	8d\L 8f	.	8r	.	4.r	.	8GG/L	.	8g\L 8dd	.	(24d/LL 24f	.	(24dd\LL	.	(24ff\LLyy	.	(>24ff\LL	.
.	.	.	.	.	.	.	.	.	24gg\	.	.	.	.	.	.	.	.	.	.	.	.	.	.	.	.	.	.	.	24e/ 24g	.	24ee\	.	24gg\yy	.	24gg\	.
.	.	.	.	.	.	.	.	.	24ff\JJ	.	.	.	.	.	.	.	.	.	.	.	.	.	.	.	.	.	.	.	24d/JJ 24f	.	24dd\JJ	.	24ff\JJyy	.	24ff\JJ	.
*	*	*	*	*	*	*	*	*	*	*	*	*	*tremolo	*	*tremolo	*	*	*	*	*	*	*	*	*	*	*	*	*	*	*	*	*	*	*	*	*
.	8G\	.	8G\yy	.	8B\ 8d	.	8G/ 8f	.	8dd\L)	.	.	.	32Ree\LLL	.	32GG/LLL	.	8D\ 8d	.	8d\ 8f	.	8d/L 8b	.	.	.	8G\	.	8g\ 8dd	.	8B/L) 8d	.	8b\L)	.	8dd\L)yy	.	8dd\L)	.
.	.	.	.	.	.	.	.	.	.	.	.	.	32Ree\	.	32GG/	.	.	.	.	.	.	.	.	.	.	.	.	.	.	.	.	.	.	.	.	.
.	.	.	.	.	.	.	.	.	.	.	.	.	32Ree\	.	32GG/	.	.	.	.	.	.	.	.	.	.	.	.	.	.	.	.	.	.	.	.	.
.	.	.	.	.	.	.	.	.	.	.	.	.	32Ree\JJ	.	32GG/JJ	.	.	.	.	.	.	.	.	.	.	.	.	.	.	.	.	.	.	.	.	.
*	*	*	*	*	*	*	*	*	*	*	*	*	*Xtremolo	*	*Xtremolo	*	*	*	*	*	*	*	*	*	*	*	*	*	*	*	*	*	*	*	*	*
.	8GG/J	.	8GG/Jyy	.	8B\J 8d	.	8G/J 8f	.	8bb'\J	.	8r	.	8Ree\J	.	8GG/J	.	8D\J 8d	.	8d\J 8f	.	8f/J 8dd	.	.	.	8GG/J	.	8g\J 8dd	.	8dd/J 8ff	.	8bb\J	.	8bb'\Jyy	.	8bb'\J	.
*	*	*	*	*	*Xtremolo	*	*Xtremolo	*	*	*	*	*	*	*	*	*	*Xtremolo	*	*Xtremolo	*	*	*	*	*	*	*	*Xtremolo	*	*	*	*	*	*	*	*	*
=28	=28	=28	=28	=28	=28	=28	=28	=28	=28	=28	=28	=28	=28	=28	=28	=28	=28	=28	=28	=28	=28	=28	=28	=28	=28	=28	=28	=28	=28	=28	=28	=28	=28	=28	=28	=28
4.ryy	16C/	.	16C/yy	.	16c\	.	16G/ 16e	.	16ccc\	.	8Ra/	.	16Ree\KL	.	16C/KL	.	16G\KL 16d	.	16c\KL 16e	.	16e/KL 16cc	.	8r	.	8C/L	.	16e/KL 16cc	.	16cc\KL 16ee	.	16ccc\KL	.	16ccc\KLyy	.	16ccc\KL	.
.	16r	.	16ryy	.	16r	.	16r	.	16r	.	.	.	16r	.	16r	.	16r	.	16r	.	16r	.	.	.	.	.	16r	.	16r	.	16r	.	16ryy	.	16r	.
.	8C/	.	8C/yy	.	8C/ 8G 8e	.	8e\ 8cc 8gg	.	8g\ 8ee 8ccc	.	8Ra/	.	8Ree\J	.	8C/J	.	8G\J 8d	.	8c\J 8e	.	8e/J 8cc	.	8r	.	16r	.	8e/J 8cc	.	8cc\J 8ee	.	8ccc\J	.	8ccc\Jyy	.	8ccc\J	.
.	.	.	.	.	.	.	.	.	.	.	.	.	.	.	.	.	.	.	.	.	.	.	.	.	16C/Jk	.	.	.	.	.	.	.	.	.	.	.
.	8r	.	8ryy	.	8r	.	8r	.	8r	.	8r	.	8r	.	8r	.	8r	.	8r	.	8r	.	8g/	.	8r	.	8r	.	8r	.	8r	.	8ryy	.	8r	.
=29||	=29||	=29||	=29||	=29||	=29||	=29||	=29||	=29||	=29||	=29||	=29||	=29||	=29||	=29||	=29||	=29||	=29||	=29||	=29||	=29||	=29||	=29||	=29||	=29||	=29||	=29||	=29||	=29||	=29||	=29||	=29||	=29||	=29||	=29||	=29||	=29||
*	*	*	*	*	*	*	*	*	*	*	*	*	*	*	*	*	*	*	*	*	*	*	*	*	*	*	*	*	*^	*	*	*	*	*	*	*
!	!LO:TX:b:t=pizz	!	!LO:TXX:b:t=pizz	!	!LO:TX:b:t=pizz	!	!	!	!LO:TX:b:t=pizz	!	!	!	!	!	!	!	!	!	!	!	!	!	!LO:TUP:a:problem=przecinek zamiast numeru	!	!	!	!	!	!	!	!	!	!	!	!	!	!
!	!	!	!	!	!	!	!	!	!	!	!	!	!	!	!	!	!	!	!	!	!	!	!	!	!	!	!	!LO:DY:rj	!	!	!	!	!	!	!	!	!
4.ryy	8C/	.	8C/yy	.	8G/	.	8c/	.	8e/	.	4.r	.	4.r	.	4.r	.	4.r	.	4.r	.	4.r	.	(24ee\LL	.	4.r	.	4ee\ 4gg	p	8r	4.rg	.	4.r	.	4.r	.	8r	.
.	.	.	.	.	.	.	.	.	.	.	.	.	.	.	.	.	.	.	.	.	.	.	24dd#X\	.	.	.	.	.	.	.	.	.	.	.	.	.	.
.	.	.	.	.	.	.	.	.	.	.	.	.	.	.	.	.	.	.	.	.	.	.	24ee\J	.	.	.	.	.	.	.	.	.	.	.	.	.	.
.	8r	.	8ryy	.	8r	.	8r	.	8r	.	.	.	.	.	.	.	.	.	.	.	.	.	8gg\J)	.	.	.	.	.	8r	.	.	.	.	.	.	8r	.
*	*	*	*	*	*	*	*	*	*	*	*	*	*	*	*	*	*	*	*	*	*	*	*	*	*	*	*	*	*tuplet	*	*	*	*	*	*	*	*
!	!	!	!	!	!	!	!	!	!	!	!	!	!	!	!	!	!	!	!	!	!	!	!	!	!	!	!	!	!LO:TUP:a:problem=klamra łukowa	!	!	!	!	!	!	!LO:TUP:a:problem=klamra łukowa, przecinek zamiast numeru	!
.	8C/	.	8C/yy	.	8G/	.	8c/	.	8e/	.	.	.	.	.	.	.	.	.	.	.	.	.	8ryy	.	.	.	8cc\ 8ee	.	24cc/LL	.	.	.	.	.	.	24ccc\LL	.
.	.	.	.	.	.	.	.	.	.	.	.	.	.	.	.	.	.	.	.	.	.	.	.	.	.	.	.	.	24dd/	.	.	.	.	.	.	24ddd\	.
.	.	.	.	.	.	.	.	.	.	.	.	.	.	.	.	.	.	.	.	.	.	.	.	.	.	.	.	.	24ee/JJ	.	.	.	.	.	.	24eee\JJ	.
=30	=30	=30	=30	=30	=30	=30	=30	=30	=30	=30	=30	=30	=30	=30	=30	=30	=30	=30	=30	=30	=30	=30	=30	=30	=30	=30	=30	=30	=30	=30	=30	=30	=30	=30	=30	=30	=30
*	*rep	*	*repyy	*	*rep	*	*rep	*	*rep	*	*	*	*	*	*	*	*	*	*	*	*	*	*Xtuplet	*	*	*	*	*	*	*	*	*	*	*	*	*	*
!	!	!	!	!	!	!	!	!	!	!	!	!	!	!	!	!	!	!	!	!	!	!	!LO:TUP:b:problem=klamra łukowa	!	!	!	!	!	!	!	!	!	!	!	!	!	!
4.ryy	8C/	.	8C/yy	.	8G/	.	8c/	.	8e/	.	4.r	.	4.r	.	4.r	.	4.r	.	4.r	.	4.r	.	24g/LL	.	4.r	.	4cc\ 4ee	.	8r	4.rg	.	4.r	.	4.r	.	8r	.
.	.	.	.	.	.	.	.	.	.	.	.	.	.	.	.	.	.	.	.	.	.	.	24f#X/	.	.	.	.	.	.	.	.	.	.	.	.	.	.
.	.	.	.	.	.	.	.	.	.	.	.	.	.	.	.	.	.	.	.	.	.	.	24g/J	.	.	.	.	.	.	.	.	.	.	.	.	.	.
.	8r	.	8ryy	.	8r	.	8r	.	8r	.	.	.	.	.	.	.	.	.	.	.	.	.	8cc/J	.	.	.	.	.	8r	.	.	.	.	.	.	8r	.
*	*	*	*	*	*	*	*	*	*	*	*	*	*	*	*	*	*	*	*	*	*	*	*	*	*	*	*	*	*Xtuplet	*	*	*	*	*	*	*	*
!	!	!	!	!	!	!	!	!	!	!	!	!	!	!	!	!	!	!	!	!	!	!	!	!	!	!	!	!	!	!	!	!	!	!	!	!LO:TUP:a:problem=klamra łukowa, przecinek zamiast numeru	!
!	!	!	!	!	!	!	!	!	!	!	!	!	!	!	!	!	!	!	!	!	!	!	!	!	!	!	!	!	!LO:TUP:a:problem=klamra łukowa	!	!	!	!	!	!	!	!
.	8C/	.	8C/yy	.	8G/	.	8c/	.	8e/	.	.	.	.	.	.	.	.	.	.	.	.	.	8ryy	.	.	.	8e/ 8cc	.	24e/LL	.	.	.	.	.	.	24ee\LL	.
.	.	.	.	.	.	.	.	.	.	.	.	.	.	.	.	.	.	.	.	.	.	.	.	.	.	.	.	.	24f/	.	.	.	.	.	.	24ff\	.
.	.	.	.	.	.	.	.	.	.	.	.	.	.	.	.	.	.	.	.	.	.	.	.	.	.	.	.	.	24g/JJ	.	.	.	.	.	.	24gg\JJ	.
*	*Xrep	*	*Xrep	*	*Xrep	*	*Xrep	*	*Xrep	*	*	*	*	*	*	*	*	*	*	*	*	*	*	*	*	*	*	*	*	*	*	*	*	*	*	*	*
=31	=31	=31	=31	=31	=31	=31	=31	=31	=31	=31	=31	=31	=31	=31	=31	=31	=31	=31	=31	=31	=31	=31	=31	=31	=31	=31	=31	=31	=31	=31	=31	=31	=31	=31	=31	=31	=31
*	*	*	*	*	*	*	*rep	*	*	*	*	*	*	*	*	*	*	*	*	*	*	*	*	*	*	*	*	*	*	*	*	*	*	*	*	*	*
4.ryy	8GG/	.	8GG/yy	.	8G/	.	8B/	.	8d/	.	4.r	.	4.r	.	4.r	.	4.r	.	4.r	.	4.r	.	24f/LL	.	4.r	.	4g/ 4dd	.	8r	4.rg	.	4.r	.	4.r	.	8r	.
.	.	.	.	.	.	.	.	.	.	.	.	.	.	.	.	.	.	.	.	.	.	.	24e/	.	.	.	.	.	.	.	.	.	.	.	.	.	.
.	.	.	.	.	.	.	.	.	.	.	.	.	.	.	.	.	.	.	.	.	.	.	24f/J	.	.	.	.	.	.	.	.	.	.	.	.	.	.
.	8r	.	8ryy	.	8r	.	8r	.	8r	.	.	.	.	.	.	.	.	.	.	.	.	.	8dd/J	.	.	.	.	.	8r	.	.	.	.	.	.	8r	.
!	!	!	!	!	!	!	!	!	!	!	!	!	!	!	!	!	!	!	!	!	!	!	!	!	!	!	!	!	!LO:TUP:a:problem=klamra łukowa	!	!	!	!	!	!	!LO:TUP:a:problem=klamra łukowa, przecinek zamiast numeru	!
.	8GG/	.	8GG/yy	.	8G/	.	8d/	.	8f/	.	.	.	.	.	.	.	.	.	.	.	.	.	8ryy	.	.	.	8g/ 8dd	.	24g/LL	.	.	.	.	.	.	24gg\LL	.
.	.	.	.	.	.	.	.	.	.	.	.	.	.	.	.	.	.	.	.	.	.	.	.	.	.	.	.	.	24a/	.	.	.	.	.	.	24aa\	.
.	.	.	.	.	.	.	.	.	.	.	.	.	.	.	.	.	.	.	.	.	.	.	.	.	.	.	.	.	24b/JJ	.	.	.	.	.	.	24bb\JJ	.
*	*	*	*	*	*	*	*Xrep	*	*	*	*	*	*	*	*	*	*	*	*	*	*	*	*	*	*	*	*	*	*	*	*	*	*	*	*	*	*
*	*	*	*	*	*	*	*	*	*	*	*	*	*	*	*	*	*	*	*	*	*	*	*	*	*	*	*	*	*v	*v	*	*	*	*	*	*	*
!!LO:PB:g=original
=32	=32	=32	=32	=32	=32	=32	=32	=32	=32	=32	=32	=32	=32	=32	=32	=32	=32	=32	=32	=32	=32	=32	=32	=32	=32	=32	=32	=32	=32	=32	=32	=32	=32	=32	=32	=32
4.ryy	8C/	.	8C/yy	.	8G/	.	8c/	.	8e/	.	4.r	.	4.r	.	4.r	.	4.r	.	4.r	.	4.r	.	(24cc\LL	.	4.r	.	4e/ 4cc	.	4.r	.	4.r	.	4.r	.	4.r	.
.	.	.	.	.	.	.	.	.	.	.	.	.	.	.	.	.	.	.	.	.	.	.	24ee\)	.	.	.	.	.	.	.	.	.	.	.	.	.
.	.	.	.	.	.	.	.	.	.	.	.	.	.	.	.	.	.	.	.	.	.	.	24g'\JJ	.	.	.	.	.	.	.	.	.	.	.	.	.
.	8r	.	8ryy	.	8r	.	8r	.	8r	.	.	.	.	.	.	.	.	.	.	.	.	.	24cc'/LL	.	.	.	.	.	.	.	.	.	.	.	.	.
.	.	.	.	.	.	.	.	.	.	.	.	.	.	.	.	.	.	.	.	.	.	.	24e'/	.	.	.	.	.	.	.	.	.	.	.	.	.
.	.	.	.	.	.	.	.	.	.	.	.	.	.	.	.	.	.	.	.	.	.	.	24g'/JJ	.	.	.	.	.	.	.	.	.	.	.	.	.
.	8C/	.	8C/yy	.	8G/	.	8c/	.	8e/	.	.	.	.	.	.	.	.	.	.	.	.	.	8c'/	.	.	.	8cc\ 8ee	.	.	.	.	.	.	.	.	.
=33	=33	=33	=33	=33	=33	=33	=33	=33	=33	=33	=33	=33	=33	=33	=33	=33	=33	=33	=33	=33	=33	=33	=33	=33	=33	=33	=33	=33	=33	=33	=33	=33	=33	=33	=33	=33
*	*	*	*	*	*	*	*	*	*	*	*	*	*	*	*	*	*	*	*	*	*	*	*	*	*	*	*	*	*^	*	*	*	*	*	*	*
*	*	*	*	*	*	*	*	*	*	*	*	*	*	*	*	*	*	*	*	*	*	*	*tuplet	*	*	*	*	*	*	*	*	*	*	*	*	*	*
!	!	!	!	!	!	!	!	!	!	!	!	!	!	!	!	!	!	!	!	!	!	!	!LO:TUP:a:problem=klamra łukowa	!	!	!	!	!	!	!	!	!	!	!	!	!	!
4.ryy	8C/	.	8C/yy	.	8G/	.	8c/	.	8e/	.	4.r	.	4.r	.	4.r	.	4.r	.	4.r	.	4.r	.	24ee\LL	.	4.r	.	4ee\ 4gg	.	8r	4.r	.	4.r	.	4.r	.	8r	.
.	.	.	.	.	.	.	.	.	.	.	.	.	.	.	.	.	.	.	.	.	.	.	24dd#X\	.	.	.	.	.	.	.	.	.	.	.	.	.	.
.	.	.	.	.	.	.	.	.	.	.	.	.	.	.	.	.	.	.	.	.	.	.	24ee\J	.	.	.	.	.	.	.	.	.	.	.	.	.	.
.	8r	.	8ryy	.	8r	.	8r	.	8r	.	.	.	.	.	.	.	.	.	.	.	.	.	8gg\J	.	.	.	.	.	8r	.	.	.	.	.	.	8r	.
*	*	*	*	*	*	*	*	*	*	*	*	*	*	*	*	*	*	*	*	*	*	*	*	*	*	*	*	*	*	*	*	*	*	*	*	*Xtuplet	*
!	!	!	!	!	!	!	!	!	!	!	!	!	!	!	!	!	!	!	!	!	!	!	!	!	!	!	!	!	!	!	!	!	!	!	!	!LO:TUP:a:problem=klamra łukowa	!
.	8C/	.	8C/yy	.	8G/	.	8c/	.	8e/	.	.	.	.	.	.	.	.	.	.	.	.	.	8ryy	.	.	.	8cc\ 8ee	.	(>24cc/LL	.	.	.	.	.	.	24ccc\LL	.
.	.	.	.	.	.	.	.	.	.	.	.	.	.	.	.	.	.	.	.	.	.	.	.	.	.	.	.	.	24dd/	.	.	.	.	.	.	24ddd\	.
.	.	.	.	.	.	.	.	.	.	.	.	.	.	.	.	.	.	.	.	.	.	.	.	.	.	.	.	.	24ee/JJ)	.	.	.	.	.	.	24eee\JJ	.
=34	=34	=34	=34	=34	=34	=34	=34	=34	=34	=34	=34	=34	=34	=34	=34	=34	=34	=34	=34	=34	=34	=34	=34	=34	=34	=34	=34	=34	=34	=34	=34	=34	=34	=34	=34	=34	=34
*	*	*	*	*	*rep	*	*rep	*	*rep	*	*	*	*	*	*	*	*	*	*	*	*	*	*Xtuplet	*	*	*	*	*	*	*	*	*	*	*	*	*	*
!	!	!	!	!	!	!	!	!	!	!	!	!	!	!	!	!	!	!	!	!	!	!	!LO:TUP:b:problem=klamra łukowa	!	!	!	!	!	!	!	!	!	!	!	!	!	!
4.ryy	8C/	.	8C/yy	.	8G/	.	8c/	.	8e/	.	4.r	.	4.r	.	4.r	.	4.r	.	4.r	.	4.r	.	24g/LL	.	4.r	.	4cc\ 4ee	.	8r	4.r	.	4.r	.	4.r	.	8r	.
.	.	.	.	.	.	.	.	.	.	.	.	.	.	.	.	.	.	.	.	.	.	.	24f#X/	.	.	.	.	.	.	.	.	.	.	.	.	.	.
.	.	.	.	.	.	.	.	.	.	.	.	.	.	.	.	.	.	.	.	.	.	.	24g/J	.	.	.	.	.	.	.	.	.	.	.	.	.	.
.	8r	.	8ryy	.	8r	.	8r	.	8r	.	.	.	.	.	.	.	.	.	.	.	.	.	8cc/J	.	.	.	.	.	8r	.	.	.	.	.	.	8r	.
!	!	!	!	!	!	!	!	!	!	!	!	!	!	!	!	!	!	!	!	!	!	!	!	!	!	!	!	!	!	!	!	!	!	!	!	!LO:TUP:a:problem=klamra łukowa	!
.	8C/	.	8C/yy	.	8G/	.	8c/	.	8e/	.	.	.	.	.	.	.	.	.	.	.	.	.	8ryy	.	.	.	8e/ 8cc	.	<(24e/LL	.	.	.	.	.	.	24ee\LL	.
.	.	.	.	.	.	.	.	.	.	.	.	.	.	.	.	.	.	.	.	.	.	.	.	.	.	.	.	.	24f/	.	.	.	.	.	.	24ff\	.
.	.	.	.	.	.	.	.	.	.	.	.	.	.	.	.	.	.	.	.	.	.	.	.	.	.	.	.	.	24g/JJ)	.	.	.	.	.	.	24gg\JJ	.
*	*	*	*	*	*Xrep	*	*Xrep	*	*Xrep	*	*	*	*	*	*	*	*	*	*	*	*	*	*	*	*	*	*	*	*	*	*	*	*	*	*	*	*
=35	=35	=35	=35	=35	=35	=35	=35	=35	=35	=35	=35	=35	=35	=35	=35	=35	=35	=35	=35	=35	=35	=35	=35	=35	=35	=35	=35	=35	=35	=35	=35	=35	=35	=35	=35	=35	=35
*	*	*	*	*	*rep	*	*	*	*	*	*	*	*	*	*	*	*	*	*	*	*	*	*	*	*	*	*	*	*	*	*	*	*	*	*	*	*
!	!	!	!	!	!	!	!	!	!	!	!	!	!	!	!	!	!	!	!	!	!	!	!LO:TUP:b:problem=klamra łukowa	!	!	!	!	!	!	!	!	!	!	!	!	!	!
4.ryy	8GG/	.	8GG/yy	.	8G/	.	8B/	.	8d/	.	4.r	.	4.r	.	4.r	.	4.r	.	4.r	.	4.r	.	24f/LL	.	4.r	.	4g/ 4dd	.	8r	4.r	.	4.r	.	4.r	.	8r	.
.	.	.	.	.	.	.	.	.	.	.	.	.	.	.	.	.	.	.	.	.	.	.	24e/	.	.	.	.	.	.	.	.	.	.	.	.	.	.
.	.	.	.	.	.	.	.	.	.	.	.	.	.	.	.	.	.	.	.	.	.	.	24f/J	.	.	.	.	.	.	.	.	.	.	.	.	.	.
.	8r	.	8ryy	.	8r	.	8r	.	8r	.	.	.	.	.	.	.	.	.	.	.	.	.	8dd/J	.	.	.	.	.	8r	.	.	.	.	.	.	8r	.
!	!	!	!	!	!	!	!	!	!	!	!	!	!	!	!	!	!	!	!	!	!	!	!LO:TUP:b:problem=klamra łukowa	!	!	!	!	!	!	!	!	!	!	!	!	!LO:TUP:a:problem=klamra łukowa	!
.	8GG/	.	8GG/yy	.	8G/	.	8d/	.	8f/	.	.	.	.	.	.	.	.	.	.	.	.	.	24g/LL	.	.	.	8g/ 8dd	.	(<24g/LL	.	.	.	.	.	.	24gg\LL	.
.	.	.	.	.	.	.	.	.	.	.	.	.	.	.	.	.	.	.	.	.	.	.	24a/	.	.	.	.	.	24a/	.	.	.	.	.	.	24aa\	.
.	.	.	.	.	.	.	.	.	.	.	.	.	.	.	.	.	.	.	.	.	.	.	24b/JJ	.	.	.	.	.	24b/JJ)	.	.	.	.	.	.	24bb\JJ	.
*	*	*	*	*	*Xrep	*	*	*	*	*	*	*	*	*	*	*	*	*	*	*	*	*	*	*	*	*	*	*	*	*	*	*	*	*	*	*	*
=36	=36	=36	=36	=36	=36	=36	=36	=36	=36	=36	=36	=36	=36	=36	=36	=36	=36	=36	=36	=36	=36	=36	=36	=36	=36	=36	=36	=36	=36	=36	=36	=36	=36	=36	=36	=36	=36
*	*	*	*	*	*rep	*	*	*	*	*	*	*	*	*	*	*	*	*	*	*	*	*	*	*	*	*	*	*	*	*	*	*	*	*	*	*	*
4.ryy	8C/	.	8C/yy	.	8G/	.	8c/	.	8e/	.	4.r	.	4.r	.	4.r	.	4.r	.	4.r	.	4.r	.	(32dd\KLL	.	4.r	.	8r	.	(<32dd/KLL	4.r	.	4.r	.	4.r	.	(>32ddd\KLL	.
.	.	.	.	.	.	.	.	.	.	.	.	.	.	.	.	.	.	.	.	.	.	.	16cc\JJ)	.	.	.	.	.	16cc/JJ)	.	.	.	.	.	.	16ccc\JJ)	.
.	.	.	.	.	.	.	.	.	.	.	.	.	.	.	.	.	.	.	.	.	.	.	32r	.	.	.	.	.	32rg	.	.	.	.	.	.	32r	.
.	8r	.	8ryy	.	8r	.	8r	.	8r	.	.	.	.	.	.	.	.	.	.	.	.	.	8cc\	.	.	.	8e/ 8cc	.	8cc/	.	.	.	.	.	.	8ccc\	.
.	8C/	.	8C/yy	.	8G/	.	8c/	.	8e/	.	.	.	.	.	.	.	.	.	.	.	.	.	8r	.	.	.	8r	.	8r	.	.	.	.	.	.	8r	.
*	*	*	*	*	*Xrep	*	*	*	*	*	*	*	*	*	*	*	*	*	*	*	*	*	*	*	*	*	*	*	*	*	*	*	*	*	*	*	*
*	*	*	*	*	*	*	*	*	*	*	*	*	*	*	*	*	*	*	*	*	*	*	*	*	*	*	*	*	*v	*v	*	*	*	*	*	*	*
!!LO:PB:g=original
=37	=37	=37	=37	=37	=37	=37	=37	=37	=37	=37	=37	=37	=37	=37	=37	=37	=37	=37	=37	=37	=37	=37	=37	=37	=37	=37	=37	=37	=37	=37	=37	=37	=37	=37	=37	=37
*	*	*	*	*	*	*	*	*	*	*	*	*	*	*	*	*	*	*	*	*	*	*	*	*	*	*	*^	*	*	*	*	*	*	*	*	*
!	!	!	!	!	!	!	!	!	!	!	!	!	!	!LO:DY:rj	!	!	!	!	!	!	!	!	!	!	!	!	!	!	!LO:DY:rj	!	!	!	!	!	!	!	!
4.ryy	8C/	.	8C/yy	.	8A/	.	8c/	.	8f/	.	4.r	.	8Ree\L	p	4.r	.	4.r	.	4.r	.	4.r	.	(24a/LL	.	(>4.A\	.	(>4.ff/	[<4.cc\	p	4.r	.	8r	.	8r	.	4.r	.
.	.	.	.	.	.	.	.	.	.	.	.	.	.	.	.	.	.	.	.	.	.	.	24g#X/	.	.	.	.	.	.	.	.	.	.	.	.	.	.
.	.	.	.	.	.	.	.	.	.	.	.	.	.	.	.	.	.	.	.	.	.	.	24a/JJ	.	.	.	.	.	.	.	.	.	.	.	.	.	.
.	8r	.	8ryy	.	8r	.	8r	.	8r	.	.	.	8Ree\J	.	.	.	.	.	.	.	.	.	16cc/)	.	.	.	.	.	.	.	.	8r	.	8r	.	.	.
.	.	.	.	.	.	.	.	.	.	.	.	.	.	.	.	.	.	.	.	.	.	.	16r	.	.	.	.	.	.	.	.	.	.	.	.	.	.
!	!	!	!	!	!	!	!	!	!	!	!	!	!	!	!	!	!	!	!	!	!	!	!	!	!	!	!	!	!	!	!	!	!	!LO:TUP:a:problem=klamra łukowa	!	!	!
.	8C/	.	8C/yy	.	8A/	.	8c/	.	8f/	.	.	.	8r	.	.	.	.	.	.	.	.	.	8ryy	.	.	.	.	.	.	.	.	24ccc\LL	.	24ccc\LL	.	.	.
.	.	.	.	.	.	.	.	.	.	.	.	.	.	.	.	.	.	.	.	.	.	.	.	.	.	.	.	.	.	.	.	24bb\	.	24bb\	.	.	.
.	.	.	.	.	.	.	.	.	.	.	.	.	.	.	.	.	.	.	.	.	.	.	.	.	.	.	.	.	.	.	.	24aa\JJ	.	24aa\JJ	.	.	.
=38	=38	=38	=38	=38	=38	=38	=38	=38	=38	=38	=38	=38	=38	=38	=38	=38	=38	=38	=38	=38	=38	=38	=38	=38	=38	=38	=38	=38	=38	=38	=38	=38	=38	=38	=38	=38	=38
*	*	*	*	*	*	*	*rep	*	*	*	*	*	*	*	*	*	*	*	*	*	*	*	*tuplet	*	*	*	*	*	*	*	*	*	*	*	*	*	*
!	!	!	!	!	!	!	!	!	!	!	!	!	!	!	!	!	!	!	!	!	!	!	!LO:TUP:b	!	!	!	!	!	!	!	!	!	!	!	!	!	!
4.ryy	8C/	.	8C/yy	.	8G/	.	8c/	.	8e/	.	4.r	.	8Ree\L	.	4.ryy	.	4.ryy	.	4.ryy	.	4.r	.	(24g/LL	.	8G\)	.	8ee/)	8cc\]	.	4.r	.	8r	.	8r	.	4.r	.
.	.	.	.	.	.	.	.	.	.	.	.	.	.	.	.	.	.	.	.	.	.	.	24f#X/	.	.	.	.	.	.	.	.	.	.	.	.	.	.
.	.	.	.	.	.	.	.	.	.	.	.	.	.	.	.	.	.	.	.	.	.	.	24g/JJ	.	.	.	.	.	.	.	.	.	.	.	.	.	.
.	8r	.	8ryy	.	8r	.	8r	.	8r	.	.	.	8Ree\J	.	.	.	.	.	.	.	.	.	16cc/)	.	8r	.	8r	8rcyy	.	.	.	8r	.	8r	.	.	.
.	.	.	.	.	.	.	.	.	.	.	.	.	.	.	.	.	.	.	.	.	.	.	16r	.	.	.	.	.	.	.	.	.	.	.	.	.	.
*	*	*	*	*	*	*	*	*	*	*	*	*	*	*	*	*	*	*	*	*	*	*	*	*	*	*	*	*	*	*	*	*	*	*Xtuplet	*	*	*
!	!	!	!	!	!	!	!	!	!	!	!	!	!	!	!	!	!	!	!	!	!	!	!	!	!	!	!	!	!	!	!	!	!	!LO:TUP:a:problem=klamra łukowa	!	!	!
.	8C/	.	8C/yy	.	8G/	.	8c/	.	8e/	.	.	.	8r	.	.	.	.	.	.	.	.	.	8ryy	.	8r	.	8r	8rcyy	.	.	.	24ee\LL	.	24ee\LL	.	.	.
.	.	.	.	.	.	.	.	.	.	.	.	.	.	.	.	.	.	.	.	.	.	.	.	.	.	.	.	.	.	.	.	24ff\	.	24ff\	.	.	.
.	.	.	.	.	.	.	.	.	.	.	.	.	.	.	.	.	.	.	.	.	.	.	.	.	.	.	.	.	.	.	.	24gg\JJ	.	24gg\JJ	.	.	.
*	*	*	*	*	*	*	*Xrep	*	*	*	*	*	*	*	*	*	*	*	*	*	*	*	*	*	*	*	*	*	*	*	*	*	*	*	*	*	*
*	*	*	*	*	*	*	*	*	*	*	*	*	*	*	*	*	*	*	*	*	*	*	*	*	*	*	*v	*v	*	*	*	*	*	*	*	*	*
=39	=39	=39	=39	=39	=39	=39	=39	=39	=39	=39	=39	=39	=39	=39	=39	=39	=39	=39	=39	=39	=39	=39	=39	=39	=39	=39	=39	=39	=39	=39	=39	=39	=39	=39	=39	=39
*	*	*	*	*	*rep	*	*	*	*	*	*	*	*	*	*	*	*	*	*	*	*	*	*Xtuplet	*	*	*	*	*	*	*	*	*	*	*	*	*
!	!	!	!	!	!	!	!	!	!	!	!	!	!	!	!	!	!	!	!	!	!	!	!LO:TUP:b:problem=klamra łukowa	!	!	!	!	!	!	!	!	!	!	!	!	!
4.ryy	8GG/	.	8GG/yy	.	8G/	.	8B/	.	8d/	.	4.r	.	4.r	.	4.ryy	.	4.ryy	.	4.ryy	.	4.r	.	24fn/LL	.	(>4.B\	.	(>[<4.g/ 4.dd	.	4.r	.	8r	.	8r	.	4.r	.
.	.	.	.	.	.	.	.	.	.	.	.	.	.	.	.	.	.	.	.	.	.	.	24e/	.	.	.	.	.	.	.	.	.	.	.	.	.
.	.	.	.	.	.	.	.	.	.	.	.	.	.	.	.	.	.	.	.	.	.	.	24f/J	.	.	.	.	.	.	.	.	.	.	.	.	.
.	8r	.	8ryy	.	8r	.	8r	.	8r	.	.	.	.	.	.	.	.	.	.	.	.	.	8dd/J	.	.	.	.	.	.	.	8r	.	8r	.	.	.
!	!	!	!	!	!	!	!	!	!	!	!	!	!	!	!	!	!	!	!	!	!	!	!	!	!	!	!	!	!	!	!	!	!LO:TUP:a:problem=klamra łukowa	!	!	!
.	8GG/	.	8GG/yy	.	8G/	.	8B/	.	8f/	.	.	.	.	.	.	.	.	.	.	.	.	.	8ryy	.	.	.	.	.	.	.	24dd\LL	.	24dd\LL	.	.	.
.	.	.	.	.	.	.	.	.	.	.	.	.	.	.	.	.	.	.	.	.	.	.	.	.	.	.	.	.	.	.	24ee\	.	24ee\	.	.	.
.	.	.	.	.	.	.	.	.	.	.	.	.	.	.	.	.	.	.	.	.	.	.	.	.	.	.	.	.	.	.	24ff\JJ	.	24ff\JJ	.	.	.
*	*	*	*	*	*Xrep	*	*	*	*	*	*	*	*	*	*	*	*	*	*	*	*	*	*	*	*	*	*	*	*	*	*	*	*	*	*	*
=40	=40	=40	=40	=40	=40	=40	=40	=40	=40	=40	=40	=40	=40	=40	=40	=40	=40	=40	=40	=40	=40	=40	=40	=40	=40	=40	=40	=40	=40	=40	=40	=40	=40	=40	=40	=40
4.ryy	8C/	.	8C/yy	.	8G/	.	8c/	.	8e/	.	4.r	.	4.r	.	4.ryy	.	4.ryy	.	4.ryy	.	4.r	.	24e'\LL	.	8c\)	.	8g/]) 8ee	.	4.r	.	4.r	.	4.r	.	4.r	.
.	.	.	.	.	.	.	.	.	.	.	.	.	.	.	.	.	.	.	.	.	.	.	24gg'\	.	.	.	.	.	.	.	.	.	.	.	.	.
.	.	.	.	.	.	.	.	.	.	.	.	.	.	.	.	.	.	.	.	.	.	.	24ee'\JJ	.	.	.	.	.	.	.	.	.	.	.	.	.
.	8r	.	8ryy	.	8r	.	8r	.	8r	.	.	.	.	.	.	.	.	.	.	.	.	.	(24b/LL	.	8r	.	8r	.	.	.	.	.	.	.	.	.
.	.	.	.	.	.	.	.	.	.	.	.	.	.	.	.	.	.	.	.	.	.	.	24cc/)	.	.	.	.	.	.	.	.	.	.	.	.	.
.	.	.	.	.	.	.	.	.	.	.	.	.	.	.	.	.	.	.	.	.	.	.	24b'/JJ	.	.	.	.	.	.	.	.	.	.	.	.	.
.	8C/	.	8C/yy	.	8c/	.	8e/	.	8g/	.	.	.	.	.	.	.	.	.	.	.	.	.	8g/	.	8r	.	8r	.	.	.	.	.	.	.	.	.
=41	=41	=41	=41	=41	=41	=41	=41	=41	=41	=41	=41	=41	=41	=41	=41	=41	=41	=41	=41	=41	=41	=41	=41	=41	=41	=41	=41	=41	=41	=41	=41	=41	=41	=41	=41	=41
*	*	*	*	*	*	*	*	*	*	*	*	*	*	*	*	*	*	*	*	*	*	*	*	*	*	*	*^	*	*	*	*	*	*	*	*	*
4.ryy	8C/	.	8C/yy	.	8c/	.	8f/	.	8a/	.	4.r	.	8Ree\L	.	4.ryy	.	4.ryy	.	4.ryy	.	4.r	.	(24a/LL	.	(>4.A\	.	(>4.ff/	[<4.cc\	.	4.r	.	8r	.	8r	.	4.r	.
.	.	.	.	.	.	.	.	.	.	.	.	.	.	.	.	.	.	.	.	.	.	.	24g#X/	.	.	.	.	.	.	.	.	.	.	.	.	.	.
.	.	.	.	.	.	.	.	.	.	.	.	.	.	.	.	.	.	.	.	.	.	.	24a/JJ	.	.	.	.	.	.	.	.	.	.	.	.	.	.
.	8r	.	8ryy	.	8r	.	8r	.	8r	.	.	.	8Ree\J	.	.	.	.	.	.	.	.	.	16cc/)	.	.	.	.	.	.	.	.	8r	.	8r	.	.	.
.	.	.	.	.	.	.	.	.	.	.	.	.	.	.	.	.	.	.	.	.	.	.	16r	.	.	.	.	.	.	.	.	.	.	.	.	.	.
!	!	!	!	!	!	!	!	!	!	!	!	!	!	!	!	!	!	!	!	!	!	!	!	!	!	!	!	!	!	!	!	!	!	!LO:TUP:a:problem=klamra łukowa	!	!	!
.	8C/	.	8C/yy	.	8c/	.	8f/	.	8a/	.	.	.	8r	.	.	.	.	.	.	.	.	.	8ryy	.	.	.	.	.	.	.	.	24ccc\LL	.	24ccc\LL	.	.	.
.	.	.	.	.	.	.	.	.	.	.	.	.	.	.	.	.	.	.	.	.	.	.	.	.	.	.	.	.	.	.	.	24bb\	.	24bb\	.	.	.
.	.	.	.	.	.	.	.	.	.	.	.	.	.	.	.	.	.	.	.	.	.	.	.	.	.	.	.	.	.	.	.	24aa\JJ	.	24aa\JJ	.	.	.
!!LO:PB:g=original
=42	=42	=42	=42	=42	=42	=42	=42	=42	=42	=42	=42	=42	=42	=42	=42	=42	=42	=42	=42	=42	=42	=42	=42	=42	=42	=42	=42	=42	=42	=42	=42	=42	=42	=42	=42	=42	=42
!	!	!	!	!	!	!	!	!	!	!	!	!	!	!	!	!	!	!	!	!	!	!	!LO:TUP:b:problem=klamra łukowa	!	!	!	!	!	!	!LO:TX:t=P:problem=takt wymazany	!	!	!	!	!	!	!
4.ryy	8C/	.	8C/yy	.	8c/	.	8e/	.	8g/	.	4.r	.	8Ree\L	.	4.r	.	4.r	.	4.r	.	4.r	.	24g/LL	.	8G\)	.	8ee/)	8cc\]	.	4.r	.	8r	.	8r	.	4.r	.
.	.	.	.	.	.	.	.	.	.	.	.	.	.	.	.	.	.	.	.	.	.	.	24f#X/	.	.	.	.	.	.	.	.	.	.	.	.	.	.
.	.	.	.	.	.	.	.	.	.	.	.	.	.	.	.	.	.	.	.	.	.	.	24g/JJ	.	.	.	.	.	.	.	.	.	.	.	.	.	.
.	8r	.	8ryy	.	8r	.	8r	.	8r	.	.	.	8Ree\J	.	.	.	.	.	.	.	.	.	16cc/	.	8r	.	8rdd	8rcyy	.	.	.	8r	.	8r	.	.	.
.	.	.	.	.	.	.	.	.	.	.	.	.	.	.	.	.	.	.	.	.	.	.	16ryy	.	.	.	.	.	.	.	.	.	.	.	.	.	.
!	!	!	!	!	!	!	!	!	!	!	!	!	!	!	!	!	!	!	!	!	!	!	!	!	!	!	!	!	!	!	!	!LO:TUP:a:problem=klamra łukowa	!	!LO:TUP:a:problem=klamra łukowa	!	!	!
.	8C/	.	8C/yy	.	8c/	.	8e/	.	8g/	.	.	.	8r	.	.	.	.	.	.	.	.	.	8ryy	.	8r	.	8rdd	8rcyy	.	.	.	24ee\LL	.	24ee\LL	.	.	.
.	.	.	.	.	.	.	.	.	.	.	.	.	.	.	.	.	.	.	.	.	.	.	.	.	.	.	.	.	.	.	.	24ff\	.	24ff\	.	.	.
.	.	.	.	.	.	.	.	.	.	.	.	.	.	.	.	.	.	.	.	.	.	.	.	.	.	.	.	.	.	.	.	24gg\JJ	.	24gg\JJ	.	.	.
=43	=43	=43	=43	=43	=43	=43	=43	=43	=43	=43	=43	=43	=43	=43	=43	=43	=43	=43	=43	=43	=43	=43	=43	=43	=43	=43	=43	=43	=43	=43	=43	=43	=43	=43	=43	=43	=43
*	*	*	*	*	*	*	*	*	*	*	*	*	*	*	*	*	*	*	*	*	*	*	*	*	*	*	*	*	*	*^	*	*	*	*	*	*	*
!	!	!	!	!	!	!	!	!	!	!	!	!	!	!	!	!	!	!	!	!	!	!	!	!	!	!	!	!	!	!LO:TX:a:t=2o.	!	!	!	!	!	!	!	!
4.ryy	8D\	.	8D\yy	.	8A/	.	8c/	.	8f#X/	.	4.r	.	8Ree\L	.	4.r	.	4.r	.	4.r	.	4.r	.	(24f#X\LL	.	4.D\	.	4.dd/	4.cc\	.	4.raa	4.a\	.	4.r	.	4.r	.	(>24ff#X\LL	.
.	.	.	.	.	.	.	.	.	.	.	.	.	.	.	.	.	.	.	.	.	.	.	24ee\)	.	.	.	.	.	.	.	.	.	.	.	.	.	24eee\)	.
.	.	.	.	.	.	.	.	.	.	.	.	.	.	.	.	.	.	.	.	.	.	.	24dd'\JJ	.	.	.	.	.	.	.	.	.	.	.	.	.	24ddd'\JJ	.
.	8r	.	8ryy	.	8r	.	8r	.	8r	.	.	.	8Ree\	.	.	.	.	.	.	.	.	.	(24cc\LL	.	.	.	.	.	.	.	.	.	.	.	.	.	(24ccc\LL	.
.	.	.	.	.	.	.	.	.	.	.	.	.	.	.	.	.	.	.	.	.	.	.	24b\)	.	.	.	.	.	.	.	.	.	.	.	.	.	24bb\)	.
.	.	.	.	.	.	.	.	.	.	.	.	.	.	.	.	.	.	.	.	.	.	.	24a'\JJ	.	.	.	.	.	.	.	.	.	.	.	.	.	24aa'\JJ	.
.	8D\	.	8D\yy	.	8A/ 8d	.	8c/	.	8f#/	.	.	.	8Ree\J	.	.	.	.	.	.	.	.	.	(24a/LL	.	.	.	.	.	.	.	.	.	.	.	.	.	(24aa\LL	.
.	.	.	.	.	.	.	.	.	.	.	.	.	.	.	.	.	.	.	.	.	.	.	24g/)	.	.	.	.	.	.	.	.	.	.	.	.	.	24gg\)	.
.	.	.	.	.	.	.	.	.	.	.	.	.	.	.	.	.	.	.	.	.	.	.	24f#'/JJ	.	.	.	.	.	.	.	.	.	.	.	.	.	24ff#'\JJ	.
*	*	*	*	*	*	*	*	*	*	*	*	*	*	*	*	*	*	*	*	*	*	*	*	*	*	*	*v	*v	*	*	*	*	*	*	*	*	*	*
*	*	*	*	*	*	*	*	*	*	*	*	*	*	*	*	*	*	*	*	*	*	*	*	*	*	*	*	*	*v	*v	*	*	*	*	*	*	*
=44	=44	=44	=44	=44	=44	=44	=44	=44	=44	=44	=44	=44	=44	=44	=44	=44	=44	=44	=44	=44	=44	=44	=44	=44	=44	=44	=44	=44	=44	=44	=44	=44	=44	=44	=44	=44
4.ryy	16G\	.	16G\yy	.	16G/ 16d	.	16G/	.	16g/	.	8r	.	8r	.	8r	.	8r	.	8r	.	8r	.	16g/	.	16B\	.	16g/ 16dd	.	16b\	.	8r	.	8r	.	16gg\	.
.	16r	.	16ryy	.	16r	.	16r	.	16r	.	.	.	.	.	.	.	.	.	.	.	.	.	16r	.	16r	.	16r	.	16r	.	.	.	.	.	16r	.
!	!	!LO:DY:rj	!	!LO:DY:rj	!	!	!	!LO:DY:rj	!	!LO:DY:rj	!	!	!	!LO:DY:rj	!	!LO:DY:rj	!	!	!	!LO:DY:rj	!	!LO:DY:rj	!	!	!	!	!	!LO:DY:rj	!	!LO:DY:rj	!	!	!	!	!	!LO:DY:rj
.	8GG/	f	8GG/yy	fy	8G\ 8d	.	8d\ 8b 8gg	f	(>8gg\L	f	8Ra/	.	8Ree\	f	8GG/	f	8d\	.	8B\ 8g	f	8d/ 8b	f	8g/	.	8B\	.	8g/ 8dd	f	8g/L	f	(<8g/L	.	8gg\L	.	8gg\L	f
.	8r	.	8ryy	.	8r	.	8r	.	32aa\LL	.	8r	.	8r	.	8r	.	8r	.	8r	.	8r	.	8r	.	8r	.	8r	.	(<32a/LL	.	32a/LL	.	(>32aa\LL	.	>(32aa\LL	.
.	.	.	.	.	.	.	.	.	32bb\	.	.	.	.	.	.	.	.	.	.	.	.	.	.	.	.	.	.	.	32b/	.	32b/	.	32bb\	.	32bb\	.
.	.	.	.	.	.	.	.	.	32ccc\	.	.	.	.	.	.	.	.	.	.	.	.	.	.	.	.	.	.	.	32cc/	.	32cc/	.	32ccc\	.	32ccc\	.
.	.	.	.	.	.	.	.	.	32ddd\JJJ)	.	.	.	.	.	.	.	.	.	.	.	.	.	.	.	.	.	.	.	32dd/JJJ	.	32dd/JJJ)	.	32ddd\JJJ)	.	32ddd\JJJ	.
=45	=45	=45	=45	=45	=45	=45	=45	=45	=45	=45	=45	=45	=45	=45	=45	=45	=45	=45	=45	=45	=45	=45	=45	=45	=45	=45	=45	=45	=45	=45	=45	=45	=45	=45	=45	=45
*	*tremolo	*	*tremolo	*	*tremolo	*	*tremolo	*	*	*	*	*	*	*	*	*	*	*	*	*	*	*	*	*	*	*	*	*	*	*	*	*	*	*	*	*
!	!	!	!	!	!	!	!	!	!	!	!	!	!	!	!	!	!	!	!	!	!	!	!	!	!	!	!	!	!	!	!	!	!LO:TX:b:t=col Fl. //	!	!	!
4.ryy	8C/L	.	8C/Lyy	.	8c\L	.	8G/L 8e	.	16.eee\LL	.	4Ra/	.	8r	.	8r	.	8r	.	8r	.	8r	.	4.r	.	4.C/	.	4.g/ 4.ee	.	16.ee\LL)	.	16.ee\LL	.	16.eee\LLyy	.	16.eee\LL)	.
.	.	.	.	.	.	.	.	.	32bb\JJk	.	.	.	.	.	.	.	.	.	.	.	.	.	.	.	.	.	.	.	32b\JJk	.	32b\JJk	.	32bb\JJkyy	.	32bb\JJk	.
*	*	*	*	*	*	*	*	*	*	*	*	*	*tremolo	*	*tremolo	*	*	*	*	*	*	*	*	*	*	*	*	*	*	*	*	*	*	*	*	*
.	8C/	.	8C/yy	.	8c\	.	8G/ 8e	.	8ccc\L	.	.	.	32Ree\LLL	.	32C/LLL	.	8G\L 8d	.	8c\L 8e	.	8e/L 8cc	.	.	.	.	.	.	.	8cc/L	.	8cc\L	.	8ccc\Lyy	.	8ccc\L	.
.	.	.	.	.	.	.	.	.	.	.	.	.	32Ree\	.	32C/	.	.	.	.	.	.	.	.	.	.	.	.	.	.	.	.	.	.	.	.	.
.	.	.	.	.	.	.	.	.	.	.	.	.	32Ree\	.	32C/	.	.	.	.	.	.	.	.	.	.	.	.	.	.	.	.	.	.	.	.	.
.	.	.	.	.	.	.	.	.	.	.	.	.	32Ree\JJ	.	32C/JJ	.	.	.	.	.	.	.	.	.	.	.	.	.	.	.	.	.	.	.	.	.
*	*	*	*	*	*	*	*	*	*	*	*	*	*Xtremolo	*	*Xtremolo	*	*	*	*	*	*	*	*	*	*	*	*	*	*	*	*	*	*	*	*	*
.	8C/J	.	8C/Jyy	.	8c\J	.	8G/J 8e	.	8gg\J	.	8r	.	8Ree\J	.	8C/J	.	8G\J 8d	.	8c\J 8e	.	8e/J 8g	.	.	.	.	.	.	.	8e/J 8g	.	8ee\J	.	8gg\Jyy	.	8gg\J	.
=46	=46	=46	=46	=46	=46	=46	=46	=46	=46	=46	=46	=46	=46	=46	=46	=46	=46	=46	=46	=46	=46	=46	=46	=46	=46	=46	=46	=46	=46	=46	=46	=46	=46	=46	=46	=46
*	*	*	*	*	*rep	*	*rep	*	*Xtuplet	*	*	*	*rep	*	*rep	*	*rep	*	*rep	*	*	*	*	*	*	*	*	*	*	*	*	*	*tuplet	*	*tuplet	*
!	!	!	!	!	!	!	!	!	!	!	!	!	!	!	!	!	!	!	!	!	!	!	!	!	!	!	!	!	!	!	!	!	!LO:TUP:a:problem=klamra łukowa, przecinek zamiast numeru	!	!LO:TUP:a:problem=klamra łukowa, przecinek zamiast numeru	!
4.ryy	8C/L	.	8C/Lyy	.	8c\L	.	8G/L 8e	.	(>24aa\LL	.	4Ra/	.	8r	.	8r	.	8r	.	8r	.	8r	.	4.r	.	4.C/	.	4.g\ 4.ee	.	(<24f/LL 24a	.	(24ff\LL	.	24aa\LLyy	.	24aa\LL	.
.	.	.	.	.	.	.	.	.	24gg\)	.	.	.	.	.	.	.	.	.	.	.	.	.	.	.	.	.	.	.	24e/) 24g	.	24ee\)	.	24gg\yy	.	24gg\	.
.	.	.	.	.	.	.	.	.	24ff#X'\JJ	.	.	.	.	.	.	.	.	.	.	.	.	.	.	.	.	.	.	.	24d#X'/JJ 24f#X	.	24dd#X'\JJ	.	24ff#X'\JJyy	.	24ff#X'\JJ	.
*	*	*	*	*	*	*	*	*	*	*	*	*	*tremolo	*	*tremolo	*	*	*	*	*	*	*	*	*	*	*	*	*	*	*	*	*	*	*	*	*
.	8C/	.	8C/yy	.	8c\	.	8G/ 8e	.	8gg'\L	.	.	.	32Ree\LLL	.	32C/LLL	.	8G\L 8d	.	8c\L 8e	.	8e/L 8g	.	.	.	.	.	.	.	8e'/L 8g	.	8ee'\L	.	8gg'\Lyy	.	8gg'\L	.
.	.	.	.	.	.	.	.	.	.	.	.	.	32Ree\	.	32C/	.	.	.	.	.	.	.	.	.	.	.	.	.	.	.	.	.	.	.	.	.
.	.	.	.	.	.	.	.	.	.	.	.	.	32Ree\	.	32C/	.	.	.	.	.	.	.	.	.	.	.	.	.	.	.	.	.	.	.	.	.
.	.	.	.	.	.	.	.	.	.	.	.	.	32Ree\JJ	.	32C/JJ	.	.	.	.	.	.	.	.	.	.	.	.	.	.	.	.	.	.	.	.	.
*	*	*	*	*	*	*	*	*	*	*	*	*	*Xtremolo	*	*Xtremolo	*	*	*	*	*	*	*	*	*	*	*	*	*	*	*	*	*	*	*	*	*
.	8C/J	.	8C/Jyy	.	8c\J	.	8G/J 8e	.	8ee'\J	.	8r	.	8Ree\J	.	8C/J	.	8G\J 8d	.	8c\J 8e	.	8c/J 8e	.	.	.	.	.	.	.	8c'/J 8e	.	8cc'\J	.	8ee'\Jyy	.	8ee'\J	.
*	*Xtremolo	*	*Xtremolo	*	*Xrep	*	*Xrep	*	*	*	*	*	*Xrep	*	*Xrep	*	*Xrep	*	*Xrep	*	*	*	*	*	*	*	*	*	*	*	*	*	*	*	*	*
!!LO:PB:g=original
=47	=47	=47	=47	=47	=47	=47	=47	=47	=47	=47	=47	=47	=47	=47	=47	=47	=47	=47	=47	=47	=47	=47	=47	=47	=47	=47	=47	=47	=47	=47	=47	=47	=47	=47	=47	=47
*	*	*	*	*	*	*	*	*	*	*	*	*	*	*	*	*	*	*	*	*	*	*	*	*	*	*	*	*	*	*	*tuplet	*	*	*	*	*
!	!LO:TX:t=P:problem=mixed beam	!	!LO:TX:t=P:problem=mixed beam	!	!	!	!	!	!	!	!	!	!	!	!	!	!	!	!	!	!	!	!	!	!	!	!	!	!	!	!	!	!	!	!	!
!	!	!	!	!	!	!	!	!	!	!	!	!	!	!	!	!	!	!	!	!	!	!	!	!	!	!	!	!	!	!	!LO:TUP:a:problem= przecinek zamiast numeru	!	!LO:TUP:a:problem=przecinek zamiast numeru	!	!LO:TUP:a:problem=przecinek zamiast numeru	!
4.ryy	8GG/L	.	8GG/Lyy	.	8B\L 8d	.	8G/L 8f	.	(>24ff\LL	.	4Ra/	.	8r	.	8r	.	8r	.	8r	.	8r	.	4.r	.	4.GG/	.	4.g\ 4.dd	.	(<24d/LL 24f	.	(>24dd\LL	.	(>24ff\LLyy	.	(>24ff\LL	.
.	.	.	.	.	.	.	.	.	24gg\	.	.	.	.	.	.	.	.	.	.	.	.	.	.	.	.	.	.	.	24e/ 24g	.	24ee\	.	24gg\yy	.	24gg\	.
.	.	.	.	.	.	.	.	.	24ff\JJ	.	.	.	.	.	.	.	.	.	.	.	.	.	.	.	.	.	.	.	24d/JJ 24f	.	24dd\JJ	.	24ff\JJyy	.	24ff\JJ	.
*	*	*	*	*	*	*	*	*	*	*	*	*	*tremolo	*	*tremolo	*	*	*	*	*	*	*	*	*	*	*	*	*	*	*	*	*	*	*	*	*
.	8G\	.	8G\yy	.	8B\ 8d	.	8G/ 8f	.	8dd\L)	.	.	.	32Ree\LLL	.	32GG/LLL	.	8D/L 8d	.	8d\L 8f	.	8d/L 8b	.	.	.	.	.	.	.	8B/L) 8d	.	8b\L)	.	8dd\L)yy	.	8dd\L)	.
.	.	.	.	.	.	.	.	.	.	.	.	.	32Ree\	.	32GG/	.	.	.	.	.	.	.	.	.	.	.	.	.	.	.	.	.	.	.	.	.
.	.	.	.	.	.	.	.	.	.	.	.	.	32Ree\	.	32GG/	.	.	.	.	.	.	.	.	.	.	.	.	.	.	.	.	.	.	.	.	.
.	.	.	.	.	.	.	.	.	.	.	.	.	32Ree\JJ	.	32GG/JJ	.	.	.	.	.	.	.	.	.	.	.	.	.	.	.	.	.	.	.	.	.
*	*	*	*	*	*	*	*	*	*	*	*	*	*Xtremolo	*	*Xtremolo	*	*	*	*	*	*	*	*	*	*	*	*	*	*	*	*	*	*	*	*	*
.	8GG/J	.	8GG/Jyy	.	8B\J 8d	.	8G/J 8f	.	8bb\J	.	8r	.	8Ree\J	.	8GG/J	.	8D/J 8d	.	8d\J 8f	.	8f/J 8dd	.	.	.	.	.	.	.	8b/J 8dd	.	8ff\J	.	8bb'\Jyy	.	8bb'\J	.
=48	=48	=48	=48	=48	=48	=48	=48	=48	=48	=48	=48	=48	=48	=48	=48	=48	=48	=48	=48	=48	=48	=48	=48	=48	=48	=48	=48	=48	=48	=48	=48	=48	=48	=48	=48	=48
*	*tremolo	*	*tremolo	*	*	*	*	*	*	*	*rep	*	*rep	*	*	*	*	*	*	*	*	*	*	*	*	*	*	*	*	*	*	*	*	*	*	*
4.ryy	8C/L	.	8C/Lyy	.	8c\L	.	8G/L 8e	.	16.ccc\LL	.	4Ra/	.	8r	.	8r	.	8r	.	8r	.	8r	.	4.r	.	4.C/	.	4.g\ 4.ee	.	16.cc\LL 16.ee	.	16.ee\LL	.	16.ccc\LLyy	.	16.ccc\LL	.
.	.	.	.	.	.	.	.	.	32ddd\JJk	.	.	.	.	.	.	.	.	.	.	.	.	.	.	.	.	.	.	.	32dd\JJk 32ff	.	32ff\JJk	.	32ddd\JJkyy	.	32ddd\JJk	.
*	*	*	*	*	*	*	*	*	*	*	*	*	*tremolo	*	*tremolo	*	*	*	*	*	*	*	*	*	*	*	*	*	*	*	*	*	*	*	*	*
!	!	!	!	!	!	!	!	!	!	!	!	!	!	!	!	!	!	!	!	!	!	!	!	!	!	!	!	!	!LO:TX:t=P:problem=mixed beam	!	!	!	!	!	!	!
.	8C/	.	8C/yy	.	8c\	.	8G/ 8e	.	8eee\L	.	.	.	32Ree\LLL	.	32C/LLL	.	8G\L 8d	.	8c\L 8e	.	8e/L 8cc	.	.	.	.	.	.	.	8ee\L 8gg	.	8gg\L	.	8eee\Lyy	.	8eee\L	.
.	.	.	.	.	.	.	.	.	.	.	.	.	32Ree\	.	32C/	.	.	.	.	.	.	.	.	.	.	.	.	.	.	.	.	.	.	.	.	.
.	.	.	.	.	.	.	.	.	.	.	.	.	32Ree\	.	32C/	.	.	.	.	.	.	.	.	.	.	.	.	.	.	.	.	.	.	.	.	.
.	.	.	.	.	.	.	.	.	.	.	.	.	32Ree\JJ	.	32C/JJ	.	.	.	.	.	.	.	.	.	.	.	.	.	.	.	.	.	.	.	.	.
*	*	*	*	*	*	*	*	*	*	*	*	*	*Xtremolo	*	*Xtremolo	*	*	*	*	*	*	*	*	*	*	*	*	*	*	*	*	*	*	*	*	*
.	8C/J	.	8C/Jyy	.	8c\J	.	8G/J 8e	.	8gg\J	.	8r	.	8Ree\J	.	8C/J	.	8G\J 8d	.	8c\J 8e	.	8e/J 8cc	.	.	.	.	.	.	.	8e/J 8g	.	8ee\J	.	8gg\Jyy	.	8gg\J	.
*	*	*	*	*	*	*	*	*	*	*	*Xrep	*	*Xrep	*	*	*	*	*	*	*	*	*	*	*	*	*	*	*	*	*	*	*	*	*	*	*
=49	=49	=49	=49	=49	=49	=49	=49	=49	=49	=49	=49	=49	=49	=49	=49	=49	=49	=49	=49	=49	=49	=49	=49	=49	=49	=49	=49	=49	=49	=49	=49	=49	=49	=49	=49	=49
*	*rep	*	*repyy	*	*rep	*	*rep	*	*	*	*rep	*	*rep	*	*rep	*	*	*	*	*	*	*	*	*	*tremolo	*	*tremolo	*	*	*	*	*	*	*	*	*
4.ryy	8C/L	.	8C/Lyy	.	8c\L	.	8G/L 8e	.	16.eee\LL	.	4Ra/	.	8r	.	8r	.	4.G\ 4.d	.	4.c\ 4.e	.	8r	.	4.r	.	8C/L	.	8g\L 8ee	.	16.ee\LL	.	16.ee\LL	.	16.eee\LLyy	.	16.eee\LL	.
.	.	.	.	.	.	.	.	.	32bb\JJk	.	.	.	.	.	.	.	.	.	.	.	.	.	.	.	.	.	.	.	32b\JJk	.	32b\JJk	.	32bb\JJkyy	.	32bb\JJk	.
*	*	*	*	*	*	*	*	*	*	*	*	*	*tremolo	*	*tremolo	*	*	*	*	*	*	*	*	*	*	*	*	*	*	*	*	*	*	*	*	*
.	8C/	.	8C/yy	.	8c\	.	8G/ 8e	.	8ccc\L	.	.	.	32Ree\LLL	.	32C/LLL	.	.	.	.	.	8e/L 8cc	.	.	.	8C/	.	8g\ 8ee	.	8cc/L	.	8cc\L	.	8ccc\Lyy	.	8ccc\L	.
.	.	.	.	.	.	.	.	.	.	.	.	.	32Ree\	.	32C/	.	.	.	.	.	.	.	.	.	.	.	.	.	.	.	.	.	.	.	.	.
.	.	.	.	.	.	.	.	.	.	.	.	.	32Ree\	.	32C/	.	.	.	.	.	.	.	.	.	.	.	.	.	.	.	.	.	.	.	.	.
.	.	.	.	.	.	.	.	.	.	.	.	.	32Ree\JJ	.	32C/JJ	.	.	.	.	.	.	.	.	.	.	.	.	.	.	.	.	.	.	.	.	.
*	*	*	*	*	*	*	*	*	*	*	*	*	*Xtremolo	*	*Xtremolo	*	*	*	*	*	*	*	*	*	*	*	*	*	*	*	*	*	*	*	*	*
.	8C/J	.	8C/Jyy	.	8c\J	.	8G/J 8e	.	8gg\J	.	8r	.	8Ree\J	.	8C/J	.	.	.	.	.	8e/J 8g	.	.	.	8C/J	.	8g\J 8ee	.	8e/J 8g	.	8ee\J	.	8gg\Jyy	.	8gg\J	.
*	*Xrep	*	*Xrep	*	*Xrep	*	*Xrep	*	*	*	*Xrep	*	*Xrep	*	*Xrep	*	*	*	*	*	*	*	*	*	*	*	*	*	*	*	*	*	*	*	*	*
=50	=50	=50	=50	=50	=50	=50	=50	=50	=50	=50	=50	=50	=50	=50	=50	=50	=50	=50	=50	=50	=50	=50	=50	=50	=50	=50	=50	=50	=50	=50	=50	=50	=50	=50	=50	=50
*	*rep	*	*repyy	*	*rep	*	*rep	*	*	*	*rep	*	*rep	*	*rep	*	*	*	*	*	*	*	*	*	*	*	*	*	*	*	*Xtuplet	*	*Xtuplet	*	*Xtuplet	*
4.ryy	8C/L	.	8C/Lyy	.	8c\L	.	8G/L 8e	.	(>24aa\LL	.	4Ra/	.	8r	.	8r	.	4.G\ 4.d	.	4.c\ 4.e	.	8r	.	4.r	.	8C/L	.	8g\L 8ee	.	(<24f/LL 24a	.	(>24ff\LL	.	(>24aayy\LLyy	.	(>24aa\LL	.
.	.	.	.	.	.	.	.	.	24gg\)	.	.	.	.	.	.	.	.	.	.	.	.	.	.	.	.	.	.	.	24e/) 24g	.	24ee\)	.	24gg\)yy	.	24gg\)	.
.	.	.	.	.	.	.	.	.	24ff#X'\JJ	.	.	.	.	.	.	.	.	.	.	.	.	.	.	.	.	.	.	.	24d#X'/JJ 24f#X	.	24dd#X'\JJ	.	24ff#X'\JJyy	.	24ff#X'\JJ	.
*	*	*	*	*	*	*	*	*	*	*	*	*	*tremolo	*	*tremolo	*	*	*	*	*	*	*	*	*	*	*	*	*	*	*	*	*	*	*	*	*
.	8C/	.	8C/yy	.	8c\	.	8G/ 8e	.	8gg'\L	.	.	.	32Ree\LLL	.	32C/LLL	.	.	.	.	.	8e/L 8g	.	.	.	8C/	.	8g\ 8ee	.	8e'/L 8g	.	8ee\L	.	8gg'\Lyy	.	8gg'\L	.
.	.	.	.	.	.	.	.	.	.	.	.	.	32Ree\	.	32C/	.	.	.	.	.	.	.	.	.	.	.	.	.	.	.	.	.	.	.	.	.
.	.	.	.	.	.	.	.	.	.	.	.	.	32Ree\	.	32C/	.	.	.	.	.	.	.	.	.	.	.	.	.	.	.	.	.	.	.	.	.
.	.	.	.	.	.	.	.	.	.	.	.	.	32Ree\JJ	.	32C/JJ	.	.	.	.	.	.	.	.	.	.	.	.	.	.	.	.	.	.	.	.	.
*	*	*	*	*	*	*	*	*	*	*	*	*	*Xtremolo	*	*Xtremolo	*	*	*	*	*	*	*	*	*	*	*	*	*	*	*	*	*	*	*	*	*
.	8C/J	.	8C/Jyy	.	8c\J	.	8G/J 8e	.	8ee'\J	.	8r	.	8Ree\J	.	8C/J	.	.	.	.	.	8c/J 8e	.	.	.	8C/J	.	8g\J 8ee	.	8c'/J 8e	.	8cc\J	.	8ee'\Jyy	.	8ee'\J	.
*	*Xrep	*	*Xrep	*	*	*	*	*	*	*	*	*	*	*	*	*	*	*	*	*	*	*	*	*	*	*	*	*	*	*	*	*	*	*	*	*
*	*Xtremolo	*	*Xtremolo	*	*Xrep	*	*Xrep	*	*	*	*Xrep	*	*Xrep	*	*Xrep	*	*	*	*	*	*	*	*	*	*Xtremolo	*	*	*	*	*	*	*	*	*	*	*
=51	=51	=51	=51	=51	=51	=51	=51	=51	=51	=51	=51	=51	=51	=51	=51	=51	=51	=51	=51	=51	=51	=51	=51	=51	=51	=51	=51	=51	=51	=51	=51	=51	=51	=51	=51	=51
*	*	*	*	*	*	*	*	*	*	*	*rep	*	*rep	*	*	*	*	*	*	*	*	*	*	*	*	*	*	*	*	*	*	*	*	*	*	*
!	!LO:TX:t=P:problem=mixed beam	!	!LO:TX:t=P:problem=mixed beam	!	!	!	!	!	!	!	!	!	!	!	!	!	!	!	!	!	!	!	!	!	!LO:TX:t=P:problem=mixed beam	!	!	!	!	!	!	!	!	!	!	!
4.ryy	8GG/L	.	8GG/Lyy	.	8d\L	.	8G/L 8f	.	(>24ff\LL	.	4Ra/	.	8r	.	8r	.	4.D/ 4.d	.	4.d\ 4.f	.	8r	.	4.r	.	8GG/L	.	8g\L 8dd	.	(<24d/LL 24f	.	(>24dd\LL	.	(>24ff\LLyy	.	(>24ff\LL	.
.	.	.	.	.	.	.	.	.	24gg\	.	.	.	.	.	.	.	.	.	.	.	.	.	.	.	.	.	.	.	24e/ 24g	.	24ee\	.	24gg\yy	.	24gg\	.
.	.	.	.	.	.	.	.	.	24ff\JJ	.	.	.	.	.	.	.	.	.	.	.	.	.	.	.	.	.	.	.	24d/JJ 24f	.	24dd\JJ	.	24ff\JJyy	.	24ff\JJ	.
*	*	*	*	*	*	*	*	*	*	*	*	*	*tremolo	*	*tremolo	*	*	*	*	*	*	*	*	*	*	*	*	*	*	*	*	*	*	*	*	*
.	8G\	.	8G\yy	.	8d\	.	8G/ 8f	.	8dd\L)	.	.	.	32Ree\LLL	.	32GG/LLL	.	.	.	.	.	8d/L 8b	.	.	.	8G\	.	8g\ 8dd	.	8B/L) 8d	.	8b\L)	.	8dd\L)yy	.	8dd\L)	.
.	.	.	.	.	.	.	.	.	.	.	.	.	32Ree\	.	32GG/	.	.	.	.	.	.	.	.	.	.	.	.	.	.	.	.	.	.	.	.	.
.	.	.	.	.	.	.	.	.	.	.	.	.	32Ree\	.	32GG/	.	.	.	.	.	.	.	.	.	.	.	.	.	.	.	.	.	.	.	.	.
.	.	.	.	.	.	.	.	.	.	.	.	.	32Ree\JJ	.	32GG/JJ	.	.	.	.	.	.	.	.	.	.	.	.	.	.	.	.	.	.	.	.	.
*	*	*	*	*	*	*	*	*	*	*	*	*	*Xtremolo	*	*Xtremolo	*	*	*	*	*	*	*	*	*	*	*	*	*	*	*	*	*	*	*	*	*
.	8GG/J	.	8GG/Jyy	.	8d\J	.	8G/J 8f	.	8bb'\J	.	8r	.	8Ree\J	.	8GG/J	.	.	.	.	.	8f/J 8dd	.	.	.	8GG/J	.	8g\J 8dd	.	8b'/J 8dd	.	8bb\J	.	8bb'\Jyy	.	8bb'\J	.
*	*	*	*	*	*Xtremolo	*	*Xtremolo	*	*	*	*Xrep	*	*Xrep	*	*	*	*	*	*	*	*	*	*	*	*	*	*Xtremolo	*	*	*	*	*	*	*	*	*
!!LO:PB:g=original
=52	=52	=52	=52	=52	=52	=52	=52	=52	=52	=52	=52	=52	=52	=52	=52	=52	=52	=52	=52	=52	=52	=52	=52	=52	=52	=52	=52	=52	=52	=52	=52	=52	=52	=52	=52	=52
4.ryy	16C/	.	16C/yy	.	16c\	.	16e/ 16cc	.	16ccc\	.	16Ra/	.	16Ree\	.	16C/	.	16G\ 16d	.	16c\ 16e	.	16e/LL 16cc	.	4.r	.	16C/	.	16e/ 16cc	.	16cc\ 16ee	.	16ccc\	.	16ccc\yy	.	16ccc\	.
.	16r	.	16ryy	.	16r	.	16r	.	16r	.	16r	.	16r	.	16r	.	16r	.	16r	.	32g/L	.	.	.	16r	.	16r	.	16r	.	16r	.	16ryy	.	16r	.
.	.	.	.	.	.	.	.	.	.	.	.	.	.	.	.	.	.	.	.	.	32e/JJJ	.	.	.	.	.	.	.	.	.	.	.	.	.	.	.
.	8C/	.	8C/yy	.	8C/ 8G 8e	.	8G/ 8e 8cc	.	8g\ 8ee 8ccc	.	8Ra/	.	8Ree\	.	8C/	.	8G\ 8d	.	8c\ 8e	.	8c/	.	.	.	8C/	.	8e/ 8cc	.	8cc\ 8ee	.	8ccc\	.	8ccc\yy	.	8ccc\	.
.	8r	.	8ryy	.	8r	.	8r	.	8r	.	8r	.	8r	.	8r	.	8r	.	8r	.	8r	.	.	.	8r	.	8r	.	8g/	.	8r	.	8g/	.	8gg\	.
=53	=53	=53	=53	=53	=53	=53	=53	=53	=53	=53	=53	=53	=53	=53	=53	=53	=53	=53	=53	=53	=53	=53	=53	=53	=53	=53	=53	=53	=53	=53	=53	=53	=53	=53	=53	=53
!	!	!LO:DY:rj	!	!LO:DY:rj	!	!	!	!	!	!	!	!	!	!	!	!	!	!	!	!	!	!	!	!	!	!	!	!	!	!	!	!	!	!	!	!
4.ryy	16C/	p	16C/yy	py	16r	.	16r	.	16r	p	4.r	.	4.r	.	4.r	.	4.r	.	4.r	.	4.r	.	4.r	.	4.r	.	4.r	.	(<8et/L 8cc	.	4.r	.	(>8eet\L	.	(>8cccT\L	.
!	!	!	!	!	!	!LO:DY:rj	!	!	!	!	!	!	!	!	!	!	!	!	!	!	!	!	!	!	!	!	!	!	!	!	!	!	!	!	!	!
.	16r	.	16ryy	.	16c\	p	16c/	.	16G/ 16e	.	.	.	.	.	.	.	.	.	.	.	.	.	.	.	.	.	.	.	.	.	.	.	.	.	.	.
*	*rep	*	*repyy	*	*rep	*	*rep	*	*rep	*	*	*	*	*	*	*	*	*	*	*	*	*	*	*	*	*	*	*	*	*	*	*	*	*	*	*
.	16C/	.	16C/yy	.	16r	.	16r	.	16r	.	.	.	.	.	.	.	.	.	.	.	.	.	.	.	.	.	.	.	16g/Jk) 16ee	.	.	.	16gg\Jk)	.	16eee\Jk)	.
.	16r	.	16ryy	.	16c\	.	16c/	.	16G/ 16e	.	.	.	.	.	.	.	.	.	.	.	.	.	.	.	.	.	.	.	16r	.	.	.	16r	.	16r	.
*	*Xrep	*	*Xrep	*	*Xrep	*	*Xrep	*	*Xrep	*	*	*	*	*	*	*	*	*	*	*	*	*	*	*	*	*	*	*	*	*	*	*	*	*	*	*
*	*rep	*	*repyy	*	*rep	*	*rep	*	*rep	*	*	*	*	*	*	*	*	*	*	*	*	*	*	*	*	*	*	*	*	*	*	*	*	*	*	*
.	16C/	.	16C/yy	.	16r	.	16r	.	16r	.	.	.	.	.	.	.	.	.	.	.	.	.	.	.	.	.	.	.	16e/ 16g	.	.	.	16cc\	.	16gg\	.
.	16r	.	16ryy	.	16c\	.	16c/	.	16G/ 16e	.	.	.	.	.	.	.	.	.	.	.	.	.	.	.	.	.	.	.	16r	.	.	.	16r	.	16r	.
*	*Xrep	*	*Xrep	*	*Xrep	*	*Xrep	*	*Xrep	*	*	*	*	*	*	*	*	*	*	*	*	*	*	*	*	*	*	*	*	*	*	*	*	*	*	*
=54	=54	=54	=54	=54	=54	=54	=54	=54	=54	=54	=54	=54	=54	=54	=54	=54	=54	=54	=54	=54	=54	=54	=54	=54	=54	=54	=54	=54	=54	=54	=54	=54	=54	=54	=54	=54
*	*rep	*	*repyy	*	*rep	*	*rep	*	*rep	*	*	*	*	*	*	*	*	*	*	*	*	*	*	*	*	*	*	*	*	*	*	*	*	*	*	*
4.ryy	16C/	.	16C/yy	.	16r	.	16r	.	16r	.	4.r	.	4.r	.	4.r	.	4.r	.	4.r	.	4.r	.	4.r	.	4.r	.	4.r	.	16e/ 16cc	.	8r	.	16ee\	.	16ccc\	.
.	16r	.	16ryy	.	16c\	.	16c/	.	16G/ 16e	.	.	.	.	.	.	.	.	.	.	.	.	.	.	.	.	.	.	.	16r	.	.	.	16r	.	16r	.
.	16C/	.	16C/yy	.	16r	.	16r	.	16r	.	.	.	.	.	.	.	.	.	.	.	.	.	.	.	.	.	.	.	16e/ 16g	.	16ee\	.	16gg\	.	16gg\	.
.	16r	.	16ryy	.	16c\	.	16c/	.	16G/ 16e	.	.	.	.	.	.	.	.	.	.	.	.	.	.	.	.	.	.	.	16r	.	16r	.	16r	.	16r	.
.	16C/	.	16C/yy	.	16r	.	16r	.	16r	.	.	.	.	.	.	.	.	.	.	.	.	.	.	.	.	.	.	.	16e/ 16cc	.	16ee\	.	16ccc\	.	16ccc\	.
.	16r	.	16ryy	.	16c\	.	16c/	.	16G/ 16e	.	.	.	.	.	.	.	.	.	.	.	.	.	.	.	.	.	.	.	16r	.	16r	.	16r	.	16r	.
*	*Xrep	*	*Xrep	*	*Xrep	*	*Xrep	*	*Xrep	*	*	*	*	*	*	*	*	*	*	*	*	*	*	*	*	*	*	*	*	*	*	*	*	*	*	*
=55	=55	=55	=55	=55	=55	=55	=55	=55	=55	=55	=55	=55	=55	=55	=55	=55	=55	=55	=55	=55	=55	=55	=55	=55	=55	=55	=55	=55	=55	=55	=55	=55	=55	=55	=55	=55
4.ryy	16GG/	.	16GG/yy	.	16r	.	16r	.	16r	.	4.r	.	4.r	.	4.r	.	4.r	.	4.r	.	4.r	.	(<4g/	.	4.r	.	4.r	.	(<8dT/L 8f	.	8ddT\L	.	(>8ffT\L	.	(>8ffT\L	.
.	16r	.	16ryy	.	16d\	.	16B/	.	16G/ 16f	.	.	.	.	.	.	.	.	.	.	.	.	.	.	.	.	.	.	.	.	.	.	.	.	.	.	.
*	*rep	*	*repyy	*	*rep	*	*rep	*	*rep	*	*	*	*	*	*	*	*	*	*	*	*	*	*	*	*	*	*	*	*	*	*	*	*	*	*	*
.	16GG/	.	16GG/yy	.	16r	.	16r	.	16r	.	.	.	.	.	.	.	.	.	.	.	.	.	.	.	.	.	.	.	16f/Jk) 16dd	.	16ff\Jk	.	16ddd\Jk)	.	16ddd\Jk)	.
.	16r	.	16ryy	.	16d\	.	16B/	.	16G/ 16f	.	.	.	.	.	.	.	.	.	.	.	.	.	.	.	.	.	.	.	16r	.	16r	.	16r	.	16r	.
*	*Xrep	*	*Xrep	*	*Xrep	*	*Xrep	*	*Xrep	*	*	*	*	*	*	*	*	*	*	*	*	*	*	*	*	*	*	*	*	*	*	*	*	*	*	*
*	*rep	*	*repyy	*	*rep	*	*rep	*	*rep	*	*	*	*	*	*	*	*	*	*	*	*	*	*	*	*	*	*	*	*	*	*	*	*	*	*	*
.	16GG/	.	16GG/yy	.	16r	.	16r	.	16r	.	.	.	.	.	.	.	.	.	.	.	.	.	16a/LL)	.	.	.	.	.	16d/ 16f	.	16dd\	.	16ff\	.	16ff\	.
.	16r	.	16ryy	.	16d\	.	16B/	.	16G/ 16f	.	.	.	.	.	.	.	.	.	.	.	.	.	16b/JJ	.	.	.	.	.	16r	.	16r	.	16r	.	16r	.
*	*Xrep	*	*Xrep	*	*Xrep	*	*Xrep	*	*Xrep	*	*	*	*	*	*	*	*	*	*	*	*	*	*	*	*	*	*	*	*	*	*	*	*	*	*	*
=56	=56	=56	=56	=56	=56	=56	=56	=56	=56	=56	=56	=56	=56	=56	=56	=56	=56	=56	=56	=56	=56	=56	=56	=56	=56	=56	=56	=56	=56	=56	=56	=56	=56	=56	=56	=56
4.ryy	16C/	.	16C/yy	.	16r	.	16r	.	16r	.	4.r	.	4.r	.	4.r	.	4.r	.	4.r	.	4.r	.	8cc/L	.	4.r	.	4.r	.	(<8cT/L 8e	.	(>8ccT\L	.	(>8eet\L	.	(>8eet\L	.
.	16r	.	16ryy	.	16c\	.	16c/	.	16G/ 16e	.	.	.	.	.	.	.	.	.	.	.	.	.	.	.	.	.	.	.	.	.	.	.	.	.	.	.
*	*rep	*	*repyy	*	*rep	*	*rep	*	*rep	*	*	*	*	*	*	*	*	*	*	*	*	*	*	*	*	*	*	*	*	*	*	*	*	*	*	*
.	16C/	.	16C/yy	.	16r	.	16r	.	16r	.	.	.	.	.	.	.	.	.	.	.	.	.	16e/L	.	.	.	.	.	16e/Jk) 16g	.	16ee\Jk)	.	16gg\Jk)	.	16gg\Jk)	.
.	16r	.	16ryy	.	16c\	.	16c/	.	16G/ 16e	.	.	.	.	.	.	.	.	.	.	.	.	.	16g/JJ	.	.	.	.	.	16r	.	16r	.	16r	.	16r	.
*	*Xrep	*	*Xrep	*	*Xrep	*	*Xrep	*	*Xrep	*	*	*	*	*	*	*	*	*	*	*	*	*	*	*	*	*	*	*	*	*	*	*	*	*	*	*
*	*rep	*	*repyy	*	*rep	*	*rep	*	*rep	*	*	*	*	*	*	*	*	*	*	*	*	*	*	*	*	*	*	*	*	*	*	*	*	*	*	*
.	16C/	.	16C/yy	.	16r	.	16r	.	16r	.	.	.	.	.	.	.	.	.	.	.	.	.	8c/	.	.	.	.	.	16e/ 16cc	.	16gg\	.	16ccc\	.	16ccc\	.
.	16r	.	16ryy	.	16c\	.	16c/	.	16G/ 16e	.	.	.	.	.	.	.	.	.	.	.	.	.	.	.	.	.	.	.	16r	.	16r	.	16r	.	16r	.
*	*Xrep	*	*Xrep	*	*Xrep	*	*Xrep	*	*Xrep	*	*	*	*	*	*	*	*	*	*	*	*	*	*	*	*	*	*	*	*	*	*	*	*	*	*	*
!!LO:PB:g=original
=57	=57	=57	=57	=57	=57	=57	=57	=57	=57	=57	=57	=57	=57	=57	=57	=57	=57	=57	=57	=57	=57	=57	=57	=57	=57	=57	=57	=57	=57	=57	=57	=57	=57	=57	=57	=57
4.ryy	16C/	.	16C/yy	.	16r	.	16r	.	16r	.	4.r	.	4.r	.	4.r	.	4.r	.	4.r	.	4.r	.	4.r	.	4.r	.	4.r	.	8ccT\L 8ee	.	4.r	.	(>8eet\L	.	(>8cccT\L	.
.	16r	.	16ryy	.	16c\	.	16c/	.	16G/ 16e	.	.	.	.	.	.	.	.	.	.	.	.	.	.	.	.	.	.	.	.	.	.	.	.	.	.	.
*	*rep	*	*repyy	*	*rep	*	*rep	*	*rep	*	*	*	*	*	*	*	*	*	*	*	*	*	*	*	*	*	*	*	*	*	*	*	*	*	*	*
.	16C/	.	16C/yy	.	16r	.	16r	.	16r	.	.	.	.	.	.	.	.	.	.	.	.	.	.	.	.	.	.	.	16ee\Jk 16gg	.	.	.	16gg\Jk)	.	16eee\Jk)	.
.	16r	.	16ryy	.	16c\	.	16c/	.	16G/ 16e	.	.	.	.	.	.	.	.	.	.	.	.	.	.	.	.	.	.	.	16r	.	.	.	16r	.	16r	.
*	*Xrep	*	*Xrep	*	*Xrep	*	*Xrep	*	*Xrep	*	*	*	*	*	*	*	*	*	*	*	*	*	*	*	*	*	*	*	*	*	*	*	*	*	*	*
*	*rep	*	*repyy	*	*rep	*	*rep	*	*rep	*	*	*	*	*	*	*	*	*	*	*	*	*	*	*	*	*	*	*	*	*	*	*	*	*	*	*
.	16C/	.	16C/yy	.	16r	.	16r	.	16r	.	.	.	.	.	.	.	.	.	.	.	.	.	.	.	.	.	.	.	16e/ 16g	.	.	.	16cc\	.	16gg\	.
.	16r	.	16ryy	.	16c\	.	16c/	.	16G/ 16e	.	.	.	.	.	.	.	.	.	.	.	.	.	.	.	.	.	.	.	16r	.	.	.	16r	.	16r	.
*	*Xrep	*	*Xrep	*	*Xrep	*	*Xrep	*	*Xrep	*	*	*	*	*	*	*	*	*	*	*	*	*	*	*	*	*	*	*	*	*	*	*	*	*	*	*
=58	=58	=58	=58	=58	=58	=58	=58	=58	=58	=58	=58	=58	=58	=58	=58	=58	=58	=58	=58	=58	=58	=58	=58	=58	=58	=58	=58	=58	=58	=58	=58	=58	=58	=58	=58	=58
*	*rep	*	*repyy	*	*rep	*	*rep	*	*rep	*	*	*	*	*	*	*	*	*	*	*	*	*	*	*	*	*	*	*	*	*	*	*	*	*	*	*
4.ryy	16C/	.	16C/yy	.	16r	.	16r	.	16r	.	4.r	.	4.r	.	4.r	.	4.r	.	4.r	.	4.r	.	4.r	.	4.r	.	4.r	.	16cc\ 16ee	.	8r	.	16ee\	.	16ccc\	.
.	16r	.	16ryy	.	16c\	.	16c/	.	16G/ 16e	.	.	.	.	.	.	.	.	.	.	.	.	.	.	.	.	.	.	.	16r	.	.	.	16r	.	16r	.
.	16C/	.	16C/yy	.	16r	.	16r	.	16r	.	.	.	.	.	.	.	.	.	.	.	.	.	.	.	.	.	.	.	16e/ 16g	.	16ee\	.	16gg\	.	16gg\	.
.	16r	.	16ryy	.	16c\	.	16c/	.	16G/ 16e	.	.	.	.	.	.	.	.	.	.	.	.	.	.	.	.	.	.	.	16r	.	16r	.	16r	.	16r	.
.	16C/	.	16C/yy	.	16r	.	16r	.	16r	.	.	.	.	.	.	.	.	.	.	.	.	.	.	.	.	.	.	.	16e/ 16cc	.	16ee\	.	16ccc\	.	16ccc\	.
.	16r	.	16ryy	.	16c\	.	16c/	.	16G/ 16e	.	.	.	.	.	.	.	.	.	.	.	.	.	.	.	.	.	.	.	16r	.	16r	.	16r	.	16r	.
*	*Xrep	*	*Xrep	*	*Xrep	*	*Xrep	*	*Xrep	*	*	*	*	*	*	*	*	*	*	*	*	*	*	*	*	*	*	*	*	*	*	*	*	*	*	*
=59	=59	=59	=59	=59	=59	=59	=59	=59	=59	=59	=59	=59	=59	=59	=59	=59	=59	=59	=59	=59	=59	=59	=59	=59	=59	=59	=59	=59	=59	=59	=59	=59	=59	=59	=59	=59
4.ryy	16GG/	.	16GG/yy	.	16r	.	16r	.	16r	.	4.r	.	4.r	.	4.r	.	4.r	.	4.r	.	4.r	.	(<8.g/L	.	4.r	.	4.r	.	(<8dT/L 8f	.	(>8ddT\L	.	(8ffT\L	.	(>8ffT\L	.
.	16r	.	16ryy	.	16d\	.	16B/	.	16G/ 16f	.	.	.	.	.	.	.	.	.	.	.	.	.	.	.	.	.	.	.	.	.	.	.	.	.	.	.
*	*	*	*	*	*rep	*	*rep	*	*rep	*	*	*	*	*	*	*	*	*	*	*	*	*	*	*	*	*	*	*	*	*	*	*	*	*	*	*
.	16G\	.	16G\yy	.	16r	.	16r	.	16r	.	.	.	.	.	.	.	.	.	.	.	.	.	.	.	.	.	.	.	16f/Jk) 16dd	.	16ff\Jk)	.	16ddd\Jk)	.	16ddd\Jk)	.
.	16r	.	16ryy	.	16d\	.	16B/	.	16G/ 16f	.	.	.	.	.	.	.	.	.	.	.	.	.	32a/LL	.	.	.	.	.	16r	.	16r	.	16r	.	16r	.
.	.	.	.	.	.	.	.	.	.	.	.	.	.	.	.	.	.	.	.	.	.	.	32g/JJJ	.	.	.	.	.	.	.	.	.	.	.	.	.
*	*	*	*	*	*Xrep	*	*Xrep	*	*Xrep	*	*	*	*	*	*	*	*	*	*	*	*	*	*	*	*	*	*	*	*	*	*	*	*	*	*	*
*	*	*	*	*	*rep	*	*rep	*	*rep	*	*	*	*	*	*	*	*	*	*	*	*	*	*	*	*	*	*	*	*	*	*	*	*	*	*	*
.	16GG/	.	16GG/yy	.	16r	.	16r	.	16r	.	.	.	.	.	.	.	.	.	.	.	.	.	16f/LL)	.	.	.	.	.	16dd\ 16ff	.	16bb\	.	16bb\	.	16fff\	.
.	16r	.	16ryy	.	16d\	.	16B/	.	16G/ 16f	.	.	.	.	.	.	.	.	.	.	.	.	.	16d'/JJ	.	.	.	.	.	16r	.	16r	.	16r	.	16r	.
*	*	*	*	*	*Xrep	*	*Xrep	*	*Xrep	*	*	*	*	*	*	*	*	*	*	*	*	*	*	*	*	*	*	*	*	*	*	*	*	*	*	*
=60	=60	=60	=60	=60	=60	=60	=60	=60	=60	=60	=60	=60	=60	=60	=60	=60	=60	=60	=60	=60	=60	=60	=60	=60	=60	=60	=60	=60	=60	=60	=60	=60	=60	=60	=60	=60
4.ryy	16C/	.	16C/yy	.	16c\	.	16c/	.	16G/ 16e	.	8r	.	8r	.	8r	.	8r	.	8r	.	8r	.	16c/LL	.	8r	.	8r	.	16cc\ 16ee	.	16ccc\	.	16ccc\	.	16eee\	.
.	16r	.	16ryy	.	16r	.	16r	.	16r	.	.	.	.	.	.	.	.	.	.	.	.	.	32e/L	.	.	.	.	.	16r	.	16r	.	16r	.	16r	.
.	.	.	.	.	.	.	.	.	.	.	.	.	.	.	.	.	.	.	.	.	.	.	32g/JJJ	.	.	.	.	.	.	.	.	.	.	.	.	.
!	!	!LO:DY:rj	!	!LO:DY:rj	!	!LO:DY:rj	!	!	!	!LO:DY:rj	!	!	!	!LO:DY:rj	!	!	!	!LO:DY:rj	!	!LO:DY:rj	!	!LO:DY:rj	!	!	!	!	!	!	!	!	!	!	!	!	!	!
.	8C/	f	8C/yy	fy	8c\ 8g	f	8G/ 8e 8cc	.	8G/ 8e 8cc	f	8Ra/	.	8Ree\	f	8C/	.	8G\ 8d	f	8c\ 8e	f	8e/ 8g	f	8cc\	.	8C/	.	8g/ 8ee	.	8cc\ 8ee	.	8ccc\	.	8ccc\	.	8eee\	.
.	8r	.	8ryy	.	8r	.	8r	.	8r	.	8r	.	8r	.	8r	.	8r	.	8r	.	8r	.	8r	.	8r	.	8r	.	8r	.	8r	.	8r	.	8r	.
=61	=61	=61	=61	=61	=61	=61	=61	=61	=61	=61	=61	=61	=61	=61	=61	=61	=61	=61	=61	=61	=61	=61	=61	=61	=61	=61	=61	=61	=61	=61	=61	=61	=61	=61	=61	=61
*	*	*	*	*	*	*	*	*	*	*	*	*	*	*	*	*	*	*	*	*	*	*	*	*	*	*	*^	*	*	*	*	*	*	*	*	*
!	!	!LO:DY:rj	!	!LO:DY:rj	!	!	!	!	!	!LO:DY:Rj	!	!	!	!LO:DY:rj	!	!	!	!	!	!	!	!	!	!	!	!	!	!	!LO:DY:rj	!	!	!	!	!LO:TX:b:t=col Fl //	!	!	!
4.ryy	16C/	p	16C/yy	py	16r	.	16r	.	16r	p	4.r	.	4Ree\	p	4.r	.	4.r	.	4.r	.	4.r	.	4.r	.	4.A\	.	4.ff/	4.cc\	p	8fT/L 8a	.	8ffT\L	.	(>8aaT\Lyy	.	(>8aaT\L	.
.	16r	.	16ryy	.	16c\	.	16f/	.	16a/	.	.	.	.	.	.	.	.	.	.	.	.	.	.	.	.	.	.	.	.	.	.	.	.	.	.	.	.
*	*rep	*	*repyy	*	*rep	*	*rep	*	*rep	*	*	*	*	*	*	*	*	*	*	*	*	*	*	*	*	*	*	*	*	*	*	*	*	*	*	*	*
.	16C/	.	16C/yy	.	16r	.	16r	.	16r	.	.	.	.	.	.	.	.	.	.	.	.	.	.	.	.	.	.	.	.	16a/Jk 16ff	.	16aa\Jk	.	16fff\Jk)yy	.	16fff\Jk)	.
.	16r	.	16ryy	.	16c\	.	16f/	.	16a/	.	.	.	.	.	.	.	.	.	.	.	.	.	.	.	.	.	.	.	.	16r	.	16r	.	16ryy	.	16r	.
*	*Xrep	*	*Xrep	*	*Xrep	*	*Xrep	*	*Xrep	*	*	*	*	*	*	*	*	*	*	*	*	*	*	*	*	*	*	*	*	*	*	*	*	*	*	*	*
*	*rep	*	*repyy	*	*rep	*	*rep	*	*rep	*	*	*	*	*	*	*	*	*	*	*	*	*	*	*	*	*	*	*	*	*	*	*	*	*	*	*	*
.	16C/	.	16C/yy	.	16r	.	16r	.	16r	.	.	.	8r	.	.	.	.	.	.	.	.	.	.	.	.	.	.	.	.	16f/ 16a	.	16ff\	.	16aa\yy	.	16aa\	.
.	16r	.	16ryy	.	16c\	.	16f/	.	16a/	.	.	.	.	.	.	.	.	.	.	.	.	.	.	.	.	.	.	.	.	16r	.	16r	.	16ryy	.	16r	.
*	*Xrep	*	*Xrep	*	*Xrep	*	*Xrep	*	*Xrep	*	*	*	*	*	*	*	*	*	*	*	*	*	*	*	*	*	*	*	*	*	*	*	*	*	*	*	*
!!LO:PB:g=original
=62	=62	=62	=62	=62	=62	=62	=62	=62	=62	=62	=62	=62	=62	=62	=62	=62	=62	=62	=62	=62	=62	=62	=62	=62	=62	=62	=62	=62	=62	=62	=62	=62	=62	=62	=62	=62	=62
4.ryy	16C/	.	16C/yy	.	16r	.	16r	.	16r	.	4.r	.	4Ree\	.	4.r	.	4.r	.	4.r	.	4.r	.	4.r	.	4.G\	.	4.ee/	4.cc\	.	(<8et</L 8g	.	8eet\L	.	(8ggT\Lyy	.	(>8ggT\L	.
.	16r	.	16ryy	.	16c\	.	16e/	.	16g/	.	.	.	.	.	.	.	.	.	.	.	.	.	.	.	.	.	.	.	.	.	.	.	.	.	.	.	.
*	*rep	*	*repyy	*	*rep	*	*rep	*	*rep	*	*	*	*	*	*	*	*	*	*	*	*	*	*	*	*	*	*	*	*	*	*	*	*	*	*	*	*
.	16C/	.	16C/yy	.	16r	.	16r	.	16r	.	.	.	.	.	.	.	.	.	.	.	.	.	.	.	.	.	.	.	.	16g/Jk) 16ee	.	16gg\Jk	.	16eee\Jk)yy	.	16eee\Jk)	.
.	16r	.	16ryy	.	16c\	.	16e/	.	16g/	.	.	.	.	.	.	.	.	.	.	.	.	.	.	.	.	.	.	.	.	16r	.	16r	.	16ryy	.	16r	.
*	*Xrep	*	*Xrep	*	*Xrep	*	*Xrep	*	*Xrep	*	*	*	*	*	*	*	*	*	*	*	*	*	*	*	*	*	*	*	*	*	*	*	*	*	*	*	*
*	*rep	*	*repyy	*	*rep	*	*rep	*	*rep	*	*	*	*	*	*	*	*	*	*	*	*	*	*	*	*	*	*	*	*	*	*	*	*	*	*	*	*
.	16C/	.	16C/yy	.	16r	.	16r	.	16r	.	.	.	8r	.	.	.	.	.	.	.	.	.	.	.	.	.	.	.	.	16e/ 16g	.	16ee\	.	16gg\yy	.	16gg\	.
.	16r	.	16ryy	.	16c\	.	16e/	.	16g/	.	.	.	.	.	.	.	.	.	.	.	.	.	.	.	.	.	.	.	.	16r	.	16r	.	16ryy	.	16r	.
*	*Xrep	*	*Xrep	*	*Xrep	*	*Xrep	*	*Xrep	*	*	*	*	*	*	*	*	*	*	*	*	*	*	*	*	*	*	*	*	*	*	*	*	*	*	*	*
=63	=63	=63	=63	=63	=63	=63	=63	=63	=63	=63	=63	=63	=63	=63	=63	=63	=63	=63	=63	=63	=63	=63	=63	=63	=63	=63	=63	=63	=63	=63	=63	=63	=63	=63	=63	=63	=63
4.ryy	16GG/	.	16GG/yy	.	16r	.	16r	.	16r	.	4.r	.	4Ree\	.	4.r	.	4.r	.	4.r	.	4.r	.	16c/LL	.	[>4.G\	.	(>4.ff/	(<4.b\	.	(<8dT>/L 8f	.	(>8ddT\L	.	(8ffT\Lyy	.	(>8ffT\L	.
.	16r	.	16ryy	.	16d\	.	16G/ 16f	.	16b/	.	.	.	.	.	.	.	.	.	.	.	.	.	16cc/	.	.	.	.	.	.	.	.	.	.	.	.	.	.
*	*rep	*	*repyy	*	*rep	*	*rep	*	*rep	*	*	*	*	*	*	*	*	*	*	*	*	*	*	*	*	*	*	*	*	*	*	*	*	*	*	*	*
.	16GG/	.	16GG/yy	.	16r	.	16r	.	16r	.	.	.	.	.	.	.	.	.	.	.	.	.	16g/	.	.	.	.	.	.	16f/Jk) 16dd	.	16ff\Jk)	.	16ddd\Jk)yy	.	16ddd\Jk)	.
.	16r	.	16ryy	.	16d\	.	16G/ 16f	.	16b/	.	.	.	.	.	.	.	.	.	.	.	.	.	16e/JJ	.	.	.	.	.	.	16r	.	16r	.	16ryy	.	16r	.
*	*Xrep	*	*Xrep	*	*Xrep	*	*Xrep	*	*Xrep	*	*	*	*	*	*	*	*	*	*	*	*	*	*	*	*	*	*	*	*	*	*	*	*	*	*	*	*
*	*rep	*	*repyy	*	*rep	*	*rep	*	*rep	*	*	*	*	*	*	*	*	*	*	*	*	*	*	*	*	*	*	*	*	*	*	*	*	*	*	*	*
.	16GG/	.	16GG/yy	.	16r	.	16r	.	16r	.	.	.	8r	.	.	.	.	.	.	.	.	.	8c/	.	.	.	.	.	.	16d/ 16f	.	16dd\	.	16ff\yy	.	16ff\	.
.	16r	.	16ryy	.	16d\	.	16G/ 16f	.	16b/	.	.	.	.	.	.	.	.	.	.	.	.	.	.	.	.	.	.	.	.	16r	.	16r	.	16ryy	.	16r	.
*	*Xrep	*	*Xrep	*	*Xrep	*	*Xrep	*	*Xrep	*	*	*	*	*	*	*	*	*	*	*	*	*	*	*	*	*	*	*	*	*	*	*	*	*	*	*	*
=64	=64	=64	=64	=64	=64	=64	=64	=64	=64	=64	=64	=64	=64	=64	=64	=64	=64	=64	=64	=64	=64	=64	=64	=64	=64	=64	=64	=64	=64	=64	=64	=64	=64	=64	=64	=64	=64
4.ryy	16C/	.	16C/yy	.	16r	.	16r	.	16r	.	4.r	.	4Ree\	.	4.r	.	4.r	.	4.r	.	4.r	.	4.r	.	4.G\]	.	4.ee/)	4.cc\)	.	16c/ 16e	.	16cc\	.	16ee\yy	.	16ee\	.
.	16r	.	16ryy	.	16c\	.	16G/ 16e	.	16cc\	.	.	.	.	.	.	.	.	.	.	.	.	.	.	.	.	.	.	.	.	16r	.	16r	.	16ryy	.	16r	.
*	*rep	*	*repyy	*	*rep	*	*rep	*	*rep	*	*	*	*	*	*	*	*	*	*	*	*	*	*	*	*	*	*	*	*	*	*	*	*	*	*	*	*
.	16C/	.	16C/yy	.	16r	.	16r	.	16r	.	.	.	.	.	.	.	.	.	.	.	.	.	.	.	.	.	.	.	.	16e/ 16g	.	16ee\	.	16gg\yy	.	16gg\	.
.	16r	.	16ryy	.	16c\	.	16G/ 16e	.	16cc\	.	.	.	.	.	.	.	.	.	.	.	.	.	.	.	.	.	.	.	.	16r	.	16r	.	16ryy	.	16r	.
*	*Xrep	*	*Xrep	*	*Xrep	*	*Xrep	*	*Xrep	*	*	*	*	*	*	*	*	*	*	*	*	*	*	*	*	*	*	*	*	*	*	*	*	*	*	*	*
*	*rep	*	*repyy	*	*rep	*	*rep	*	*rep	*	*	*	*	*	*	*	*	*	*	*	*	*	*	*	*	*	*	*	*	*	*	*	*	*	*	*	*
.	16C/	.	16C/yy	.	16r	.	16r	.	16r	.	.	.	8r	.	.	.	.	.	.	.	.	.	.	.	.	.	.	.	.	8e/ 8cc	.	8gg\	.	8ccc\yy	.	8ccc\	.
.	16r	.	16ryy	.	16c\	.	16G/ 16e	.	16cc\	.	.	.	.	.	.	.	.	.	.	.	.	.	.	.	.	.	.	.	.	.	.	.	.	.	.	.	.
*	*Xrep	*	*Xrep	*	*Xrep	*	*Xrep	*	*Xrep	*	*	*	*	*	*	*	*	*	*	*	*	*	*	*	*	*	*	*	*	*	*	*	*	*	*	*	*
=65	=65	=65	=65	=65	=65	=65	=65	=65	=65	=65	=65	=65	=65	=65	=65	=65	=65	=65	=65	=65	=65	=65	=65	=65	=65	=65	=65	=65	=65	=65	=65	=65	=65	=65	=65	=65	=65
*	*rep	*	*repyy	*	*rep	*	*	*	*	*	*	*	*	*	*	*	*	*	*	*	*	*	*	*	*	*	*	*	*	*	*	*	*	*	*	*	*
4.ryy	16C/	.	16C/yy	.	16r	.	16r	.	16r	.	4.r	.	4Ree\	.	4.r	.	4.r	.	4.r	.	4.r	.	4.r	.	4.A\	.	4.ff/	4.cc\	.	(<8fT/L 8a	.	(>8ffT\L	.	8aaT\Lyy	.	8aaT\L	.
.	16r	.	16ryy	.	16c\	.	16f/	.	16a/	.	.	.	.	.	.	.	.	.	.	.	.	.	.	.	.	.	.	.	.	.	.	.	.	.	.	.	.
*	*	*	*	*	*	*	*rep	*	*rep	*	*	*	*	*	*	*	*	*	*	*	*	*	*	*	*	*	*	*	*	*	*	*	*	*	*	*	*
.	16C/	.	16C/yy	.	16r	.	16r	.	16r	.	.	.	.	.	.	.	.	.	.	.	.	.	.	.	.	.	.	.	.	16a/Jk) 16ff	.	16aa\Jk)	.	16fff\Jkyy	.	16fff\Jk	.
.	16r	.	16ryy	.	16c\	.	16f/	.	16a/	.	.	.	.	.	.	.	.	.	.	.	.	.	.	.	.	.	.	.	.	16r	.	16r	.	16ryy	.	16r	.
*	*	*	*	*	*	*	*Xrep	*	*Xrep	*	*	*	*	*	*	*	*	*	*	*	*	*	*	*	*	*	*	*	*	*	*	*	*	*	*	*	*
*	*	*	*	*	*	*	*rep	*	*rep	*	*	*	*	*	*	*	*	*	*	*	*	*	*	*	*	*	*	*	*	*	*	*	*	*	*	*	*
.	16C/	.	16C/yy	.	16r	.	16r	.	16r	.	.	.	8r	.	.	.	.	.	.	.	.	.	.	.	.	.	.	.	.	16f/ 16a	.	16ff\	.	16aa\yy	.	16aa\	.
.	16r	.	16ryy	.	16c\	.	16f/	.	16a/	.	.	.	.	.	.	.	.	.	.	.	.	.	.	.	.	.	.	.	.	16r	.	16r	.	16ryy	.	16r	.
*	*Xrep	*	*Xrep	*	*Xrep	*	*Xrep	*	*Xrep	*	*	*	*	*	*	*	*	*	*	*	*	*	*	*	*	*	*	*	*	*	*	*	*	*	*	*	*
=66	=66	=66	=66	=66	=66	=66	=66	=66	=66	=66	=66	=66	=66	=66	=66	=66	=66	=66	=66	=66	=66	=66	=66	=66	=66	=66	=66	=66	=66	=66	=66	=66	=66	=66	=66	=66	=66
*	*rep	*	*repyy	*	*rep	*	*	*	*	*	*	*	*	*	*	*	*	*	*	*	*	*	*	*	*	*	*	*	*	*	*	*	*	*	*	*	*
4.ryy	16C/	.	16C/yy	.	16r	.	16r	.	16r	.	4.r	.	4Ree\	.	4.r	.	4.r	.	4.r	.	4.r	.	4.r	.	4.G\	.	4.ee/	4.cc\	.	(<8et/L 8g	.	(>8eet\L	.	8ggT\Lyy	.	8ggT\L	.
.	16r	.	16ryy	.	16c\	.	16e/	.	16g/	.	.	.	.	.	.	.	.	.	.	.	.	.	.	.	.	.	.	.	.	.	.	.	.	.	.	.	.
*	*	*	*	*	*	*	*rep	*	*rep	*	*	*	*	*	*	*	*	*	*	*	*	*	*	*	*	*	*	*	*	*	*	*	*	*	*	*	*
.	16C/	.	16C/yy	.	16r	.	16r	.	16r	.	.	.	.	.	.	.	.	.	.	.	.	.	.	.	.	.	.	.	.	16g/Jk) 16ee	.	16gg\Jk)	.	16eee\Jkyy	.	16eee\Jk	.
.	16r	.	16ryy	.	16c\	.	16e/	.	16g/	.	.	.	.	.	.	.	.	.	.	.	.	.	.	.	.	.	.	.	.	16r	.	16r	.	16ryy	.	16r	.
*	*	*	*	*	*	*	*Xrep	*	*Xrep	*	*	*	*	*	*	*	*	*	*	*	*	*	*	*	*	*	*	*	*	*	*	*	*	*	*	*	*
*	*	*	*	*	*	*	*	*	*rep	*	*	*	*	*	*	*	*	*	*	*	*	*	*	*	*	*	*	*	*	*	*	*	*	*	*	*	*
.	16C/	.	16C/yy	.	16r	.	16r	.	16r	.	.	.	8r	.	.	.	.	.	.	.	.	.	.	.	.	.	.	.	.	16e/ 16g	.	16ee\	.	16gg\yy	.	16gg\	.
.	16r	.	16ryy	.	16c\	.	16e/	.	16g/	.	.	.	.	.	.	.	.	.	.	.	.	.	.	.	.	.	.	.	.	16r	.	16r	.	16ryy	.	16r	.
*	*Xrep	*	*Xrep	*	*Xrep	*	*repXrep	*	*Xrep	*	*	*	*	*	*	*	*	*	*	*	*	*	*	*	*	*	*	*	*	*	*	*	*	*	*	*	*
!!LO:PB:g=original
=67	=67	=67	=67	=67	=67	=67	=67	=67	=67	=67	=67	=67	=67	=67	=67	=67	=67	=67	=67	=67	=67	=67	=67	=67	=67	=67	=67	=67	=67	=67	=67	=67	=67	=67	=67	=67	=67
*	*	*	*	*	*	*	*	*	*	*	*	*	*	*	*	*	*	*	*	*	*	*	*	*	*	*	*	*	*	*^	*	*	*	*	*	*	*
!	!	!	!	!	!	!	!	!	!	!	!	!	!	!	!	!	!	!LO:DY:a:rj	!	!	!	!	!	!	!	!	!	!	!	!	!	!	!	!	!	!	!	!
4.ryy	16D\	.	16D\yy	.	16r	.	16r	.	16r	.	4.r	.	4.r	.	4.r	.	4.A\	p	4.r	.	4.r	.	4.r	.	4.c\	.	4.dd/	4.a\	.	(>8f#Xt/L	8c\L	.	(>8ccT\L	.	(>8ff#Xt\Lyy	.	(>8ff#Xt\L	.
.	16r	.	16ryy	.	16A/	.	16c/ 16d	.	16f#X/	.	.	.	.	.	.	.	.	.	.	.	.	.	.	.	.	.	.	.	.	.	.	.	.	.	.	.	.	.
*	*rep	*	*repyy	*	*rep	*	*rep	*	*rep	*	*	*	*	*	*	*	*	*	*	*	*	*	*	*	*	*	*	*	*	*	*	*	*	*	*	*	*	*
.	16D\	.	16D\yy	.	16r	.	16r	.	16r	.	.	.	.	.	.	.	.	.	.	.	.	.	.	.	.	.	.	.	.	16ee/Jk)	16cc\Jk	.	16ccc\Jk)	.	16eee\Jk)yy	.	16eee\Jk)	.
.	16r	.	16ryy	.	16A/	.	16c/ 16d	.	16f#/	.	.	.	.	.	.	.	.	.	.	.	.	.	.	.	.	.	.	.	.	16r	16r	.	16r	.	16ryy	.	16r	.
*	*Xrep	*	*Xrep	*	*Xrep	*	*Xrep	*	*Xrep	*	*	*	*	*	*	*	*	*	*	*	*	*	*	*	*	*	*	*	*	*	*	*	*	*	*	*	*	*
*	*rep	*	*repyy	*	*rep	*	*rep	*	*rep	*	*	*	*	*	*	*	*	*	*	*	*	*	*	*	*	*	*	*	*	*	*	*	*	*	*	*	*	*
.	16D\	.	16D\yy	.	16r	.	16r	.	16r	.	.	.	.	.	.	.	.	.	.	.	.	.	.	.	.	.	.	.	.	16a/ 16dd	8rcyy	.	16cc\	.	16ff#\yy	.	16ff#\	.
.	16r	.	16ryy	.	16A/	.	16c/ 16d	.	16f#/	.	.	.	.	.	.	.	.	.	.	.	.	.	.	.	.	.	.	.	.	16r	.	.	16r	.	16ryy	.	16r	.
*	*Xrep	*	*Xrep	*	*Xrep	*	*Xrep	*	*Xrep	*	*	*	*	*	*	*	*	*	*	*	*	*	*	*	*	*	*	*	*	*	*	*	*	*	*	*	*	*
*	*	*	*	*	*	*	*	*	*	*	*	*	*	*	*	*	*	*	*	*	*	*	*	*	*	*	*v	*v	*	*	*	*	*	*	*	*	*	*
*	*	*	*	*	*	*	*	*	*	*	*	*	*	*	*	*	*	*	*	*	*	*	*	*	*	*	*	*	*v	*v	*	*	*	*	*	*	*
=68	=68	=68	=68	=68	=68	=68	=68	=68	=68	=68	=68	=68	=68	=68	=68	=68	=68	=68	=68	=68	=68	=68	=68	=68	=68	=68	=68	=68	=68	=68	=68	=68	=68	=68	=68	=68
4.ryy	16G\	.	16G\yy	.	16G/	.	16B/ 16d	.	16g/	.	8r	.	8r	.	8r	.	16d\	.	8r	.	8r	.	4.r	.	16B\	.	16g/ 16dd	.	16b\ 16dd	.	16b\	.	16gg\yy	.	16gg\	.
.	16r	.	16ryy	.	16r	.	16r	.	16r	.	.	.	.	.	.	.	16r	.	.	.	.	.	.	.	16r	.	16r	.	16r	.	16r	.	16ryy	.	16r	.
!	!	!LO:DY:rj	!	!LO:DY:rj	!	!LO:DY:rj	!	!	!	!LO:DY:rj	!	!	!	!	!	!	!	!	!	!LO:DY:rj	!	!	!	!	!	!	!	!	!	!	!	!	!	!LO:DY:rj	!	!LO:DY:rj
.	8GG/	f	8GG/yy	fy	8D\ 8B 8g	f	8G/ 8d 8b	.	(>8gg\L	f	8Ra/	.	8Ree\	.	8GG/	.	8d\	.	8B\ 8d	f	8g/ 8dd	.	.	.	8B\	.	8g/ 8dd	.	8g/L	.	8b\	.	(>8gg\Lyy	fy	(>8gg\L	f
.	8r	.	8ryy	.	8r	.	8r	.	32aa\LL	.	8r	.	8r	.	8r	.	8r	.	8r	.	8r	.	.	.	8r	.	8r	.	(<32a/LL	.	8r	.	32aa\LLyy	.	32aa\LL	.
.	.	.	.	.	.	.	.	.	32bb\	.	.	.	.	.	.	.	.	.	.	.	.	.	.	.	.	.	.	.	32b/	.	.	.	32bb\yy	.	32bb\	.
.	.	.	.	.	.	.	.	.	32ccc\	.	.	.	.	.	.	.	.	.	.	.	.	.	.	.	.	.	.	.	32cc/	.	.	.	32ccc\yy	.	32ccc\	.
.	.	.	.	.	.	.	.	.	32ddd\JJJ	.	.	.	.	.	.	.	.	.	.	.	.	.	.	.	.	.	.	.	32dd/JJJ)	.	.	.	32ddd\JJJyy	.	32ddd\JJJ	.
=69	=69	=69	=69	=69	=69	=69	=69	=69	=69	=69	=69	=69	=69	=69	=69	=69	=69	=69	=69	=69	=69	=69	=69	=69	=69	=69	=69	=69	=69	=69	=69	=69	=69	=69	=69	=69
*	*tremolo	*	*tremolo	*	*tremolo	*	*tremolo	*	*	*	*	*	*	*	*	*	*	*	*	*	*	*	*	*	*	*	*	*	*	*	*	*	*	*	*	*
!	!	!	!	!	!	!	!	!	!	!	!	!	!	!	!	!	!	!	!	!	!	!	!	!	!	!	!	!	!	!	!	!	!LO:TX:b:t=Col Fl.	!	!	!
4.ryy	8C/Lyy	.	8C/Lyy	.	8c\Lyy	.	8G/Lyy 8eyy	.	16.eee\LL)	.	4Ra/yy	.	8ryy	.	8ryy	.	8ryy	.	8ryy	.	8ryy	.	4.ryy	.	4.C/yy	.	4.g/yy 4.eeyy	.	16.ee\LLyy	.	16.ee\LLyy	.	16.eee\LL)yy	.	16.eee\LL)yy	.
.	.	.	.	.	.	.	.	.	32bb\JJk	.	.	.	.	.	.	.	.	.	.	.	.	.	.	.	.	.	.	.	32b\JJkyy	.	32b\JJkyy	.	32bb\JJkyy	.	32bb\JJkyy	.
*	*	*	*	*	*	*	*	*	*	*	*	*	*tremolo	*	*tremolo	*	*	*	*	*	*	*	*	*	*	*	*	*	*	*	*	*	*	*	*	*
.	8C/yy	.	8C/yy	.	8c\yy	.	8G/yy 8eyy	.	8ccc\L	.	.	.	32Ree\LLLyy	.	32C/LLLyy	.	8G\Lyy 8dyy	.	8c\Lyy 8eyy	.	8e/Lyy 8ccyy	.	.	.	.	.	.	.	8cc/Lyy	.	8cc\Lyy	.	8ccc\Lyy	.	8ccc\Lyy	.
.	.	.	.	.	.	.	.	.	.	.	.	.	32Ree\yy	.	32C/yy	.	.	.	.	.	.	.	.	.	.	.	.	.	.	.	.	.	.	.	.	.
.	.	.	.	.	.	.	.	.	.	.	.	.	32Ree\yy	.	32C/yy	.	.	.	.	.	.	.	.	.	.	.	.	.	.	.	.	.	.	.	.	.
.	.	.	.	.	.	.	.	.	.	.	.	.	32Ree\JJyy	.	32C/JJyy	.	.	.	.	.	.	.	.	.	.	.	.	.	.	.	.	.	.	.	.	.
*	*	*	*	*	*	*	*	*	*	*	*	*	*Xtremolo	*	*Xtremolo	*	*	*	*	*	*	*	*	*	*	*	*	*	*	*	*	*	*	*	*	*
.	8C/Jyy	.	8C/Jyy	.	8c\Jyy	.	8G/Jyy 8eyy	.	8gg\J	.	8ryy	.	8Ree\Jyy	.	8C/Jyy	.	8G\Jyy 8dyy	.	8c\Jyy 8eyy	.	8e/Jyy 8gyy	.	.	.	.	.	.	.	8e/Jyy 8yyg	.	8ee\Jyy	.	8gg\Jyy	.	8gg\Jyy	.
=70	=70	=70	=70	=70	=70	=70	=70	=70	=70	=70	=70	=70	=70	=70	=70	=70	=70	=70	=70	=70	=70	=70	=70	=70	=70	=70	=70	=70	=70	=70	=70	=70	=70	=70	=70	=70
*	*	*	*	*	*rep	*	*rep	*	*	*	*	*	*rep	*	*rep	*	*rep	*	*rep	*	*	*	*	*	*	*	*	*	*	*	*	*	*	*	*	*
4.ryy	8C/Lyy	.	8C/Lyy	.	8c\Lyy	.	8G/Lyy 8eyy	.	(24aa\LL	.	4Ra/yy	.	8ryy	.	8ryy	.	8ryy	.	8ryy	.	8ryy	.	4.ryy	.	4.C/yy	.	4.g\yy 4.eeyy	.	(24f/LLyy 24ayy	.	(24ff\LLyy	.	(24aa\LLyy	.	(24aa\LLyy	.
.	.	.	.	.	.	.	.	.	24gg\)	.	.	.	.	.	.	.	.	.	.	.	.	.	.	.	.	.	.	.	24e/)yy 24gyy	.	24ee\)yy	.	24gg\yy	.	24gg\yy	.
.	.	.	.	.	.	.	.	.	24ff#X'\J	.	.	.	.	.	.	.	.	.	.	.	.	.	.	.	.	.	.	.	24d#X'/JJyy 24f#Xyy	.	24dd#X'\JJyy	.	24ff#X'\JJ)yy	.	24ff#X'\JJ)yy	.
*	*	*	*	*	*	*	*	*	*	*	*	*	*tremolo	*	*tremolo	*	*	*	*	*	*	*	*	*	*	*	*	*	*	*	*	*	*	*	*	*
.	8C/yy	.	8C/yy	.	8c\yy	.	8G/yy 8eyy	.	8gg'\L	.	.	.	32Ree\LLLyy	.	32C/LLLyy	.	8G\Lyy 8dyy	.	8c\Lyy 8eyy	.	8e/Lyy 8gyy	.	.	.	.	.	.	.	8e'/Lyy 8gyy	.	8ee'\Lyy	.	8gg'\Lyy	.	8gg'\Lyy	.
.	.	.	.	.	.	.	.	.	.	.	.	.	32Ree\yy	.	32C/yy	.	.	.	.	.	.	.	.	.	.	.	.	.	.	.	.	.	.	.	.	.
.	.	.	.	.	.	.	.	.	.	.	.	.	32Ree\yy	.	32C/yy	.	.	.	.	.	.	.	.	.	.	.	.	.	.	.	.	.	.	.	.	.
.	.	.	.	.	.	.	.	.	.	.	.	.	32Ree\JJyy	.	32C/JJyy	.	.	.	.	.	.	.	.	.	.	.	.	.	.	.	.	.	.	.	.	.
*	*	*	*	*	*	*	*	*	*	*	*	*	*Xtremolo	*	*Xtremolo	*	*	*	*	*	*	*	*	*	*	*	*	*	*	*	*	*	*	*	*	*
.	8C/Jyy	.	8C/Jyy	.	8c\Jyy	.	8G/Jyy 8eyy	.	8ee'\J	.	8ryy	.	8Ree\Jyy	.	8C/Jyy	.	8G\Jyy 8dyy	.	8c\Jyy 8eyy	.	8c/Jyy 8eyy	.	.	.	.	.	.	.	8c'/Jyy 8eyy	.	8cc'\Jyy	.	8ee'\Jyy	.	8ee'\Jyy	.
*	*Xtremolo	*	*Xtremolo	*	*Xrep	*	*Xrep	*	*	*	*	*	*Xrep	*	*Xrep	*	*Xrep	*	*Xrep	*	*	*	*	*	*	*	*	*	*	*	*	*	*	*	*	*
=71	=71	=71	=71	=71	=71	=71	=71	=71	=71	=71	=71	=71	=71	=71	=71	=71	=71	=71	=71	=71	=71	=71	=71	=71	=71	=71	=71	=71	=71	=71	=71	=71	=71	=71	=71	=71
!	!LO:TX:t=P:problem=mixed beam	!	!LO:TX:t=P:problem=mixed beam	!	!	!	!	!	!	!	!	!	!	!	!	!	!	!	!	!	!	!	!	!	!	!	!	!	!	!	!	!	!	!	!	!
4.ryy	8GG/Lyy	.	8GG/Lyy	.	8B\Lyy 8dyy	.	8G/Lyy 8fyy	.	(24ff\LL	.	4Ra/yy	.	8ryy	.	8ryy	.	8ryy	.	8ryy	.	8ryy	.	4.ryy	.	4.GG/yy	.	4.g\yy 4.ddyy	.	(24d/LLyy 24fyy	.	(24dd\LLyy	.	(24ff\LLyy	.	(24ff\LLyy	.
.	.	.	.	.	.	.	.	.	24gg\	.	.	.	.	.	.	.	.	.	.	.	.	.	.	.	.	.	.	.	24e/yy 24gyy	.	24ee\yy	.	24gg\yy	.	24gg\yy	.
.	.	.	.	.	.	.	.	.	24ff\JJ	.	.	.	.	.	.	.	.	.	.	.	.	.	.	.	.	.	.	.	24d/JJyy 24fyy	.	24dd\JJyy	.	24ff\JJyy	.	24ff\JJyy	.
*	*	*	*	*	*	*	*	*	*	*	*	*	*tremolo	*	*tremolo	*	*	*	*	*	*	*	*	*	*	*	*	*	*	*	*	*	*	*	*	*
.	8G\yy	.	8G\yy	.	8B\yy 8dyy	.	8G/yy 8fyy	.	8dd\L)	.	.	.	32Ree\LLLyy	.	32GG/LLLyy	.	8D/Lyy 8dyy	.	8d\Lyy 8fyy	.	8d/Lyy 8byy	.	.	.	.	.	.	.	8B/L)yy 8dyy	.	8b\L)yy	.	8dd\L)yy	.	8dd\L)yy	.
.	.	.	.	.	.	.	.	.	.	.	.	.	32Ree\yy	.	32GG/yy	.	.	.	.	.	.	.	.	.	.	.	.	.	.	.	.	.	.	.	.	.
.	.	.	.	.	.	.	.	.	.	.	.	.	32Ree\yy	.	32GG/yy	.	.	.	.	.	.	.	.	.	.	.	.	.	.	.	.	.	.	.	.	.
.	.	.	.	.	.	.	.	.	.	.	.	.	32Ree\JJyy	.	32GG/JJyy	.	.	.	.	.	.	.	.	.	.	.	.	.	.	.	.	.	.	.	.	.
*	*	*	*	*	*	*	*	*	*	*	*	*	*Xtremolo	*	*Xtremolo	*	*	*	*	*	*	*	*	*	*	*	*	*	*	*	*	*	*	*	*	*
.	8GG/Jyy	.	8GG/Jyy	.	8B\Jyy 8dyy	.	8G/Jyy 8fyy	.	8bb'\J	.	8ryy	.	8Ree\Jyy	.	8GG/Jyy	.	8D/Jyy 8dyy	.	8d\Jyy 8fyy	.	8f/Jyy 8ddyy	.	.	.	.	.	.	.	8b/Jyy 8ddyy	.	8ff\Jyy	.	8bb'\Jyy	.	8bb'\Jyy	.
!!LO:PB:g=original
=72	=72	=72	=72	=72	=72	=72	=72	=72	=72	=72	=72	=72	=72	=72	=72	=72	=72	=72	=72	=72	=72	=72	=72	=72	=72	=72	=72	=72	=72	=72	=72	=72	=72	=72	=72	=72
*	*tremolo	*	*tremolo	*	*	*	*	*	*	*	*rep	*	*rep	*	*	*	*	*	*	*	*	*	*	*	*	*	*	*	*	*	*	*	*	*	*	*
4.ryy	8C/Lyy	.	8C/Lyy	.	8c\Lyy	.	8G/Lyy 8eyy	.	16.ccc\LLyy	.	4Ra/yy	.	8ryy	.	8ryy	.	8ryy	.	8ryy	.	8ryy	.	4.ryy	.	4.C/yy	.	4.g\yy 4.eeyy	.	16.cc\LLyy 16.eeyy	.	16.ee\LLyy	.	16.ccc\LLyy	.	16.ccc\LLyy	.
.	.	.	.	.	.	.	.	.	32ddd\JJkyy	.	.	.	.	.	.	.	.	.	.	.	.	.	.	.	.	.	.	.	32dd\JJkyy 32ffyy	.	32ff\JJkyy	.	32ddd\JJkyy	.	32ddd\yyJJk	.
*	*	*	*	*	*	*	*	*	*	*	*	*	*tremolo	*	*tremolo	*	*	*	*	*	*	*	*	*	*	*	*	*	*	*	*	*	*	*	*	*
!	!	!	!	!	!	!	!	!	!	!	!	!	!	!	!	!	!	!	!	!	!	!	!	!	!	!	!	!	!LO:TX:t=P:problem=mixed beam	!	!	!	!	!	!	!
.	8C/yy	.	8C/yy	.	8c\yy	.	8G/yy 8eyy	.	8eee\Lyy	.	.	.	32Ree\LLLyy	.	32C/LLLyy	.	8G\Lyy 8dyy	.	8c\Lyy 8eyy	.	8e/Lyy 8ccyy	.	.	.	.	.	.	.	8ee\Lyy 8ggyy	.	8gg\Lyy	.	8eee\Lyy	.	8eee\Lyy	.
.	.	.	.	.	.	.	.	.	.	.	.	.	32Ree\yy	.	32C/yy	.	.	.	.	.	.	.	.	.	.	.	.	.	.	.	.	.	.	.	.	.
.	.	.	.	.	.	.	.	.	.	.	.	.	32Ree\yy	.	32C/yy	.	.	.	.	.	.	.	.	.	.	.	.	.	.	.	.	.	.	.	.	.
.	.	.	.	.	.	.	.	.	.	.	.	.	32Ree\JJyy	.	32C/JJyy	.	.	.	.	.	.	.	.	.	.	.	.	.	.	.	.	.	.	.	.	.
*	*	*	*	*	*	*	*	*	*	*	*	*	*Xtremolo	*	*Xtremolo	*	*	*	*	*	*	*	*	*	*	*	*	*	*	*	*	*	*	*	*	*
.	8C/Jyy	.	8C/Jyy	.	8c\Jyy	.	8G/Jyy 8eyy	.	8gg\Jyy	.	8ryy	.	8Ree\Jyy	.	8C/Jyy	.	8G\Jyy 8dyy	.	8c\Jyy 8eyy	.	8e/Jyy 8ccyy	.	.	.	.	.	.	.	8e/Jyy 8gyy	.	8ee\Jyy	.	8gg\Jyy	.	8gg\Jyy	.
*	*	*	*	*	*	*	*	*	*	*	*Xrep	*	*Xrep	*	*	*	*	*	*	*	*	*	*	*	*	*	*	*	*	*	*	*	*	*	*	*
=73	=73	=73	=73	=73	=73	=73	=73	=73	=73	=73	=73	=73	=73	=73	=73	=73	=73	=73	=73	=73	=73	=73	=73	=73	=73	=73	=73	=73	=73	=73	=73	=73	=73	=73	=73	=73
*	*rep	*	*repyy	*	*rep	*	*rep	*	*	*	*rep	*	*rep	*	*rep	*	*	*	*	*	*	*	*	*	*tremolo	*	*tremolo	*	*	*	*	*	*	*	*	*
4.ryy	8C/Lyy	.	8C/Lyy	.	8c\Lyy	.	8G/Lyy 8eyy	.	16.eee\LLyy	.	4Ra/yy	.	8ryy	.	8ryy	.	4.G\yy 4.dyy	.	4.c\yy 4.eyy	.	8ryy	.	4.ryy	.	8C/Lyy	.	8g\Lyy 8eeyy	.	16.ee\LLyy	.	16.ee\LLyy	.	16.eee\LLyy	.	16.eee\LLyy	.
.	.	.	.	.	.	.	.	.	32bb\JJkyy	.	.	.	.	.	.	.	.	.	.	.	.	.	.	.	.	.	.	.	32b\JJkyy	.	32b\JJkyy	.	32bb\JJkyy	.	32bb\JJkyy	.
*	*	*	*	*	*	*	*	*	*	*	*	*	*tremolo	*	*tremolo	*	*	*	*	*	*	*	*	*	*	*	*	*	*	*	*	*	*	*	*	*
.	8C/yy	.	8C/yy	.	8c\yy	.	8G/yy 8eyy	.	8ccc\Lyy	.	.	.	32Ree\LLLyy	.	32C/LLLyy	.	.	.	.	.	8e/Lyy 8ccyy	.	.	.	8C/yy	.	8g\yy 8eeyy	.	8cc/Lyy	.	8cc\Lyy	.	8ccc\Lyy	.	8ccc\Lyy	.
.	.	.	.	.	.	.	.	.	.	.	.	.	32Ree\yy	.	32C/yy	.	.	.	.	.	.	.	.	.	.	.	.	.	.	.	.	.	.	.	.	.
.	.	.	.	.	.	.	.	.	.	.	.	.	32Ree\yy	.	32C/yy	.	.	.	.	.	.	.	.	.	.	.	.	.	.	.	.	.	.	.	.	.
.	.	.	.	.	.	.	.	.	.	.	.	.	32Ree\JJyy	.	32C/JJyy	.	.	.	.	.	.	.	.	.	.	.	.	.	.	.	.	.	.	.	.	.
*	*	*	*	*	*	*	*	*	*	*	*	*	*Xtremolo	*	*Xtremolo	*	*	*	*	*	*	*	*	*	*	*	*	*	*	*	*	*	*	*	*	*
.	8C/Jyy	.	8C/Jyy	.	8c\Jyy	.	8G/Jyy 8eyy	.	8gg\Jyy	.	8ryy	.	8Ree\Jyy	.	8C/Jyy	.	.	.	.	.	8e/Jyy 8gyy	.	.	.	8C/Jyy	.	8g\Jyy 8eeyy	.	8e/yyJ 8gyy	.	8ee\Jyy	.	8gg\Jyy	.	8gg\Jyy	.
*	*Xrep	*	*Xrep	*	*Xrep	*	*Xrep	*	*	*	*Xrep	*	*Xrep	*	*Xrep	*	*	*	*	*	*	*	*	*	*	*	*	*	*	*	*	*	*	*	*	*
=74	=74	=74	=74	=74	=74	=74	=74	=74	=74	=74	=74	=74	=74	=74	=74	=74	=74	=74	=74	=74	=74	=74	=74	=74	=74	=74	=74	=74	=74	=74	=74	=74	=74	=74	=74	=74
*	*rep	*	*repyy	*	*rep	*	*rep	*	*	*	*rep	*	*rep	*	*rep	*	*	*	*	*	*	*	*	*	*	*	*	*	*	*	*	*	*	*	*	*
4.ryy	8C/Lyy	.	8C/Lyy	.	8c\Lyy	.	8G/Lyy 8eyy	.	(>24aa\LLyy	.	4Ra/yy	.	8ryy	.	8ryy	.	4.G\yy 4.dyy	.	4.c\yy 4.eyy	.	8ryy	.	4.ryy	.	8C/Lyy	.	8g\Lyy 8eeyy	.	(24f/LyyL 24ayy	.	(24ff\LLyy	.	(24aa\LLyy	.	(24aa\LLyy	.
.	.	.	.	.	.	.	.	.	24gg\)yy	.	.	.	.	.	.	.	.	.	.	.	.	.	.	.	.	.	.	.	24e/)yy 24gyy	.	24ee\)yy	.	24gg\)yy	.	24gg\)yy	.
.	.	.	.	.	.	.	.	.	24ff#X'\JJyy	.	.	.	.	.	.	.	.	.	.	.	.	.	.	.	.	.	.	.	24d#X'/JJyy 24f#Xyy	.	24dd#X'\JJyy	.	24ff#X'\JJyy	.	24ff#X'\JJyy	.
*	*	*	*	*	*	*	*	*	*	*	*	*	*tremolo	*	*tremolo	*	*	*	*	*	*	*	*	*	*	*	*	*	*	*	*	*	*	*	*	*
.	8C/yy	.	8C/yy	.	8c\yy	.	8G/yy 8eyy	.	8gg'\Lyy	.	.	.	32Ree\LLLyy	.	32C/LLLyy	.	.	.	.	.	8e/Lyy 8gyy	.	.	.	8C/yy	.	8g\yy 8eeyy	.	8e'/Lyy 8gyy	.	8ee\Lyy	.	8gg'\Lyy	.	8gg'\Lyy	.
.	.	.	.	.	.	.	.	.	.	.	.	.	32Ree\yy	.	32C/yy	.	.	.	.	.	.	.	.	.	.	.	.	.	.	.	.	.	.	.	.	.
.	.	.	.	.	.	.	.	.	.	.	.	.	32Ree\yy	.	32C/yy	.	.	.	.	.	.	.	.	.	.	.	.	.	.	.	.	.	.	.	.	.
.	.	.	.	.	.	.	.	.	.	.	.	.	32Ree\JJyy	.	32C/JJyy	.	.	.	.	.	.	.	.	.	.	.	.	.	.	.	.	.	.	.	.	.
*	*	*	*	*	*	*	*	*	*	*	*	*	*Xtremolo	*	*Xtremolo	*	*	*	*	*	*	*	*	*	*	*	*	*	*	*	*	*	*	*	*	*
.	8C/Jyy	.	8C/Jyy	.	8c\Jyy	.	8G/Jyy 8eyy	.	8ee'\Jyy	.	8ryy	.	8Ree\Jyy	.	8C/Jyy	.	.	.	.	.	8c/Jyy 8yye	.	.	.	8C/Jyy	.	8g\Jyy 8eeyy	.	8c'/Jyy 8eyy	.	8cc\Jyy	.	8ee'\Jyy	.	8ee'\Jyy	.
*	*Xrep	*	*Xrep	*	*	*	*	*	*	*	*	*	*	*	*	*	*	*	*	*	*	*	*	*	*	*	*	*	*	*	*	*	*	*	*	*
*	*Xtremolo	*	*Xtremolo	*	*Xrep	*	*Xrep	*	*	*	*Xrep	*	*Xrep	*	*Xrep	*	*	*	*	*	*	*	*	*	*Xtremolo	*	*	*	*	*	*	*	*	*	*	*
=75	=75	=75	=75	=75	=75	=75	=75	=75	=75	=75	=75	=75	=75	=75	=75	=75	=75	=75	=75	=75	=75	=75	=75	=75	=75	=75	=75	=75	=75	=75	=75	=75	=75	=75	=75	=75
*	*	*	*	*	*	*	*	*	*	*	*rep	*	*rep	*	*	*	*	*	*	*	*	*	*	*	*	*	*	*	*	*	*	*	*	*	*	*
!	!LO:TX:t=P:problem=mixed beam	!	!LO:TX:t=P:problem=mixed beam	!	!	!	!	!	!	!	!	!	!	!	!	!	!	!	!	!	!	!	!	!	!LO:TX:t=P:problem=mixed beam	!	!	!	!	!	!	!	!	!	!	!
4.ryy	8GG/Lyy	.	8GG/Lyy	.	8B\Lyy 8dyy	.	8G/Lyy 8fyy	.	(>24ff\LLyy	.	4Ra/yy	.	8ryy	.	8ryy	.	4.D/yy 4.dyy	.	4.d\yy 4.fyy	.	8ryy	.	4.ryy	.	8GG/Lyy	.	8g\Lyy 8ddyy	.	(24d/LLyy 24fyy	.	(24dd\LLyy	.	(24ff\LLyy	.	(24ff\LLyy	.
.	.	.	.	.	.	.	.	.	24gg\yy	.	.	.	.	.	.	.	.	.	.	.	.	.	.	.	.	.	.	.	24e/yy 24gyy	.	24ee\yy	.	24gg\yy	.	24gg\yy	.
.	.	.	.	.	.	.	.	.	24ff\JJyy	.	.	.	.	.	.	.	.	.	.	.	.	.	.	.	.	.	.	.	24d/JJyy 24fyy	.	24dd\JJyy	.	24ff\JJyy	.	24ff\JJyy	.
*	*	*	*	*	*	*	*	*	*	*	*	*	*tremolo	*	*tremolo	*	*	*	*	*	*	*	*	*	*	*	*	*	*	*	*	*	*	*	*	*
.	8G\yy	.	8G\yy	.	8B\yy 8dyy	.	8G/yy 8fyy	.	8dd\L)yy	.	.	.	32Ree\LLLyy	.	32GG/LLLyy	.	.	.	.	.	8d/Lyy 8yyb	.	.	.	8G\yy	.	8g\yy 8ddyy	.	8B/L)yy 8dyy	.	8b\L)yy	.	8dd\L)yy	.	8dd\L)yy	.
.	.	.	.	.	.	.	.	.	.	.	.	.	32Ree\yy	.	32GG/yy	.	.	.	.	.	.	.	.	.	.	.	.	.	.	.	.	.	.	.	.	.
.	.	.	.	.	.	.	.	.	.	.	.	.	32Ree\yy	.	32GG/yy	.	.	.	.	.	.	.	.	.	.	.	.	.	.	.	.	.	.	.	.	.
.	.	.	.	.	.	.	.	.	.	.	.	.	32Ree\JJyy	.	32GG/JJyy	.	.	.	.	.	.	.	.	.	.	.	.	.	.	.	.	.	.	.	.	.
*	*	*	*	*	*	*	*	*	*	*	*	*	*Xtremolo	*	*Xtremolo	*	*	*	*	*	*	*	*	*	*	*	*	*	*	*	*	*	*	*	*	*
.	8GG/Jyy	.	8GG/Jyy	.	8B\Jyy 8dyy	.	8G/Jyy 8fyy	.	8bb'\Jyy	.	8ryy	.	8Ree\Jyy	.	8GG/Jyy	.	.	.	.	.	8f/Jyy 8ddyy	.	.	.	8GG/Jyy	.	8g\Jyy 8ddyy	.	8b'/yyJ 8ddyy	.	8bb\Jyy	.	8bb'\Jyy	.	8bb'\Jyy	.
*	*	*	*	*	*Xtremolo	*	*Xtremolo	*	*	*	*Xrep	*	*Xrep	*	*	*	*	*	*	*	*	*	*	*	*	*	*Xtremolo	*	*	*	*	*	*	*	*	*
=76	=76	=76	=76	=76	=76	=76	=76	=76	=76	=76	=76	=76	=76	=76	=76	=76	=76	=76	=76	=76	=76	=76	=76	=76	=76	=76	=76	=76	=76	=76	=76	=76	=76	=76	=76	=76
4ryy	16C/	.	16C/yy	.	16c\	.	16G/ 16e	.	16ccc\	.	16Ra/	.	16Ree\	.	16C/	.	16G\ 16d	.	16c\ 16e	.	16e/ 16cc	.	8r	.	16C/	.	16e/ 16cc	.	16cc\ 16ee	.	16ccc\	.	16ccc\	.	16ccc\	.
.	16r	.	16ryy	.	16r	.	16r	.	16r	.	16r	.	16r	.	16r	.	16r	.	16r	.	16r	.	.	.	16r	.	16r	.	16r	.	16r	.	16r	.	16r	.
.	16C/	.	16C/yy	.	16C/ 16G 16e	.	16e\ 16cc 16gg	.	16g\ 16ee 16ccc	.	16Ra/	.	16Ree\	.	16C/	.	16G\ 16d	.	16c\ 16e	.	16e/ 16cc	.	8r;>	.	16C/	.	16e/ 16cc	.	16ee\ 16gg	.	16ccc\	.	16ccc\	.	16ccc\	.
.	16r;>	.	16r;>yy	.	16r;>	.	16r;>	.	16r;>	.	16r;>	.	16r;>	.	16r;>	.	16r;>	.	16r;>	.	16r;>	.	.	.	16r;>	.	16r;>	.	16r;>	.	16r;>	.	16r;>	.	16r;>	.
==	==	==	==	==	==	==	==	==	==	==	==	==	==	==	==	==	==	==	==	==	==	==	==	==	==	==	==	==	==	==	==	==	==	==	==	==
*-	*-	*-	*-	*-	*-	*-	*-	*-	*-	*-	*-	*-	*-	*-	*-	*-	*-	*-	*-	*-	*-	*-	*-	*-	*-	*-	*-	*-	*-	*-	*-	*-	*-	*-	*-	*-
!!!system-decoration: {(s1,s2)}s3,s4,s5,s6{(s7,s8)}{(g1)}(s11){(s12,s13)}{(g2)}(s16){(s17,s18)}(s19)
!!!RDF**kern: < = below
!!!RDF**kern: > = above
!!!ENC: Marta Chmielewska
!!!END: 2021-06-21
!!!ENC: Mateusz Solarz
!!!END: 2021-06-09
!!!YEC: Copyright 2022 Narodowy Instytut Fryderyka Chopina (https://polishscores.org)
!!!YEM: Licence CC BY 4.0 (https://creativecommons.org/licenses/by/4.0)
